(/Applications/pcbgcode.repo/pcb-gcode.ulp)
(Copyright 2005 - 2012 by John Johnson)
(See readme.txt for licensing terms.)
(This file generated from the board:)
(.../CAM/eurorack/Active-Mult/mult.brd)
(Current profile is .../pcbgcode.repo/profiles/mach.pp  )
(This file generated 12/30/15 7:01 PM)
(Settings from pcb-machine.h)
(spindle on time = 0.0000)
(spindle speed = 20000.0000)
(tool change at 0.0000  0.0000  3.0000  )
(feed rate xy = F0     )
(feed rate z  = F20    )
(Z Axis Settings)
(  High     Up        Down     Drill)
(1.0000  	0.0500  	-0.0040 	-0.0730 )
(Settings from pcb-defaults.h)
(isolate min = 0.0010)
(isolate max = 0.0150)
(isolate step = 0.0015)
(Generated bottom outlines, bottom drill, )
(Unit of measure: inch)
( Tool|       Size       |  Min Sub |  Max Sub |   Count )
( T01 | 0.800mm 0.0315in | 0.0000in | 0.0000in |       0 )
( T02 | 0.813mm 0.0320in | 0.0000in | 0.0000in |       0 )
( T03 | 1.016mm 0.0400in | 0.0000in | 0.0000in |       0 )
( T04 | 1.300mm 0.0512in | 0.0000in | 0.0000in |       0 )
(Inch Mode)
G20
(Absolute Coordinates)
G90
S20000
G00 Z1.0000  
G00 X0.0000  Y0.0000  
M03
G04 P0.000000
M05
G00 Z3.0000  
M06 T01  ; 0.0315  
G01 Z0.0000  F20    
M06 
G00 Z0.0500  
M03
G04 P0.000000
G82 X-0.7266 Y0.3750  Z-0.0730 F20    R0.0500  P0.010000
G82 X-0.9234 Y0.3750  
G82 X-1.1500 Y0.3984  
G82 X-1.1500 Y0.2016  
M05
G00 Z3.0000  
G00 X0.0000  Y0.0000  
M06 T02  ; 0.0320  
G01 Z0.0000  F20    
M06 
G00 Z0.0500  
M03
G04 P0.000000
G82 X-0.7250 Y0.9000  Z-0.0730 F20    R0.0500  P0.010000
G82 X-0.7500 Y0.7500  
G82 X-0.8000 Y0.6000  
G82 X-0.9000 Y0.6000  
G82 X-1.0500 Y0.6000  
G82 X-1.1500 Y0.6000  
G82 X-1.1500 Y0.7500  
G82 X-1.1500 Y0.9250  
G82 X-1.2000 Y1.0500  
G82 X-1.2000 Y1.1500  
G82 X-1.2000 Y1.2500  
G82 X-1.2000 Y1.3500  
G82 X-1.2000 Y1.4500  
G82 X-1.2000 Y1.5500  
G82 X-1.2000 Y1.6500  
G82 X-1.2500 Y1.7500  
G82 X-1.2500 Y1.9500  
G82 X-1.1500 Y2.0500  
G82 X-1.0500 Y2.0500  
G82 X-0.9000 Y1.9500  
G82 X-0.7750 Y1.9500  
G82 X-0.7500 Y1.8500  
G82 X-0.9000 Y1.6500  
G82 X-0.9000 Y1.5500  
G82 X-0.9000 Y1.4500  
G82 X-0.9000 Y1.3500  
G82 X-0.9000 Y1.2500  
G82 X-0.9000 Y1.1500  
G82 X-0.9000 Y1.0500  
G82 X-0.9500 Y0.9250  
G82 X-0.7250 Y1.3000  
G82 X-0.7500 Y1.4500  
G82 X-0.7750 Y2.3500  
G82 X-0.9000 Y2.3500  
M05
G00 Z3.0000  
G00 X0.0000  Y0.0000  
M06 T03  ; 0.0400  
G01 Z0.0000  F20    
M06 
G00 Z0.0500  
M03
G04 P0.000000
G82 X-0.2500 Y0.0500  Z-0.0730 F20    R0.0500  P0.010000
G82 X-0.3500 Y0.0500  
G82 X-0.3500 Y0.1500  
G82 X-0.2500 Y0.1500  
G82 X-0.4500 Y0.1500  
G82 X-0.4500 Y0.0500  
G82 X-0.5500 Y0.0500  
G82 X-0.6500 Y0.0500  
G82 X-0.7500 Y0.0500  
G82 X-0.8500 Y0.0500  
G82 X-0.9500 Y0.0500  
G82 X-0.9500 Y0.1500  
G82 X-0.8500 Y0.1500  
G82 X-0.7500 Y0.1500  
G82 X-0.6500 Y0.1500  
G82 X-0.5500 Y0.1500  
M05
G00 Z3.0000  
G00 X0.0000  Y0.0000  
M06 T04  ; 0.0512  
G01 Z0.0000  F20    
M06 
G00 Z0.0500  
M03
G04 P0.000000
G82 X-0.0980 Y0.5130  Z-0.0730 F20    R0.0500  P0.010000
G82 X-0.0984 Y0.5469  
G82 X-0.0980 Y0.5800  
G82 X-0.4980 Y0.3420  
G82 X-0.5315 Y0.3421  
G82 X-0.5650 Y0.3420  
G82 X-0.6180 Y0.5140  
G82 X-0.6181 Y0.5469  
G82 X-0.6180 Y0.5800  
G82 X-0.5650 Y0.8920  
G82 X-0.5315 Y0.8921  
G82 X-0.4980 Y0.8920  
G82 X-0.6180 Y1.0640  
G82 X-0.6181 Y1.0969  
G82 X-0.6180 Y1.1300  
G82 X-0.5650 Y1.4420  
G82 X-0.5315 Y1.4421  
G82 X-0.4980 Y1.4420  
G82 X-0.6180 Y1.6140  
G82 X-0.6181 Y1.6469  
G82 X-0.6180 Y1.6800  
G82 X-0.5650 Y2.1920  
G82 X-0.5315 Y2.1921  
G82 X-0.4980 Y2.1920  
G82 X-0.6180 Y2.3640  
G82 X-0.6181 Y2.3969  
G82 X-0.6180 Y2.4300  
G82 X-0.0980 Y2.4300  
G82 X-0.0984 Y2.3969  
G82 X-0.0980 Y2.3630  
G82 X-0.0980 Y1.6800  
G82 X-0.0984 Y1.6469  
G82 X-0.0980 Y1.6130  
G82 X-0.0980 Y1.1300  
G82 X-0.0984 Y1.0969  
G82 X-0.0980 Y1.0630  
T01 
G00 Z1.0000  
M05
M02
