(/Applications/pcbgcode.repo/pcb-gcode.ulp)
(Copyright 2005 - 2012 by John Johnson)
(See readme.txt for licensing terms.)
(This file generated from the board:)
(.../CAM/eurorack/Active-Mult/mult.brd)
(Current profile is .../pcbgcode.repo/profiles/mach.pp  )
(This file generated 12/30/15 6:57 PM)
(Settings from pcb-machine.h)
(spindle on time = 0.0000)
(  Tool Size)
(0.0100  )
(spindle speed = 30000.0000)
(tool change at 0.0000  0.0000  3.0000  )
(feed rate xy = F20    )
(feed rate z  = F10    )
(Z Axis Settings)
(  High     Up        Down     Drill)
(1.0000  	0.0500  	-0.0040 	-0.0730 )
(Settings from pcb-defaults.h)
(isolate min = 0.0010)
(isolate max = 0.0150)
(isolate step = 0.0015)
(Generated bottom outlines, bottom drill, )
(Unit of measure: inch)
(Inch Mode)
G20
(Absolute Coordinates)
G90
S30000
G00 Z1.0000  
G00 X0.0000  Y0.0000  
M03
G04 P0.000000
G00 Z0.0500  
G00 X-0.2070 Y0.0322  
G01 Z-0.0040 F10    
G01 X-0.2322 Y0.0070  F20    
G01 X-0.2678 Y0.0070  
G01 X-0.2930 Y0.0322  
G01 X-0.2930 Y0.0678  
G01 X-0.2678 Y0.0930  
G01 X-0.2322 Y0.0930  
G01 X-0.2070 Y0.0678  
G01 X-0.2070 Y0.0322  
G00 Z0.0500  
G00 X-0.2070 Y0.1322  
G01 Z-0.0040 F10    
G01 X-0.2322 Y0.1070  F20    
G01 X-0.2678 Y0.1070  
G01 X-0.2930 Y0.1322  
G01 X-0.2930 Y0.1678  
G01 X-0.2678 Y0.1930  
G01 X-0.2322 Y0.1930  
G01 X-0.2070 Y0.1678  
G01 X-0.2070 Y0.1322  
G00 Z0.0500  
G00 X-0.3070 Y0.1322  
G01 Z-0.0040 F10    
G01 X-0.3322 Y0.1070  F20    
G01 X-0.3678 Y0.1070  
G01 X-0.3930 Y0.1322  
G01 X-0.3930 Y0.1678  
G01 X-0.3678 Y0.1930  
G01 X-0.3322 Y0.1930  
G01 X-0.3070 Y0.1678  
G01 X-0.3070 Y0.1322  
G00 Z0.0500  
G00 X-0.3322 Y0.0930  
G01 Z-0.0040 F10    
G01 X-0.3070 Y0.0678  F20    
G01 X-0.3070 Y0.0322  
G01 X-0.3322 Y0.0070  
G01 X-0.3678 Y0.0070  
G01 X-0.3930 Y0.0322  
G01 X-0.3930 Y0.0678  
G01 X-0.3678 Y0.0930  
G01 X-0.3322 Y0.0930  
G00 Z0.0500  
G00 X-0.4322 Y0.0930  
G01 Z-0.0040 F10    
G01 X-0.4070 Y0.0678  F20    
G01 X-0.4070 Y0.0322  
G01 X-0.4322 Y0.0070  
G01 X-0.4678 Y0.0070  
G01 X-0.4930 Y0.0322  
G01 X-0.4930 Y0.0678  
G01 X-0.4678 Y0.0930  
G01 X-0.4322 Y0.0930  
G00 Z0.0500  
G00 X-0.4322 Y0.1070  
G01 Z-0.0040 F10    
G01 X-0.4678 Y0.1070  F20    
G01 X-0.4930 Y0.1322  
G01 X-0.4930 Y0.1678  
G01 X-0.4678 Y0.1930  
G01 X-0.4322 Y0.1930  
G01 X-0.4070 Y0.1678  
G01 X-0.4070 Y0.1322  
G01 X-0.4322 Y0.1070  
G00 Z0.0500  
G00 X-0.5070 Y0.1322  
G01 Z-0.0040 F10    
G01 X-0.5280 Y0.1112  F20    
G01 X-0.5280 Y0.0888  
G01 X-0.5070 Y0.0678  
G01 X-0.5070 Y0.0322  
G01 X-0.5322 Y0.0070  
G01 X-0.5678 Y0.0070  
G01 X-0.5930 Y0.0322  
G01 X-0.5930 Y0.0678  
G01 X-0.5720 Y0.0888  
G01 X-0.5720 Y0.1112  
G01 X-0.5930 Y0.1322  
G01 X-0.5930 Y0.1678  
G01 X-0.5902 Y0.1706  
G01 X-0.6164 Y0.2100  
G01 X-0.7372 Y0.3066  
G01 X-0.7379 Y0.3070  
G01 X-0.7394 Y0.3084  
G01 X-0.7410 Y0.3096  
G01 X-0.7415 Y0.3103  
G01 X-0.7422 Y0.3109  
G01 X-0.7432 Y0.3127  
G01 X-0.7444 Y0.3143  
G01 X-0.7448 Y0.3151  
G01 X-0.7452 Y0.3159  
G01 X-0.7458 Y0.3178  
G01 X-0.7465 Y0.3197  
G01 X-0.7466 Y0.3206  
G01 X-0.7469 Y0.3214  
G01 X-0.7470 Y0.3234  
G01 X-0.7472 Y0.3254  
G01 X-0.7471 Y0.3263  
G01 X-0.7474 Y0.3362  
G01 X-0.7496 Y0.3374  
G01 X-0.7552 Y0.3414  
G01 X-0.7601 Y0.3463  
G01 X-0.7642 Y0.3519  
G01 X-0.7674 Y0.3581  
G01 X-0.7695 Y0.3647  
G01 X-0.7706 Y0.3715  
G01 X-0.7706 Y0.3785  
G01 X-0.7695 Y0.3853  
G01 X-0.7674 Y0.3919  
G01 X-0.7642 Y0.3981  
G01 X-0.7601 Y0.4037  
G01 X-0.7552 Y0.4086  
G01 X-0.7496 Y0.4126  
G01 X-0.7435 Y0.4158  
G01 X-0.7369 Y0.4179  
G01 X-0.7300 Y0.4190  
G01 X-0.7231 Y0.4190  
G01 X-0.7163 Y0.4179  
G01 X-0.7097 Y0.4158  
G01 X-0.7035 Y0.4126  
G01 X-0.6979 Y0.4086  
G01 X-0.6930 Y0.4037  
G01 X-0.6889 Y0.3981  
G01 X-0.6858 Y0.3919  
G01 X-0.6837 Y0.3853  
G01 X-0.6826 Y0.3785  
G01 X-0.6826 Y0.3715  
G01 X-0.6837 Y0.3647  
G01 X-0.6858 Y0.3581  
G01 X-0.6889 Y0.3519  
G01 X-0.6930 Y0.3463  
G01 X-0.6979 Y0.3414  
G01 X-0.7034 Y0.3375  
G01 X-0.7033 Y0.3358  
G01 X-0.5881 Y0.2437  
G01 X-0.5877 Y0.2434  
G01 X-0.5859 Y0.2419  
G01 X-0.5840 Y0.2404  
G01 X-0.5837 Y0.2400  
G01 X-0.5833 Y0.2396  
G01 X-0.5820 Y0.2376  
G01 X-0.5806 Y0.2357  
G01 X-0.5804 Y0.2352  
G01 X-0.5522 Y0.1930  
G01 X-0.5322 Y0.1930  
G01 X-0.5070 Y0.1678  
G01 X-0.5070 Y0.1322  
G00 Z0.0500  
G00 X-0.6070 Y0.1322  
G01 Z-0.0040 F10    
G01 X-0.6280 Y0.1112  F20    
G01 X-0.6280 Y0.0888  
G01 X-0.6070 Y0.0678  
G01 X-0.6070 Y0.0322  
G01 X-0.6322 Y0.0070  
G01 X-0.6678 Y0.0070  
G01 X-0.6888 Y0.0280  
G01 X-0.7112 Y0.0280  
G01 X-0.7322 Y0.0070  
G01 X-0.7678 Y0.0070  
G01 X-0.7888 Y0.0280  
G01 X-0.8112 Y0.0280  
G01 X-0.8322 Y0.0070  
G01 X-0.8678 Y0.0070  
G01 X-0.8930 Y0.0322  
G01 X-0.8930 Y0.0678  
G01 X-0.8678 Y0.0930  
G01 X-0.8322 Y0.0930  
G01 X-0.8112 Y0.0720  
G01 X-0.7888 Y0.0720  
G01 X-0.7678 Y0.0930  
G01 X-0.7322 Y0.0930  
G01 X-0.7112 Y0.0720  
G01 X-0.6888 Y0.0720  
G01 X-0.6720 Y0.0888  
G01 X-0.6720 Y0.1112  
G01 X-0.6888 Y0.1280  
G01 X-0.7112 Y0.1280  
G01 X-0.7322 Y0.1070  
G01 X-0.7678 Y0.1070  
G01 X-0.7888 Y0.1280  
G01 X-0.8112 Y0.1280  
G01 X-0.8322 Y0.1070  
G01 X-0.8678 Y0.1070  
G01 X-0.8930 Y0.1322  
G01 X-0.8930 Y0.1678  
G01 X-0.8720 Y0.1888  
G01 X-0.8720 Y0.2530  
G01 X-0.9779 Y0.2530  
G01 X-0.9835 Y0.2545  
G01 X-0.9885 Y0.2574  
G01 X-0.9926 Y0.2615  
G01 X-1.0426 Y0.3115  
G01 X-1.0455 Y0.3165  
G01 X-1.0470 Y0.3221  
G01 X-1.0470 Y0.3738  
G01 X-1.0685 Y0.5673  
G01 X-1.0739 Y0.5709  
G01 X-1.0791 Y0.5761  
G01 X-1.0832 Y0.5822  
G01 X-1.0861 Y0.5891  
G01 X-1.0875 Y0.5963  
G01 X-1.0875 Y0.6037  
G01 X-1.0861 Y0.6109  
G01 X-1.0832 Y0.6178  
G01 X-1.0791 Y0.6239  
G01 X-1.0739 Y0.6291  
G01 X-1.0720 Y0.6304  
G01 X-1.0720 Y0.7683  
G01 X-1.1551 Y0.8930  
G01 X-1.1633 Y0.8930  
G01 X-1.1820 Y0.9117  
G01 X-1.1820 Y0.9383  
G01 X-1.1633 Y0.9570  
G01 X-1.1367 Y0.9570  
G01 X-1.1180 Y0.9383  
G01 X-1.1180 Y0.9167  
G01 X-1.0329 Y0.7890  
G01 X-1.0324 Y0.7885  
G01 X-1.0313 Y0.7866  
G01 X-1.0301 Y0.7848  
G01 X-1.0299 Y0.7841  
G01 X-1.0295 Y0.7835  
G01 X-1.0289 Y0.7814  
G01 X-1.0282 Y0.7793  
G01 X-1.0282 Y0.7786  
G01 X-1.0280 Y0.7779  
G01 X-1.0280 Y0.7757  
G01 X-1.0279 Y0.7735  
G01 X-1.0280 Y0.7728  
G01 X-1.0280 Y0.6304  
G01 X-1.0261 Y0.6291  
G01 X-1.0209 Y0.6239  
G01 X-1.0168 Y0.6178  
G01 X-1.0139 Y0.6109  
G01 X-1.0125 Y0.6037  
G01 X-1.0125 Y0.5963  
G01 X-1.0139 Y0.5891  
G01 X-1.0168 Y0.5822  
G01 X-1.0209 Y0.5761  
G01 X-1.0248 Y0.5722  
G01 X-1.0033 Y0.3791  
G01 X-1.0030 Y0.3779  
G01 X-1.0030 Y0.3762  
G01 X-1.0028 Y0.3746  
G01 X-1.0030 Y0.3733  
G01 X-1.0030 Y0.3341  
G01 X-0.9659 Y0.2970  
G01 X-0.8591 Y0.2970  
G01 X-0.8470 Y0.3091  
G01 X-0.8470 Y0.5779  
G01 X-0.8455 Y0.5835  
G01 X-0.8426 Y0.5885  
G01 X-0.8385 Y0.5926  
G01 X-0.8375 Y0.5936  
G01 X-0.8375 Y0.6155  
G01 X-0.8287 Y0.6243  
G01 X-0.8708 Y0.7923  
G01 X-0.8710 Y0.7928  
G01 X-0.8715 Y0.7951  
G01 X-0.8720 Y0.7975  
G01 X-0.8720 Y0.7980  
G01 X-0.8721 Y0.7984  
G01 X-0.8720 Y0.8008  
G01 X-0.8719 Y0.8033  
G01 X-0.8718 Y0.8037  
G01 X-0.8718 Y0.8042  
G01 X-0.8710 Y0.8065  
G01 X-0.8704 Y0.8088  
G01 X-0.8701 Y0.8092  
G01 X-0.8700 Y0.8097  
G01 X-0.8686 Y0.8117  
G01 X-0.8674 Y0.8138  
G01 X-0.8670 Y0.8141  
G01 X-0.8668 Y0.8145  
G01 X-0.8650 Y0.8161  
G01 X-0.8632 Y0.8178  
G01 X-0.8628 Y0.8181  
G01 X-0.8624 Y0.8184  
G01 X-0.8603 Y0.8195  
G01 X-0.8581 Y0.8206  
G01 X-0.8577 Y0.8208  
G01 X-0.8104 Y0.8444  
G01 X-0.8085 Y0.8455  
G01 X-0.8078 Y0.8457  
G01 X-0.8072 Y0.8460  
G01 X-0.8051 Y0.8464  
G01 X-0.8029 Y0.8470  
G01 X-0.8022 Y0.8470  
G01 X-0.8016 Y0.8471  
G01 X-0.7993 Y0.8470  
G01 X-0.7022 Y0.8470  
G01 X-0.7015 Y0.8471  
G01 X-0.6993 Y0.8470  
G01 X-0.6971 Y0.8470  
G01 X-0.6964 Y0.8468  
G01 X-0.6957 Y0.8468  
G01 X-0.6936 Y0.8461  
G01 X-0.6915 Y0.8455  
G01 X-0.6909 Y0.8451  
G01 X-0.6902 Y0.8449  
G01 X-0.6884 Y0.8437  
G01 X-0.6865 Y0.8426  
G01 X-0.6860 Y0.8421  
G01 X-0.6183 Y0.7970  
G01 X-0.3970 Y0.7970  
G01 X-0.3970 Y1.9693  
G01 X-0.4897 Y2.1361  
G01 X-0.5859 Y2.1361  
G01 X-0.5946 Y2.1375  
G01 X-0.6030 Y2.1402  
G01 X-0.6108 Y2.1442  
G01 X-0.6180 Y2.1494  
G01 X-0.6242 Y2.1556  
G01 X-0.6294 Y2.1628  
G01 X-0.6334 Y2.1706  
G01 X-0.6361 Y2.1790  
G01 X-0.6375 Y2.1877  
G01 X-0.6375 Y2.1965  
G01 X-0.6361 Y2.2052  
G01 X-0.6334 Y2.2136  
G01 X-0.6294 Y2.2215  
G01 X-0.6242 Y2.2286  
G01 X-0.6180 Y2.2348  
G01 X-0.6108 Y2.2400  
G01 X-0.6030 Y2.2440  
G01 X-0.5946 Y2.2467  
G01 X-0.5859 Y2.2481  
G01 X-0.4771 Y2.2481  
G01 X-0.4684 Y2.2467  
G01 X-0.4600 Y2.2440  
G01 X-0.4521 Y2.2400  
G01 X-0.4450 Y2.2348  
G01 X-0.4388 Y2.2286  
G01 X-0.4336 Y2.2215  
G01 X-0.4299 Y2.2141  
G01 X-0.3123 Y2.2141  
G01 X-0.1544 Y2.3720  
G01 X-0.1544 Y2.4097  
G01 X-0.2136 Y2.5280  
G01 X-0.6848 Y2.5280  
G01 X-0.7456 Y2.3658  
G01 X-0.7430 Y2.3633  
G01 X-0.7430 Y2.3367  
G01 X-0.7617 Y2.3180  
G01 X-0.7883 Y2.3180  
G01 X-0.7983 Y2.3280  
G01 X-0.8767 Y2.3280  
G01 X-0.8867 Y2.3180  
G01 X-0.9133 Y2.3180  
G01 X-0.9233 Y2.3280  
G01 X-1.0864 Y2.3280  
G01 X-1.2280 Y2.0448  
G01 X-1.2280 Y1.9733  
G01 X-1.2180 Y1.9633  
G01 X-1.2180 Y1.9367  
G01 X-1.2367 Y1.9180  
G01 X-1.2633 Y1.9180  
G01 X-1.2820 Y1.9367  
G01 X-1.2820 Y1.9633  
G01 X-1.2720 Y1.9733  
G01 X-1.2720 Y2.0493  
G01 X-1.2721 Y2.0516  
G01 X-1.2720 Y2.0522  
G01 X-1.2720 Y2.0529  
G01 X-1.2714 Y2.0551  
G01 X-1.2710 Y2.0572  
G01 X-1.2707 Y2.0578  
G01 X-1.2705 Y2.0585  
G01 X-1.2694 Y2.0604  
G01 X-1.1207 Y2.3578  
G01 X-1.1205 Y2.3585  
G01 X-1.1194 Y2.3604  
G01 X-1.1184 Y2.3624  
G01 X-1.1179 Y2.3629  
G01 X-1.1176 Y2.3635  
G01 X-1.1160 Y2.3651  
G01 X-1.1145 Y2.3668  
G01 X-1.1140 Y2.3671  
G01 X-1.1135 Y2.3676  
G01 X-1.1116 Y2.3687  
G01 X-1.1097 Y2.3700  
G01 X-1.1091 Y2.3702  
G01 X-1.1085 Y2.3705  
G01 X-1.1063 Y2.3711  
G01 X-1.1042 Y2.3718  
G01 X-1.1035 Y2.3718  
G01 X-1.1029 Y2.3720  
G01 X-1.1007 Y2.3720  
G01 X-1.0984 Y2.3721  
G01 X-1.0978 Y2.3720  
G01 X-0.9233 Y2.3720  
G01 X-0.9133 Y2.3820  
G01 X-0.8867 Y2.3820  
G01 X-0.8767 Y2.3720  
G01 X-0.7983 Y2.3720  
G01 X-0.7883 Y2.3820  
G01 X-0.7865 Y2.3820  
G01 X-0.7210 Y2.5567  
G01 X-0.7205 Y2.5585  
G01 X-0.7200 Y2.5594  
G01 X-0.7196 Y2.5604  
G01 X-0.7185 Y2.5619  
G01 X-0.7176 Y2.5635  
G01 X-0.7168 Y2.5643  
G01 X-0.7162 Y2.5651  
G01 X-0.7148 Y2.5663  
G01 X-0.7135 Y2.5676  
G01 X-0.7126 Y2.5681  
G01 X-0.7117 Y2.5688  
G01 X-0.7101 Y2.5696  
G01 X-0.7085 Y2.5705  
G01 X-0.7074 Y2.5708  
G01 X-0.7065 Y2.5712  
G01 X-0.7047 Y2.5715  
G01 X-0.7029 Y2.5720  
G01 X-0.7018 Y2.5720  
G01 X-0.7008 Y2.5722  
G01 X-0.6989 Y2.5720  
G01 X-0.2022 Y2.5720  
G01 X-0.2016 Y2.5721  
G01 X-0.1993 Y2.5720  
G01 X-0.1971 Y2.5720  
G01 X-0.1965 Y2.5718  
G01 X-0.1958 Y2.5718  
G01 X-0.1937 Y2.5711  
G01 X-0.1915 Y2.5705  
G01 X-0.1909 Y2.5702  
G01 X-0.1903 Y2.5700  
G01 X-0.1884 Y2.5687  
G01 X-0.1865 Y2.5676  
G01 X-0.1860 Y2.5671  
G01 X-0.1855 Y2.5668  
G01 X-0.1840 Y2.5651  
G01 X-0.1824 Y2.5635  
G01 X-0.1821 Y2.5629  
G01 X-0.1816 Y2.5624  
G01 X-0.1806 Y2.5604  
G01 X-0.1795 Y2.5585  
G01 X-0.1793 Y2.5578  
G01 X-0.1417 Y2.4826  
G01 X-0.1411 Y2.4833  
G01 X-0.1349 Y2.4896  
G01 X-0.1278 Y2.4947  
G01 X-0.1199 Y2.4987  
G01 X-0.1115 Y2.5015  
G01 X-0.1028 Y2.5029  
G01 X-0.0940 Y2.5029  
G01 X-0.0853 Y2.5015  
G01 X-0.0769 Y2.4987  
G01 X-0.0691 Y2.4947  
G01 X-0.0619 Y2.4896  
G01 X-0.0557 Y2.4833  
G01 X-0.0505 Y2.4762  
G01 X-0.0465 Y2.4683  
G01 X-0.0438 Y2.4600  
G01 X-0.0424 Y2.4513  
G01 X-0.0424 Y2.3424  
G01 X-0.0438 Y2.3337  
G01 X-0.0465 Y2.3254  
G01 X-0.0505 Y2.3175  
G01 X-0.0557 Y2.3104  
G01 X-0.0619 Y2.3041  
G01 X-0.0691 Y2.2990  
G01 X-0.0769 Y2.2950  
G01 X-0.0853 Y2.2922  
G01 X-0.0940 Y2.2909  
G01 X-0.1028 Y2.2909  
G01 X-0.1115 Y2.2922  
G01 X-0.1199 Y2.2950  
G01 X-0.1278 Y2.2990  
G01 X-0.1349 Y2.3041  
G01 X-0.1411 Y2.3104  
G01 X-0.1463 Y2.3175  
G01 X-0.1464 Y2.3177  
G01 X-0.2896 Y2.1745  
G01 X-0.2947 Y2.1716  
G01 X-0.3003 Y2.1701  
G01 X-0.4299 Y2.1701  
G01 X-0.4336 Y2.1628  
G01 X-0.4388 Y2.1556  
G01 X-0.4450 Y2.1494  
G01 X-0.4462 Y2.1485  
G01 X-0.3559 Y1.9858  
G01 X-0.3545 Y1.9835  
G01 X-0.3545 Y1.9833  
G01 X-0.3544 Y1.9832  
G01 X-0.3537 Y1.9805  
G01 X-0.3530 Y1.9779  
G01 X-0.3530 Y1.9777  
G01 X-0.3530 Y1.9775  
G01 X-0.3530 Y1.9748  
G01 X-0.3530 Y1.6689  
G01 X-0.1544 Y1.6689  
G01 X-0.1544 Y1.7013  
G01 X-0.1530 Y1.7100  
G01 X-0.1503 Y1.7183  
G01 X-0.1463 Y1.7262  
G01 X-0.1411 Y1.7333  
G01 X-0.1349 Y1.7396  
G01 X-0.1278 Y1.7447  
G01 X-0.1199 Y1.7487  
G01 X-0.1115 Y1.7515  
G01 X-0.1028 Y1.7529  
G01 X-0.0940 Y1.7529  
G01 X-0.0853 Y1.7515  
G01 X-0.0769 Y1.7487  
G01 X-0.0691 Y1.7447  
G01 X-0.0619 Y1.7396  
G01 X-0.0557 Y1.7333  
G01 X-0.0505 Y1.7262  
G01 X-0.0465 Y1.7183  
G01 X-0.0438 Y1.7100  
G01 X-0.0424 Y1.7013  
G01 X-0.0424 Y1.5924  
G01 X-0.0438 Y1.5837  
G01 X-0.0465 Y1.5754  
G01 X-0.0505 Y1.5675  
G01 X-0.0557 Y1.5604  
G01 X-0.0619 Y1.5541  
G01 X-0.0691 Y1.5490  
G01 X-0.0769 Y1.5450  
G01 X-0.0853 Y1.5422  
G01 X-0.0940 Y1.5409  
G01 X-0.1028 Y1.5409  
G01 X-0.1115 Y1.5422  
G01 X-0.1199 Y1.5450  
G01 X-0.1278 Y1.5490  
G01 X-0.1349 Y1.5541  
G01 X-0.1411 Y1.5604  
G01 X-0.1463 Y1.5675  
G01 X-0.1503 Y1.5754  
G01 X-0.1530 Y1.5837  
G01 X-0.1544 Y1.5924  
G01 X-0.1544 Y1.6249  
G01 X-0.3530 Y1.6249  
G01 X-0.3530 Y1.1189  
G01 X-0.1544 Y1.1189  
G01 X-0.1544 Y1.1513  
G01 X-0.1530 Y1.1600  
G01 X-0.1503 Y1.1683  
G01 X-0.1463 Y1.1762  
G01 X-0.1411 Y1.1833  
G01 X-0.1349 Y1.1896  
G01 X-0.1278 Y1.1947  
G01 X-0.1199 Y1.1987  
G01 X-0.1115 Y1.2015  
G01 X-0.1028 Y1.2029  
G01 X-0.0940 Y1.2029  
G01 X-0.0853 Y1.2015  
G01 X-0.0769 Y1.1987  
G01 X-0.0691 Y1.1947  
G01 X-0.0619 Y1.1896  
G01 X-0.0557 Y1.1833  
G01 X-0.0505 Y1.1762  
G01 X-0.0465 Y1.1683  
G01 X-0.0438 Y1.1600  
G01 X-0.0424 Y1.1513  
G01 X-0.0424 Y1.0424  
G01 X-0.0438 Y1.0337  
G01 X-0.0465 Y1.0254  
G01 X-0.0505 Y1.0175  
G01 X-0.0557 Y1.0104  
G01 X-0.0619 Y1.0041  
G01 X-0.0691 Y0.9990  
G01 X-0.0769 Y0.9950  
G01 X-0.0853 Y0.9922  
G01 X-0.0940 Y0.9909  
G01 X-0.1028 Y0.9909  
G01 X-0.1115 Y0.9922  
G01 X-0.1199 Y0.9950  
G01 X-0.1278 Y0.9990  
G01 X-0.1349 Y1.0041  
G01 X-0.1411 Y1.0104  
G01 X-0.1463 Y1.0175  
G01 X-0.1503 Y1.0254  
G01 X-0.1530 Y1.0337  
G01 X-0.1544 Y1.0424  
G01 X-0.1544 Y1.0749  
G01 X-0.3530 Y1.0749  
G01 X-0.3530 Y0.7970  
G01 X-0.2471 Y0.7970  
G01 X-0.2415 Y0.7955  
G01 X-0.2365 Y0.7926  
G01 X-0.2324 Y0.7885  
G01 X-0.0967 Y0.6529  
G01 X-0.0940 Y0.6529  
G01 X-0.0853 Y0.6515  
G01 X-0.0769 Y0.6487  
G01 X-0.0691 Y0.6447  
G01 X-0.0619 Y0.6396  
G01 X-0.0557 Y0.6333  
G01 X-0.0505 Y0.6262  
G01 X-0.0465 Y0.6183  
G01 X-0.0438 Y0.6100  
G01 X-0.0424 Y0.6013  
G01 X-0.0424 Y0.4924  
G01 X-0.0438 Y0.4837  
G01 X-0.0465 Y0.4754  
G01 X-0.0505 Y0.4675  
G01 X-0.0557 Y0.4604  
G01 X-0.0619 Y0.4541  
G01 X-0.0691 Y0.4490  
G01 X-0.0769 Y0.4450  
G01 X-0.0853 Y0.4422  
G01 X-0.0940 Y0.4409  
G01 X-0.1028 Y0.4409  
G01 X-0.1115 Y0.4422  
G01 X-0.1199 Y0.4450  
G01 X-0.1278 Y0.4490  
G01 X-0.1349 Y0.4541  
G01 X-0.1411 Y0.4604  
G01 X-0.1463 Y0.4675  
G01 X-0.1503 Y0.4754  
G01 X-0.1530 Y0.4837  
G01 X-0.1544 Y0.4924  
G01 X-0.1544 Y0.6013  
G01 X-0.1530 Y0.6100  
G01 X-0.1503 Y0.6183  
G01 X-0.1463 Y0.6262  
G01 X-0.1411 Y0.6333  
G01 X-0.1403 Y0.6342  
G01 X-0.2591 Y0.7530  
G01 X-0.6228 Y0.7530  
G01 X-0.6235 Y0.7529  
G01 X-0.6257 Y0.7530  
G01 X-0.6279 Y0.7530  
G01 X-0.6286 Y0.7532  
G01 X-0.6293 Y0.7532  
G01 X-0.6314 Y0.7539  
G01 X-0.6335 Y0.7545  
G01 X-0.6341 Y0.7549  
G01 X-0.6348 Y0.7551  
G01 X-0.6366 Y0.7563  
G01 X-0.6385 Y0.7574  
G01 X-0.6390 Y0.7579  
G01 X-0.7067 Y0.8030  
G01 X-0.7948 Y0.8030  
G01 X-0.8244 Y0.7882  
G01 X-0.7867 Y0.6375  
G01 X-0.7845 Y0.6375  
G01 X-0.7625 Y0.6155  
G01 X-0.7625 Y0.5845  
G01 X-0.7845 Y0.5625  
G01 X-0.8030 Y0.5625  
G01 X-0.8030 Y0.2971  
G01 X-0.8045 Y0.2915  
G01 X-0.8074 Y0.2865  
G01 X-0.8280 Y0.2659  
G01 X-0.8280 Y0.1888  
G01 X-0.8112 Y0.1720  
G01 X-0.7888 Y0.1720  
G01 X-0.7678 Y0.1930  
G01 X-0.7322 Y0.1930  
G01 X-0.7112 Y0.1720  
G01 X-0.6888 Y0.1720  
G01 X-0.6678 Y0.1930  
G01 X-0.6322 Y0.1930  
G01 X-0.6070 Y0.1678  
G01 X-0.6070 Y0.1322  
G00 Z0.0500  
G00 X-0.6030 Y0.2902  
G01 Z-0.0040 F10    
G01 X-0.6108 Y0.2942  F20    
G01 X-0.6180 Y0.2994  
G01 X-0.6242 Y0.3056  
G01 X-0.6294 Y0.3128  
G01 X-0.6334 Y0.3206  
G01 X-0.6361 Y0.3290  
G01 X-0.6375 Y0.3377  
G01 X-0.6375 Y0.3465  
G01 X-0.6361 Y0.3552  
G01 X-0.6334 Y0.3636  
G01 X-0.6294 Y0.3715  
G01 X-0.6242 Y0.3786  
G01 X-0.6180 Y0.3848  
G01 X-0.6108 Y0.3900  
G01 X-0.6030 Y0.3940  
G01 X-0.5946 Y0.3967  
G01 X-0.5859 Y0.3981  
G01 X-0.4771 Y0.3981  
G01 X-0.4684 Y0.3967  
G01 X-0.4600 Y0.3940  
G01 X-0.4521 Y0.3900  
G01 X-0.4450 Y0.3848  
G01 X-0.4388 Y0.3786  
G01 X-0.4336 Y0.3715  
G01 X-0.4296 Y0.3636  
G01 X-0.4269 Y0.3552  
G01 X-0.4255 Y0.3465  
G01 X-0.4255 Y0.3377  
G01 X-0.4269 Y0.3290  
G01 X-0.4296 Y0.3206  
G01 X-0.4336 Y0.3128  
G01 X-0.4388 Y0.3056  
G01 X-0.4450 Y0.2994  
G01 X-0.4521 Y0.2942  
G01 X-0.4600 Y0.2902  
G01 X-0.4684 Y0.2875  
G01 X-0.4771 Y0.2861  
G01 X-0.5859 Y0.2861  
G01 X-0.5946 Y0.2875  
G01 X-0.6030 Y0.2902  
G00 Z0.0500  
G00 X-0.6050 Y0.4422  
G01 Z-0.0040 F10    
G01 X-0.6137 Y0.4409  F20    
G01 X-0.6225 Y0.4409  
G01 X-0.6312 Y0.4422  
G01 X-0.6396 Y0.4450  
G01 X-0.6475 Y0.4490  
G01 X-0.6546 Y0.4541  
G01 X-0.6608 Y0.4604  
G01 X-0.6660 Y0.4675  
G01 X-0.6700 Y0.4754  
G01 X-0.6727 Y0.4837  
G01 X-0.6741 Y0.4924  
G01 X-0.6741 Y0.6013  
G01 X-0.6727 Y0.6100  
G01 X-0.6700 Y0.6183  
G01 X-0.6660 Y0.6262  
G01 X-0.6623 Y0.6312  
G01 X-0.7491 Y0.7180  
G01 X-0.7633 Y0.7180  
G01 X-0.7820 Y0.7367  
G01 X-0.7820 Y0.7633  
G01 X-0.7633 Y0.7820  
G01 X-0.7367 Y0.7820  
G01 X-0.7180 Y0.7633  
G01 X-0.7180 Y0.7491  
G01 X-0.6217 Y0.6529  
G01 X-0.6137 Y0.6529  
G01 X-0.6050 Y0.6515  
G01 X-0.5966 Y0.6487  
G01 X-0.5888 Y0.6447  
G01 X-0.5816 Y0.6396  
G01 X-0.5754 Y0.6333  
G01 X-0.5702 Y0.6262  
G01 X-0.5662 Y0.6183  
G01 X-0.5635 Y0.6100  
G01 X-0.5621 Y0.6013  
G01 X-0.5621 Y0.4924  
G01 X-0.5635 Y0.4837  
G01 X-0.5662 Y0.4754  
G01 X-0.5702 Y0.4675  
G01 X-0.5754 Y0.4604  
G01 X-0.5816 Y0.4541  
G01 X-0.5888 Y0.4490  
G01 X-0.5966 Y0.4450  
G01 X-0.6050 Y0.4422  
G00 Z0.0500  
G00 X-0.8948 Y0.4086  
G01 Z-0.0040 F10    
G01 X-0.8899 Y0.4037  F20    
G01 X-0.8858 Y0.3981  
G01 X-0.8826 Y0.3919  
G01 X-0.8805 Y0.3853  
G01 X-0.8794 Y0.3785  
G01 X-0.8794 Y0.3715  
G01 X-0.8805 Y0.3647  
G01 X-0.8826 Y0.3581  
G01 X-0.8858 Y0.3519  
G01 X-0.8899 Y0.3463  
G01 X-0.8948 Y0.3414  
G01 X-0.9004 Y0.3374  
G01 X-0.9065 Y0.3342  
G01 X-0.9112 Y0.3327  
G01 X-0.9115 Y0.3324  
G01 X-0.9121 Y0.3320  
G01 X-0.9126 Y0.3316  
G01 X-0.9146 Y0.3306  
G01 X-0.9165 Y0.3295  
G01 X-0.9172 Y0.3293  
G01 X-0.9178 Y0.3290  
G01 X-0.9200 Y0.3286  
G01 X-0.9221 Y0.3280  
G01 X-0.9228 Y0.3280  
G01 X-0.9235 Y0.3279  
G01 X-0.9257 Y0.3280  
G01 X-0.9279 Y0.3280  
G01 X-0.9286 Y0.3282  
G01 X-0.9293 Y0.3282  
G01 X-0.9314 Y0.3289  
G01 X-0.9335 Y0.3295  
G01 X-0.9341 Y0.3299  
G01 X-0.9348 Y0.3301  
G01 X-0.9366 Y0.3313  
G01 X-0.9385 Y0.3324  
G01 X-0.9390 Y0.3329  
G01 X-0.9396 Y0.3333  
G01 X-0.9405 Y0.3343  
G01 X-0.9465 Y0.3374  
G01 X-0.9521 Y0.3414  
G01 X-0.9570 Y0.3463  
G01 X-0.9611 Y0.3519  
G01 X-0.9642 Y0.3581  
G01 X-0.9663 Y0.3647  
G01 X-0.9674 Y0.3715  
G01 X-0.9674 Y0.3785  
G01 X-0.9663 Y0.3853  
G01 X-0.9642 Y0.3919  
G01 X-0.9611 Y0.3981  
G01 X-0.9570 Y0.4037  
G01 X-0.9521 Y0.4086  
G01 X-0.9470 Y0.4123  
G01 X-0.9470 Y0.5493  
G01 X-0.9471 Y0.5516  
G01 X-0.9470 Y0.5522  
G01 X-0.9470 Y0.8930  
G01 X-0.9633 Y0.8930  
G01 X-0.9820 Y0.9117  
G01 X-0.9820 Y0.9199  
G01 X-1.0366 Y0.9563  
G01 X-1.0385 Y0.9574  
G01 X-1.0390 Y0.9579  
G01 X-1.0396 Y0.9583  
G01 X-1.0411 Y0.9599  
G01 X-1.0426 Y0.9615  
G01 X-1.0430 Y0.9621  
G01 X-1.0434 Y0.9627  
G01 X-1.0444 Y0.9646  
G01 X-1.0455 Y0.9665  
G01 X-1.0457 Y0.9672  
G01 X-1.0460 Y0.9678  
G01 X-1.0464 Y0.9700  
G01 X-1.0470 Y0.9721  
G01 X-1.0470 Y0.9728  
G01 X-1.0471 Y0.9735  
G01 X-1.0470 Y0.9757  
G01 X-1.0470 Y1.2987  
G01 X-1.0472 Y1.3003  
G01 X-1.0470 Y1.3016  
G01 X-1.0470 Y1.3029  
G01 X-1.0466 Y1.3044  
G01 X-1.0464 Y1.3060  
G01 X-1.0458 Y1.3072  
G01 X-1.0455 Y1.3085  
G01 X-1.0447 Y1.3099  
G01 X-1.0441 Y1.3113  
G01 X-1.0433 Y1.3124  
G01 X-1.0426 Y1.3135  
G01 X-1.0415 Y1.3146  
G01 X-1.0405 Y1.3159  
G01 X-1.0394 Y1.3167  
G01 X-1.0385 Y1.3176  
G01 X-1.0371 Y1.3184  
G01 X-1.0359 Y1.3194  
G01 X-1.0346 Y1.3198  
G01 X-1.0335 Y1.3205  
G01 X-1.0320 Y1.3209  
G01 X-0.9580 Y1.3505  
G01 X-0.9580 Y1.3532  
G01 X-0.9568 Y1.3593  
G01 X-0.9544 Y1.3652  
G01 X-0.9509 Y1.3704  
G01 X-0.9464 Y1.3749  
G01 X-0.9412 Y1.3784  
G01 X-0.9353 Y1.3808  
G01 X-0.9292 Y1.3820  
G01 X-0.8708 Y1.3820  
G01 X-0.8647 Y1.3808  
G01 X-0.8588 Y1.3784  
G01 X-0.8536 Y1.3749  
G01 X-0.8491 Y1.3704  
G01 X-0.8456 Y1.3652  
G01 X-0.8432 Y1.3593  
G01 X-0.8420 Y1.3532  
G01 X-0.8420 Y1.3468  
G01 X-0.8432 Y1.3407  
G01 X-0.8456 Y1.3348  
G01 X-0.8491 Y1.3296  
G01 X-0.8536 Y1.3251  
G01 X-0.8588 Y1.3216  
G01 X-0.8647 Y1.3192  
G01 X-0.8708 Y1.3180  
G01 X-0.9208 Y1.3180  
G01 X-1.0030 Y1.2851  
G01 X-1.0030 Y0.9868  
G01 X-0.9583 Y0.9570  
G01 X-0.9367 Y0.9570  
G01 X-0.9267 Y0.9470  
G01 X-0.9221 Y0.9470  
G01 X-0.9165 Y0.9455  
G01 X-0.9115 Y0.9426  
G01 X-0.9074 Y0.9385  
G01 X-0.9045 Y0.9335  
G01 X-0.9030 Y0.9279  
G01 X-0.9030 Y0.6375  
G01 X-0.8963 Y0.6375  
G01 X-0.8891 Y0.6361  
G01 X-0.8822 Y0.6332  
G01 X-0.8761 Y0.6291  
G01 X-0.8709 Y0.6239  
G01 X-0.8668 Y0.6178  
G01 X-0.8639 Y0.6109  
G01 X-0.8625 Y0.6037  
G01 X-0.8625 Y0.5963  
G01 X-0.8639 Y0.5891  
G01 X-0.8668 Y0.5822  
G01 X-0.8709 Y0.5761  
G01 X-0.8761 Y0.5709  
G01 X-0.8822 Y0.5668  
G01 X-0.8891 Y0.5639  
G01 X-0.8939 Y0.5630  
G01 X-0.9030 Y0.5448  
G01 X-0.9030 Y0.4140  
G01 X-0.9004 Y0.4126  
G01 X-0.8948 Y0.4086  
G00 Z0.0500  
G00 X-1.1071 Y0.4087  
G01 Z-0.0040 F10    
G01 X-1.1060 Y0.4019  F20    
G01 X-1.1060 Y0.3950  
G01 X-1.1071 Y0.3881  
G01 X-1.1092 Y0.3815  
G01 X-1.1124 Y0.3754  
G01 X-1.1164 Y0.3698  
G01 X-1.1213 Y0.3649  
G01 X-1.1269 Y0.3608  
G01 X-1.1331 Y0.3576  
G01 X-1.1397 Y0.3555  
G01 X-1.1465 Y0.3544  
G01 X-1.1535 Y0.3544  
G01 X-1.1603 Y0.3555  
G01 X-1.1669 Y0.3576  
G01 X-1.1731 Y0.3608  
G01 X-1.1787 Y0.3649  
G01 X-1.1836 Y0.3698  
G01 X-1.1876 Y0.3754  
G01 X-1.1908 Y0.3815  
G01 X-1.1929 Y0.3881  
G01 X-1.1940 Y0.3950  
G01 X-1.1940 Y0.4019  
G01 X-1.1929 Y0.4087  
G01 X-1.1908 Y0.4153  
G01 X-1.1876 Y0.4215  
G01 X-1.1836 Y0.4271  
G01 X-1.1787 Y0.4320  
G01 X-1.1731 Y0.4361  
G01 X-1.1720 Y0.4366  
G01 X-1.1720 Y0.5690  
G01 X-1.1875 Y0.5845  
G01 X-1.1875 Y0.6064  
G01 X-1.3135 Y0.7324  
G01 X-1.3176 Y0.7365  
G01 X-1.3205 Y0.7415  
G01 X-1.3220 Y0.7471  
G01 X-1.3220 Y1.7029  
G01 X-1.3205 Y1.7085  
G01 X-1.3176 Y1.7135  
G01 X-1.2820 Y1.7491  
G01 X-1.2820 Y1.7633  
G01 X-1.2633 Y1.7820  
G01 X-1.2367 Y1.7820  
G01 X-1.2180 Y1.7633  
G01 X-1.2180 Y1.7367  
G01 X-1.2367 Y1.7180  
G01 X-1.2509 Y1.7180  
G01 X-1.2780 Y1.6909  
G01 X-1.2780 Y1.3720  
G01 X-1.2493 Y1.3720  
G01 X-1.2464 Y1.3749  
G01 X-1.2412 Y1.3784  
G01 X-1.2353 Y1.3808  
G01 X-1.2292 Y1.3820  
G01 X-1.1708 Y1.3820  
G01 X-1.1647 Y1.3808  
G01 X-1.1588 Y1.3784  
G01 X-1.1536 Y1.3749  
G01 X-1.1491 Y1.3704  
G01 X-1.1456 Y1.3652  
G01 X-1.1432 Y1.3593  
G01 X-1.1420 Y1.3532  
G01 X-1.1420 Y1.3468  
G01 X-1.1432 Y1.3407  
G01 X-1.1456 Y1.3348  
G01 X-1.1491 Y1.3296  
G01 X-1.1536 Y1.3251  
G01 X-1.1588 Y1.3216  
G01 X-1.1647 Y1.3192  
G01 X-1.1708 Y1.3180  
G01 X-1.2292 Y1.3180  
G01 X-1.2353 Y1.3192  
G01 X-1.2412 Y1.3216  
G01 X-1.2464 Y1.3251  
G01 X-1.2493 Y1.3280  
G01 X-1.2780 Y1.3280  
G01 X-1.2780 Y0.7591  
G01 X-1.1564 Y0.6375  
G01 X-1.1345 Y0.6375  
G01 X-1.1125 Y0.6155  
G01 X-1.1125 Y0.5845  
G01 X-1.1280 Y0.5690  
G01 X-1.1280 Y0.4366  
G01 X-1.1269 Y0.4361  
G01 X-1.1213 Y0.4320  
G01 X-1.1164 Y0.4271  
G01 X-1.1124 Y0.4215  
G01 X-1.1092 Y0.4153  
G01 X-1.1071 Y0.4087  
G00 Z0.0500  
G00 X-1.1213 Y0.2351  
G01 Z-0.0040 F10    
G01 X-1.1164 Y0.2302  F20    
G01 X-1.1124 Y0.2246  
G01 X-1.1092 Y0.2185  
G01 X-1.1071 Y0.2120  
G01 X-0.9805 Y0.1803  
G01 X-0.9678 Y0.1930  
G01 X-0.9322 Y0.1930  
G01 X-0.9070 Y0.1678  
G01 X-0.9070 Y0.1322  
G01 X-0.9280 Y0.1112  
G01 X-0.9280 Y0.0888  
G01 X-0.9070 Y0.0678  
G01 X-0.9070 Y0.0322  
G01 X-0.9322 Y0.0070  
G01 X-0.9678 Y0.0070  
G01 X-0.9930 Y0.0322  
G01 X-0.9930 Y0.0678  
G01 X-0.9720 Y0.0888  
G01 X-0.9720 Y0.1112  
G01 X-0.9930 Y0.1322  
G01 X-0.9930 Y0.1381  
G01 X-1.1196 Y0.1697  
G01 X-1.1213 Y0.1680  
G01 X-1.1269 Y0.1639  
G01 X-1.1331 Y0.1608  
G01 X-1.1397 Y0.1587  
G01 X-1.1465 Y0.1576  
G01 X-1.1535 Y0.1576  
G01 X-1.1603 Y0.1587  
G01 X-1.1669 Y0.1608  
G01 X-1.1731 Y0.1639  
G01 X-1.1787 Y0.1680  
G01 X-1.1836 Y0.1729  
G01 X-1.1876 Y0.1785  
G01 X-1.1908 Y0.1847  
G01 X-1.1929 Y0.1913  
G01 X-1.1940 Y0.1981  
G01 X-1.1940 Y0.2050  
G01 X-1.1929 Y0.2119  
G01 X-1.1908 Y0.2185  
G01 X-1.1876 Y0.2246  
G01 X-1.1836 Y0.2302  
G01 X-1.1787 Y0.2351  
G01 X-1.1731 Y0.2392  
G01 X-1.1669 Y0.2424  
G01 X-1.1603 Y0.2445  
G01 X-1.1535 Y0.2456  
G01 X-1.1465 Y0.2456  
G01 X-1.1397 Y0.2445  
G01 X-1.1331 Y0.2424  
G01 X-1.1269 Y0.2392  
G01 X-1.1213 Y0.2351  
G00 Z0.0500  
G00 X-1.1367 Y0.7180  
G01 Z-0.0040 F10    
G01 X-1.1633 Y0.7180  F20    
G01 X-1.1820 Y0.7367  
G01 X-1.1820 Y0.7509  
G01 X-1.2385 Y0.8074  
G01 X-1.2426 Y0.8115  
G01 X-1.2455 Y0.8165  
G01 X-1.2470 Y0.8221  
G01 X-1.2470 Y1.0257  
G01 X-1.2509 Y1.0296  
G01 X-1.2544 Y1.0348  
G01 X-1.2568 Y1.0407  
G01 X-1.2580 Y1.0468  
G01 X-1.2580 Y1.0532  
G01 X-1.2568 Y1.0593  
G01 X-1.2544 Y1.0652  
G01 X-1.2509 Y1.0704  
G01 X-1.2464 Y1.0749  
G01 X-1.2412 Y1.0784  
G01 X-1.2353 Y1.0808  
G01 X-1.2292 Y1.0820  
G01 X-1.2220 Y1.0820  
G01 X-1.2220 Y1.1180  
G01 X-1.2292 Y1.1180  
G01 X-1.2353 Y1.1192  
G01 X-1.2412 Y1.1216  
G01 X-1.2464 Y1.1251  
G01 X-1.2509 Y1.1296  
G01 X-1.2544 Y1.1348  
G01 X-1.2568 Y1.1407  
G01 X-1.2580 Y1.1468  
G01 X-1.2580 Y1.1532  
G01 X-1.2568 Y1.1593  
G01 X-1.2544 Y1.1652  
G01 X-1.2509 Y1.1704  
G01 X-1.2464 Y1.1749  
G01 X-1.2412 Y1.1784  
G01 X-1.2353 Y1.1808  
G01 X-1.2292 Y1.1820  
G01 X-1.1708 Y1.1820  
G01 X-1.1647 Y1.1808  
G01 X-1.1588 Y1.1784  
G01 X-1.1536 Y1.1749  
G01 X-1.1491 Y1.1704  
G01 X-1.1456 Y1.1652  
G01 X-1.1432 Y1.1593  
G01 X-1.1420 Y1.1532  
G01 X-1.1420 Y1.1468  
G01 X-1.1432 Y1.1407  
G01 X-1.1456 Y1.1348  
G01 X-1.1491 Y1.1296  
G01 X-1.1536 Y1.1251  
G01 X-1.1588 Y1.1216  
G01 X-1.1647 Y1.1192  
G01 X-1.1708 Y1.1180  
G01 X-1.1780 Y1.1180  
G01 X-1.1780 Y1.0820  
G01 X-1.1708 Y1.0820  
G01 X-1.1647 Y1.0808  
G01 X-1.1588 Y1.0784  
G01 X-1.1536 Y1.0749  
G01 X-1.1491 Y1.0704  
G01 X-1.1456 Y1.0652  
G01 X-1.1432 Y1.0593  
G01 X-1.1420 Y1.0532  
G01 X-1.1420 Y1.0468  
G01 X-1.1432 Y1.0407  
G01 X-1.1456 Y1.0348  
G01 X-1.1491 Y1.0296  
G01 X-1.1536 Y1.0251  
G01 X-1.1588 Y1.0216  
G01 X-1.1647 Y1.0192  
G01 X-1.1708 Y1.0180  
G01 X-1.2009 Y1.0180  
G01 X-1.2030 Y1.0159  
G01 X-1.2030 Y0.8341  
G01 X-1.1509 Y0.7820  
G01 X-1.1367 Y0.7820  
G01 X-1.1180 Y0.7633  
G01 X-1.1180 Y0.7367  
G01 X-1.1367 Y0.7180  
G00 Z0.0500  
G00 X-0.9464 Y1.0251  
G01 Z-0.0040 F10    
G01 X-0.9509 Y1.0296  F20    
G01 X-0.9544 Y1.0348  
G01 X-0.9568 Y1.0407  
G01 X-0.9580 Y1.0468  
G01 X-0.9580 Y1.0532  
G01 X-0.9568 Y1.0593  
G01 X-0.9544 Y1.0652  
G01 X-0.9509 Y1.0704  
G01 X-0.9464 Y1.0749  
G01 X-0.9412 Y1.0784  
G01 X-0.9353 Y1.0808  
G01 X-0.9292 Y1.0820  
G01 X-0.9220 Y1.0820  
G01 X-0.9220 Y1.1180  
G01 X-0.9292 Y1.1180  
G01 X-0.9353 Y1.1192  
G01 X-0.9412 Y1.1216  
G01 X-0.9464 Y1.1251  
G01 X-0.9509 Y1.1296  
G01 X-0.9544 Y1.1348  
G01 X-0.9568 Y1.1407  
G01 X-0.9580 Y1.1468  
G01 X-0.9580 Y1.1532  
G01 X-0.9568 Y1.1593  
G01 X-0.9544 Y1.1652  
G01 X-0.9509 Y1.1704  
G01 X-0.9464 Y1.1749  
G01 X-0.9412 Y1.1784  
G01 X-0.9353 Y1.1808  
G01 X-0.9292 Y1.1820  
G01 X-0.8708 Y1.1820  
G01 X-0.8647 Y1.1808  
G01 X-0.8588 Y1.1784  
G01 X-0.8536 Y1.1749  
G01 X-0.8491 Y1.1704  
G01 X-0.8456 Y1.1652  
G01 X-0.8432 Y1.1593  
G01 X-0.8420 Y1.1532  
G01 X-0.8420 Y1.1468  
G01 X-0.8432 Y1.1407  
G01 X-0.8456 Y1.1348  
G01 X-0.8491 Y1.1296  
G01 X-0.8536 Y1.1251  
G01 X-0.8588 Y1.1216  
G01 X-0.8647 Y1.1192  
G01 X-0.8708 Y1.1180  
G01 X-0.8780 Y1.1180  
G01 X-0.8780 Y1.0820  
G01 X-0.8708 Y1.0820  
G01 X-0.8647 Y1.0808  
G01 X-0.8588 Y1.0784  
G01 X-0.8536 Y1.0749  
G01 X-0.8491 Y1.0704  
G01 X-0.8456 Y1.0652  
G01 X-0.8432 Y1.0593  
G01 X-0.8420 Y1.0532  
G01 X-0.8420 Y1.0468  
G01 X-0.8432 Y1.0407  
G01 X-0.8456 Y1.0348  
G01 X-0.8467 Y1.0333  
G01 X-0.7285 Y0.9320  
G01 X-0.7117 Y0.9320  
G01 X-0.6930 Y0.9133  
G01 X-0.6930 Y0.8867  
G01 X-0.7117 Y0.8680  
G01 X-0.7383 Y0.8680  
G01 X-0.7570 Y0.8867  
G01 X-0.7570 Y0.8985  
G01 X-0.8965 Y1.0180  
G01 X-0.9292 Y1.0180  
G01 X-0.9353 Y1.0192  
G01 X-0.9412 Y1.0216  
G01 X-0.9464 Y1.0251  
G00 Z0.0500  
G00 X-0.9464 Y1.2251  
G01 Z-0.0040 F10    
G01 X-0.9509 Y1.2296  F20    
G01 X-0.9544 Y1.2348  
G01 X-0.9568 Y1.2407  
G01 X-0.9580 Y1.2468  
G01 X-0.9580 Y1.2532  
G01 X-0.9568 Y1.2593  
G01 X-0.9544 Y1.2652  
G01 X-0.9509 Y1.2704  
G01 X-0.9464 Y1.2749  
G01 X-0.9412 Y1.2784  
G01 X-0.9353 Y1.2808  
G01 X-0.9292 Y1.2820  
G01 X-0.8708 Y1.2820  
G01 X-0.8663 Y1.2811  
G01 X-0.8220 Y1.2922  
G01 X-0.8220 Y1.3779  
G01 X-0.8205 Y1.3835  
G01 X-0.8176 Y1.3885  
G01 X-0.8135 Y1.3926  
G01 X-0.8085 Y1.3955  
G01 X-0.8029 Y1.3970  
G01 X-0.6970 Y1.3970  
G01 X-0.6970 Y1.4927  
G01 X-0.7667 Y1.5855  
G01 X-0.7676 Y1.5865  
G01 X-0.7684 Y1.5879  
G01 X-0.7693 Y1.5891  
G01 X-0.7698 Y1.5904  
G01 X-0.7705 Y1.5915  
G01 X-0.7709 Y1.5930  
G01 X-0.7715 Y1.5945  
G01 X-0.7717 Y1.5958  
G01 X-0.7720 Y1.5971  
G01 X-0.7720 Y1.5987  
G01 X-0.7722 Y1.6002  
G01 X-0.7720 Y1.6016  
G01 X-0.7720 Y1.6882  
G01 X-0.8972 Y1.7717  
G01 X-0.9780 Y1.6909  
G01 X-0.9780 Y1.4720  
G01 X-0.9493 Y1.4720  
G01 X-0.9464 Y1.4749  
G01 X-0.9412 Y1.4784  
G01 X-0.9353 Y1.4808  
G01 X-0.9292 Y1.4820  
G01 X-0.8708 Y1.4820  
G01 X-0.8647 Y1.4808  
G01 X-0.8588 Y1.4784  
G01 X-0.8536 Y1.4749  
G01 X-0.8491 Y1.4704  
G01 X-0.8456 Y1.4652  
G01 X-0.8432 Y1.4593  
G01 X-0.8420 Y1.4532  
G01 X-0.8420 Y1.4468  
G01 X-0.8432 Y1.4407  
G01 X-0.8456 Y1.4348  
G01 X-0.8491 Y1.4296  
G01 X-0.8536 Y1.4251  
G01 X-0.8588 Y1.4216  
G01 X-0.8647 Y1.4192  
G01 X-0.8708 Y1.4180  
G01 X-0.9292 Y1.4180  
G01 X-0.9353 Y1.4192  
G01 X-0.9412 Y1.4216  
G01 X-0.9464 Y1.4251  
G01 X-0.9493 Y1.4280  
G01 X-1.0556 Y1.4280  
G01 X-1.0780 Y1.2486  
G01 X-1.0780 Y1.2471  
G01 X-1.0784 Y1.2458  
G01 X-1.0785 Y1.2444  
G01 X-1.0791 Y1.2430  
G01 X-1.0795 Y1.2415  
G01 X-1.0802 Y1.2403  
G01 X-1.0807 Y1.2390  
G01 X-1.0816 Y1.2378  
G01 X-1.0824 Y1.2365  
G01 X-1.0834 Y1.2355  
G01 X-1.0842 Y1.2344  
G01 X-1.0854 Y1.2335  
G01 X-1.0865 Y1.2324  
G01 X-1.0877 Y1.2317  
G01 X-1.0888 Y1.2309  
G01 X-1.0902 Y1.2303  
G01 X-1.0915 Y1.2295  
G01 X-1.0928 Y1.2291  
G01 X-1.0941 Y1.2286  
G01 X-1.0956 Y1.2284  
G01 X-1.0971 Y1.2280  
G01 X-1.0985 Y1.2280  
G01 X-1.0999 Y1.2278  
G01 X-1.1014 Y1.2280  
G01 X-1.1507 Y1.2280  
G01 X-1.1536 Y1.2251  
G01 X-1.1588 Y1.2216  
G01 X-1.1647 Y1.2192  
G01 X-1.1708 Y1.2180  
G01 X-1.2292 Y1.2180  
G01 X-1.2353 Y1.2192  
G01 X-1.2412 Y1.2216  
G01 X-1.2464 Y1.2251  
G01 X-1.2509 Y1.2296  
G01 X-1.2544 Y1.2348  
G01 X-1.2568 Y1.2407  
G01 X-1.2580 Y1.2468  
G01 X-1.2580 Y1.2532  
G01 X-1.2568 Y1.2593  
G01 X-1.2544 Y1.2652  
G01 X-1.2509 Y1.2704  
G01 X-1.2464 Y1.2749  
G01 X-1.2412 Y1.2784  
G01 X-1.2353 Y1.2808  
G01 X-1.2292 Y1.2820  
G01 X-1.1708 Y1.2820  
G01 X-1.1647 Y1.2808  
G01 X-1.1588 Y1.2784  
G01 X-1.1536 Y1.2749  
G01 X-1.1507 Y1.2720  
G01 X-1.1194 Y1.2720  
G01 X-1.0999 Y1.4280  
G01 X-1.1507 Y1.4280  
G01 X-1.1536 Y1.4251  
G01 X-1.1588 Y1.4216  
G01 X-1.1647 Y1.4192  
G01 X-1.1708 Y1.4180  
G01 X-1.2292 Y1.4180  
G01 X-1.2353 Y1.4192  
G01 X-1.2412 Y1.4216  
G01 X-1.2464 Y1.4251  
G01 X-1.2509 Y1.4296  
G01 X-1.2544 Y1.4348  
G01 X-1.2568 Y1.4407  
G01 X-1.2580 Y1.4468  
G01 X-1.2580 Y1.4532  
G01 X-1.2568 Y1.4593  
G01 X-1.2544 Y1.4652  
G01 X-1.2509 Y1.4704  
G01 X-1.2464 Y1.4749  
G01 X-1.2412 Y1.4784  
G01 X-1.2353 Y1.4808  
G01 X-1.2292 Y1.4820  
G01 X-1.1708 Y1.4820  
G01 X-1.1647 Y1.4808  
G01 X-1.1588 Y1.4784  
G01 X-1.1536 Y1.4749  
G01 X-1.1507 Y1.4720  
G01 X-1.0765 Y1.4720  
G01 X-1.0751 Y1.4722  
G01 X-1.0736 Y1.4720  
G01 X-1.0220 Y1.4720  
G01 X-1.0220 Y1.7029  
G01 X-1.0205 Y1.7085  
G01 X-1.0176 Y1.7135  
G01 X-1.0135 Y1.7176  
G01 X-0.9171 Y1.8140  
G01 X-0.9167 Y1.8146  
G01 X-0.9151 Y1.8161  
G01 X-0.9135 Y1.8176  
G01 X-0.9129 Y1.8180  
G01 X-0.9123 Y1.8184  
G01 X-0.9104 Y1.8194  
G01 X-0.9085 Y1.8205  
G01 X-0.9078 Y1.8207  
G01 X-0.9072 Y1.8210  
G01 X-0.9050 Y1.8214  
G01 X-0.9029 Y1.8220  
G01 X-0.9022 Y1.8220  
G01 X-0.9015 Y1.8221  
G01 X-0.8993 Y1.8220  
G01 X-0.8971 Y1.8220  
G01 X-0.8964 Y1.8218  
G01 X-0.8957 Y1.8218  
G01 X-0.8936 Y1.8211  
G01 X-0.8915 Y1.8205  
G01 X-0.8909 Y1.8201  
G01 X-0.8902 Y1.8199  
G01 X-0.8884 Y1.8187  
G01 X-0.8865 Y1.8176  
G01 X-0.8860 Y1.8171  
G01 X-0.7384 Y1.7187  
G01 X-0.7365 Y1.7176  
G01 X-0.7360 Y1.7171  
G01 X-0.7354 Y1.7167  
G01 X-0.7339 Y1.7151  
G01 X-0.7324 Y1.7135  
G01 X-0.7320 Y1.7129  
G01 X-0.7316 Y1.7123  
G01 X-0.7306 Y1.7104  
G01 X-0.7295 Y1.7085  
G01 X-0.7293 Y1.7078  
G01 X-0.7290 Y1.7072  
G01 X-0.7286 Y1.7050  
G01 X-0.7280 Y1.7029  
G01 X-0.7280 Y1.7022  
G01 X-0.7279 Y1.7015  
G01 X-0.7280 Y1.6993  
G01 X-0.7280 Y1.6073  
G01 X-0.6583 Y1.5145  
G01 X-0.6574 Y1.5135  
G01 X-0.6566 Y1.5121  
G01 X-0.6557 Y1.5109  
G01 X-0.6552 Y1.5096  
G01 X-0.6545 Y1.5085  
G01 X-0.6541 Y1.5070  
G01 X-0.6535 Y1.5055  
G01 X-0.6533 Y1.5042  
G01 X-0.6530 Y1.5029  
G01 X-0.6530 Y1.5013  
G01 X-0.6528 Y1.4998  
G01 X-0.6530 Y1.4984  
G01 X-0.6530 Y1.3721  
G01 X-0.6545 Y1.3665  
G01 X-0.6574 Y1.3615  
G01 X-0.6615 Y1.3574  
G01 X-0.6665 Y1.3545  
G01 X-0.6721 Y1.3530  
G01 X-0.7780 Y1.3530  
G01 X-0.7780 Y1.2777  
G01 X-0.7780 Y1.2775  
G01 X-0.7780 Y1.2748  
G01 X-0.7780 Y1.2721  
G01 X-0.7780 Y1.2719  
G01 X-0.7781 Y1.2717  
G01 X-0.7788 Y1.2691  
G01 X-0.7795 Y1.2665  
G01 X-0.7796 Y1.2663  
G01 X-0.7796 Y1.2662  
G01 X-0.7810 Y1.2638  
G01 X-0.7824 Y1.2615  
G01 X-0.7825 Y1.2614  
G01 X-0.7826 Y1.2612  
G01 X-0.7846 Y1.2593  
G01 X-0.7865 Y1.2574  
G01 X-0.7867 Y1.2573  
G01 X-0.7868 Y1.2572  
G01 X-0.7892 Y1.2559  
G01 X-0.7915 Y1.2545  
G01 X-0.7917 Y1.2545  
G01 X-0.7919 Y1.2544  
G01 X-0.7945 Y1.2537  
G01 X-0.7971 Y1.2530  
G01 X-0.7973 Y1.2530  
G01 X-0.8431 Y1.2416  
G01 X-0.8432 Y1.2407  
G01 X-0.8456 Y1.2348  
G01 X-0.8491 Y1.2296  
G01 X-0.8536 Y1.2251  
G01 X-0.8588 Y1.2216  
G01 X-0.8647 Y1.2192  
G01 X-0.8708 Y1.2180  
G01 X-0.9292 Y1.2180  
G01 X-0.9353 Y1.2192  
G01 X-0.9412 Y1.2216  
G01 X-0.9464 Y1.2251  
G00 Z0.0500  
G00 X-0.7570 Y1.2867  
G01 Z-0.0040 F10    
G01 X-0.7570 Y1.3133  F20    
G01 X-0.7383 Y1.3320  
G01 X-0.7117 Y1.3320  
G01 X-0.6930 Y1.3133  
G01 X-0.6930 Y1.2991  
G01 X-0.6005 Y1.2066  
G01 X-0.5976 Y1.2016  
G01 X-0.5969 Y1.1988  
G01 X-0.5966 Y1.1987  
G01 X-0.5888 Y1.1947  
G01 X-0.5816 Y1.1896  
G01 X-0.5754 Y1.1833  
G01 X-0.5702 Y1.1762  
G01 X-0.5662 Y1.1683  
G01 X-0.5635 Y1.1600  
G01 X-0.5621 Y1.1513  
G01 X-0.5621 Y1.0424  
G01 X-0.5635 Y1.0337  
G01 X-0.5662 Y1.0254  
G01 X-0.5702 Y1.0175  
G01 X-0.5754 Y1.0104  
G01 X-0.5816 Y1.0041  
G01 X-0.5888 Y0.9990  
G01 X-0.5966 Y0.9950  
G01 X-0.6050 Y0.9922  
G01 X-0.6137 Y0.9909  
G01 X-0.6225 Y0.9909  
G01 X-0.6312 Y0.9922  
G01 X-0.6396 Y0.9950  
G01 X-0.6475 Y0.9990  
G01 X-0.6546 Y1.0041  
G01 X-0.6608 Y1.0104  
G01 X-0.6660 Y1.0175  
G01 X-0.6700 Y1.0254  
G01 X-0.6727 Y1.0337  
G01 X-0.6741 Y1.0424  
G01 X-0.6741 Y1.1513  
G01 X-0.6727 Y1.1600  
G01 X-0.6700 Y1.1683  
G01 X-0.6660 Y1.1762  
G01 X-0.6608 Y1.1833  
G01 X-0.6546 Y1.1896  
G01 X-0.6494 Y1.1933  
G01 X-0.7241 Y1.2680  
G01 X-0.7383 Y1.2680  
G01 X-0.7570 Y1.2867  
G00 Z0.0500  
G00 X-0.7633 Y1.4180  
G01 Z-0.0040 F10    
G01 X-0.7820 Y1.4367  F20    
G01 X-0.7820 Y1.4509  
G01 X-0.8135 Y1.4824  
G01 X-0.8176 Y1.4865  
G01 X-0.8205 Y1.4915  
G01 X-0.8220 Y1.4971  
G01 X-0.8220 Y1.5409  
G01 X-0.8452 Y1.5641  
G01 X-0.8432 Y1.5593  
G01 X-0.8420 Y1.5532  
G01 X-0.8420 Y1.5468  
G01 X-0.8432 Y1.5407  
G01 X-0.8456 Y1.5348  
G01 X-0.8491 Y1.5296  
G01 X-0.8536 Y1.5251  
G01 X-0.8588 Y1.5216  
G01 X-0.8647 Y1.5192  
G01 X-0.8708 Y1.5180  
G01 X-0.9292 Y1.5180  
G01 X-0.9353 Y1.5192  
G01 X-0.9412 Y1.5216  
G01 X-0.9464 Y1.5251  
G01 X-0.9509 Y1.5296  
G01 X-0.9544 Y1.5348  
G01 X-0.9568 Y1.5407  
G01 X-0.9580 Y1.5468  
G01 X-0.9580 Y1.5532  
G01 X-0.9568 Y1.5593  
G01 X-0.9544 Y1.5652  
G01 X-0.9509 Y1.5704  
G01 X-0.9464 Y1.5749  
G01 X-0.9412 Y1.5784  
G01 X-0.9353 Y1.5808  
G01 X-0.9292 Y1.5820  
G01 X-0.8991 Y1.5820  
G01 X-0.8811 Y1.6000  
G01 X-0.8991 Y1.6180  
G01 X-0.9292 Y1.6180  
G01 X-0.9353 Y1.6192  
G01 X-0.9412 Y1.6216  
G01 X-0.9464 Y1.6251  
G01 X-0.9509 Y1.6296  
G01 X-0.9544 Y1.6348  
G01 X-0.9568 Y1.6407  
G01 X-0.9580 Y1.6468  
G01 X-0.9580 Y1.6532  
G01 X-0.9568 Y1.6593  
G01 X-0.9544 Y1.6652  
G01 X-0.9509 Y1.6704  
G01 X-0.9464 Y1.6749  
G01 X-0.9412 Y1.6784  
G01 X-0.9353 Y1.6808  
G01 X-0.9292 Y1.6820  
G01 X-0.8708 Y1.6820  
G01 X-0.8647 Y1.6808  
G01 X-0.8588 Y1.6784  
G01 X-0.8536 Y1.6749  
G01 X-0.8491 Y1.6704  
G01 X-0.8456 Y1.6652  
G01 X-0.8432 Y1.6593  
G01 X-0.8420 Y1.6532  
G01 X-0.8420 Y1.6468  
G01 X-0.8432 Y1.6407  
G01 X-0.8456 Y1.6348  
G01 X-0.8489 Y1.6300  
G01 X-0.8365 Y1.6176  
G01 X-0.8324 Y1.6135  
G01 X-0.7824 Y1.5635  
G01 X-0.7795 Y1.5585  
G01 X-0.7780 Y1.5529  
G01 X-0.7780 Y1.5091  
G01 X-0.7509 Y1.4820  
G01 X-0.7367 Y1.4820  
G01 X-0.7180 Y1.4633  
G01 X-0.7180 Y1.4367  
G01 X-0.7367 Y1.4180  
G01 X-0.7633 Y1.4180  
G00 Z0.0500  
G00 X-0.6334 Y1.4206  
G01 Z-0.0040 F10    
G01 X-0.6361 Y1.4290  F20    
G01 X-0.6375 Y1.4377  
G01 X-0.6375 Y1.4465  
G01 X-0.6361 Y1.4552  
G01 X-0.6334 Y1.4636  
G01 X-0.6294 Y1.4715  
G01 X-0.6242 Y1.4786  
G01 X-0.6180 Y1.4848  
G01 X-0.6108 Y1.4900  
G01 X-0.6030 Y1.4940  
G01 X-0.5946 Y1.4967  
G01 X-0.5859 Y1.4981  
G01 X-0.4771 Y1.4981  
G01 X-0.4684 Y1.4967  
G01 X-0.4600 Y1.4940  
G01 X-0.4521 Y1.4900  
G01 X-0.4450 Y1.4848  
G01 X-0.4388 Y1.4786  
G01 X-0.4336 Y1.4715  
G01 X-0.4296 Y1.4636  
G01 X-0.4269 Y1.4552  
G01 X-0.4255 Y1.4465  
G01 X-0.4255 Y1.4377  
G01 X-0.4269 Y1.4290  
G01 X-0.4296 Y1.4206  
G01 X-0.4336 Y1.4128  
G01 X-0.4388 Y1.4056  
G01 X-0.4450 Y1.3994  
G01 X-0.4521 Y1.3942  
G01 X-0.4600 Y1.3902  
G01 X-0.4684 Y1.3875  
G01 X-0.4771 Y1.3861  
G01 X-0.5859 Y1.3861  
G01 X-0.5946 Y1.3875  
G01 X-0.6030 Y1.3902  
G01 X-0.6108 Y1.3942  
G01 X-0.6180 Y1.3994  
G01 X-0.6242 Y1.4056  
G01 X-0.6294 Y1.4128  
G01 X-0.6334 Y1.4206  
G00 Z0.0500  
G00 X-0.6312 Y1.5422  
G01 Z-0.0040 F10    
G01 X-0.6396 Y1.5450  F20    
G01 X-0.6475 Y1.5490  
G01 X-0.6546 Y1.5541  
G01 X-0.6608 Y1.5604  
G01 X-0.6660 Y1.5675  
G01 X-0.6700 Y1.5754  
G01 X-0.6727 Y1.5837  
G01 X-0.6741 Y1.5924  
G01 X-0.6741 Y1.7013  
G01 X-0.6727 Y1.7100  
G01 X-0.6700 Y1.7183  
G01 X-0.6660 Y1.7262  
G01 X-0.6608 Y1.7333  
G01 X-0.6546 Y1.7396  
G01 X-0.6475 Y1.7447  
G01 X-0.6401 Y1.7485  
G01 X-0.6401 Y1.7590  
G01 X-0.7091 Y1.8280  
G01 X-0.7267 Y1.8280  
G01 X-0.7367 Y1.8180  
G01 X-0.7633 Y1.8180  
G01 X-0.7820 Y1.8367  
G01 X-0.7820 Y1.8633  
G01 X-0.7633 Y1.8820  
G01 X-0.7367 Y1.8820  
G01 X-0.7267 Y1.8720  
G01 X-0.6971 Y1.8720  
G01 X-0.6915 Y1.8705  
G01 X-0.6865 Y1.8676  
G01 X-0.6824 Y1.8635  
G01 X-0.6005 Y1.7816  
G01 X-0.5976 Y1.7766  
G01 X-0.5961 Y1.7710  
G01 X-0.5961 Y1.7485  
G01 X-0.5888 Y1.7447  
G01 X-0.5816 Y1.7396  
G01 X-0.5754 Y1.7333  
G01 X-0.5702 Y1.7262  
G01 X-0.5662 Y1.7183  
G01 X-0.5635 Y1.7100  
G01 X-0.5621 Y1.7013  
G01 X-0.5621 Y1.5924  
G01 X-0.5635 Y1.5837  
G01 X-0.5662 Y1.5754  
G01 X-0.5702 Y1.5675  
G01 X-0.5754 Y1.5604  
G01 X-0.5816 Y1.5541  
G01 X-0.5888 Y1.5490  
G01 X-0.5966 Y1.5450  
G01 X-0.6050 Y1.5422  
G01 X-0.6137 Y1.5409  
G01 X-0.6225 Y1.5409  
G01 X-0.6312 Y1.5422  
G00 Z0.0500  
G00 X-1.0545 Y1.5415  
G01 Z-0.0040 F10    
G01 X-1.0548 Y1.5410  F20    
G01 X-1.0549 Y1.5405  
G01 X-1.0562 Y1.5385  
G01 X-1.0574 Y1.5365  
G01 X-1.0578 Y1.5361  
G01 X-1.0581 Y1.5356  
G01 X-1.0598 Y1.5341  
G01 X-1.0615 Y1.5324  
G01 X-1.0620 Y1.5321  
G01 X-1.0624 Y1.5317  
G01 X-1.0645 Y1.5307  
G01 X-1.0665 Y1.5295  
G01 X-1.0670 Y1.5294  
G01 X-1.0675 Y1.5291  
G01 X-1.0698 Y1.5286  
G01 X-1.0721 Y1.5280  
G01 X-1.0727 Y1.5280  
G01 X-1.0732 Y1.5279  
G01 X-1.0756 Y1.5280  
G01 X-1.1507 Y1.5280  
G01 X-1.1536 Y1.5251  
G01 X-1.1588 Y1.5216  
G01 X-1.1647 Y1.5192  
G01 X-1.1708 Y1.5180  
G01 X-1.2292 Y1.5180  
G01 X-1.2353 Y1.5192  
G01 X-1.2412 Y1.5216  
G01 X-1.2464 Y1.5251  
G01 X-1.2509 Y1.5296  
G01 X-1.2544 Y1.5348  
G01 X-1.2568 Y1.5407  
G01 X-1.2580 Y1.5468  
G01 X-1.2580 Y1.5532  
G01 X-1.2568 Y1.5593  
G01 X-1.2544 Y1.5652  
G01 X-1.2509 Y1.5704  
G01 X-1.2464 Y1.5749  
G01 X-1.2412 Y1.5784  
G01 X-1.2353 Y1.5808  
G01 X-1.2292 Y1.5820  
G01 X-1.1708 Y1.5820  
G01 X-1.1647 Y1.5808  
G01 X-1.1588 Y1.5784  
G01 X-1.1536 Y1.5749  
G01 X-1.1507 Y1.5720  
G01 X-1.0959 Y1.5720  
G01 X-1.0731 Y2.0279  
G01 X-1.0820 Y2.0367  
G01 X-1.0820 Y2.0633  
G01 X-1.0633 Y2.0820  
G01 X-1.0367 Y2.0820  
G01 X-1.0180 Y2.0633  
G01 X-1.0180 Y2.0491  
G01 X-1.0114 Y2.0425  
G01 X-0.9106 Y1.9820  
G01 X-0.8867 Y1.9820  
G01 X-0.8680 Y1.9633  
G01 X-0.8680 Y1.9367  
G01 X-0.8867 Y1.9180  
G01 X-0.9133 Y1.9180  
G01 X-0.9320 Y1.9367  
G01 X-0.9320 Y1.9435  
G01 X-1.0303 Y2.0026  
G01 X-1.0530 Y1.5495  
G01 X-1.0530 Y1.5471  
G01 X-1.0531 Y1.5466  
G01 X-1.0532 Y1.5460  
G01 X-1.0539 Y1.5438  
G01 X-1.0545 Y1.5415  
G00 Z0.0500  
G00 X-1.1491 Y1.6296  
G01 Z-0.0040 F10    
G01 X-1.1536 Y1.6251  F20    
G01 X-1.1588 Y1.6216  
G01 X-1.1647 Y1.6192  
G01 X-1.1708 Y1.6180  
G01 X-1.2292 Y1.6180  
G01 X-1.2353 Y1.6192  
G01 X-1.2412 Y1.6216  
G01 X-1.2464 Y1.6251  
G01 X-1.2509 Y1.6296  
G01 X-1.2544 Y1.6348  
G01 X-1.2568 Y1.6407  
G01 X-1.2580 Y1.6468  
G01 X-1.2580 Y1.6532  
G01 X-1.2568 Y1.6593  
G01 X-1.2544 Y1.6652  
G01 X-1.2509 Y1.6704  
G01 X-1.2464 Y1.6749  
G01 X-1.2412 Y1.6784  
G01 X-1.2353 Y1.6808  
G01 X-1.2292 Y1.6820  
G01 X-1.2051 Y1.6820  
G01 X-1.1720 Y1.7317  
G01 X-1.1720 Y2.0267  
G01 X-1.1820 Y2.0367  
G01 X-1.1820 Y2.0633  
G01 X-1.1633 Y2.0820  
G01 X-1.1367 Y2.0820  
G01 X-1.1180 Y2.0633  
G01 X-1.1180 Y2.0367  
G01 X-1.1280 Y2.0267  
G01 X-1.1280 Y1.7272  
G01 X-1.1279 Y1.7265  
G01 X-1.1280 Y1.7243  
G01 X-1.1280 Y1.7221  
G01 X-1.1282 Y1.7214  
G01 X-1.1282 Y1.7207  
G01 X-1.1289 Y1.7186  
G01 X-1.1295 Y1.7165  
G01 X-1.1299 Y1.7159  
G01 X-1.1301 Y1.7152  
G01 X-1.1313 Y1.7134  
G01 X-1.1324 Y1.7115  
G01 X-1.1329 Y1.7110  
G01 X-1.1559 Y1.6764  
G01 X-1.1536 Y1.6749  
G01 X-1.1491 Y1.6704  
G01 X-1.1456 Y1.6652  
G01 X-1.1432 Y1.6593  
G01 X-1.1420 Y1.6532  
G01 X-1.1420 Y1.6468  
G01 X-1.1432 Y1.6407  
G01 X-1.1456 Y1.6348  
G01 X-1.1491 Y1.6296  
G00 Z0.0500  
G00 X-0.7883 Y1.9180  
G01 Z-0.0040 F10    
G01 X-0.8070 Y1.9367  F20    
G01 X-0.8070 Y1.9633  
G01 X-0.7883 Y1.9820  
G01 X-0.7741 Y1.9820  
G01 X-0.7720 Y1.9841  
G01 X-0.7720 Y2.2029  
G01 X-0.7705 Y2.2085  
G01 X-0.7676 Y2.2135  
G01 X-0.7635 Y2.2176  
G01 X-0.6650 Y2.3161  
G01 X-0.6660 Y2.3175  
G01 X-0.6700 Y2.3254  
G01 X-0.6727 Y2.3337  
G01 X-0.6741 Y2.3424  
G01 X-0.6741 Y2.4513  
G01 X-0.6727 Y2.4600  
G01 X-0.6700 Y2.4683  
G01 X-0.6660 Y2.4762  
G01 X-0.6608 Y2.4833  
G01 X-0.6546 Y2.4896  
G01 X-0.6475 Y2.4947  
G01 X-0.6396 Y2.4987  
G01 X-0.6312 Y2.5015  
G01 X-0.6225 Y2.5029  
G01 X-0.6137 Y2.5029  
G01 X-0.6050 Y2.5015  
G01 X-0.5966 Y2.4987  
G01 X-0.5888 Y2.4947  
G01 X-0.5816 Y2.4896  
G01 X-0.5754 Y2.4833  
G01 X-0.5702 Y2.4762  
G01 X-0.5662 Y2.4683  
G01 X-0.5635 Y2.4600  
G01 X-0.5621 Y2.4513  
G01 X-0.5621 Y2.3424  
G01 X-0.5635 Y2.3337  
G01 X-0.5662 Y2.3254  
G01 X-0.5702 Y2.3175  
G01 X-0.5754 Y2.3104  
G01 X-0.5816 Y2.3041  
G01 X-0.5888 Y2.2990  
G01 X-0.5966 Y2.2950  
G01 X-0.6050 Y2.2922  
G01 X-0.6137 Y2.2909  
G01 X-0.6225 Y2.2909  
G01 X-0.6273 Y2.2916  
G01 X-0.7280 Y2.1909  
G01 X-0.7280 Y1.9721  
G01 X-0.7295 Y1.9665  
G01 X-0.7324 Y1.9615  
G01 X-0.7430 Y1.9509  
G01 X-0.7430 Y1.9367  
G01 X-0.7617 Y1.9180  
G01 X-0.7883 Y1.9180  
G00 Z0.0500  
G00 X-0.6242 Y0.9286  
G01 Z-0.0040 F10    
G01 X-0.6180 Y0.9348  F20    
G01 X-0.6108 Y0.9400  
G01 X-0.6030 Y0.9440  
G01 X-0.5946 Y0.9467  
G01 X-0.5859 Y0.9481  
G01 X-0.4771 Y0.9481  
G01 X-0.4684 Y0.9467  
G01 X-0.4600 Y0.9440  
G01 X-0.4521 Y0.9400  
G01 X-0.4450 Y0.9348  
G01 X-0.4388 Y0.9286  
G01 X-0.4336 Y0.9215  
G01 X-0.4296 Y0.9136  
G01 X-0.4269 Y0.9052  
G01 X-0.4255 Y0.8965  
G01 X-0.4255 Y0.8877  
G01 X-0.4269 Y0.8790  
G01 X-0.4296 Y0.8706  
G01 X-0.4336 Y0.8628  
G01 X-0.4388 Y0.8556  
G01 X-0.4450 Y0.8494  
G01 X-0.4521 Y0.8442  
G01 X-0.4600 Y0.8402  
G01 X-0.4684 Y0.8375  
G01 X-0.4771 Y0.8361  
G01 X-0.5859 Y0.8361  
G01 X-0.5946 Y0.8375  
G01 X-0.6030 Y0.8402  
G01 X-0.6108 Y0.8442  
G01 X-0.6180 Y0.8494  
G01 X-0.6242 Y0.8556  
G01 X-0.6294 Y0.8628  
G01 X-0.6334 Y0.8706  
G01 X-0.6361 Y0.8790  
G01 X-0.6375 Y0.8877  
G01 X-0.6375 Y0.8965  
G01 X-0.6361 Y0.9052  
G01 X-0.6334 Y0.9136  
G01 X-0.6294 Y0.9215  
G01 X-0.6242 Y0.9286  
G00 Z0.0500  
G00 X-0.2055 Y0.0316  
G01 Z-0.0040 F10    
G01 X-0.2316 Y0.0055  F20    
G01 X-0.2684 Y0.0055  
G01 X-0.2945 Y0.0316  
G01 X-0.2945 Y0.0684  
G01 X-0.2684 Y0.0945  
G01 X-0.2316 Y0.0945  
G01 X-0.2055 Y0.0684  
G01 X-0.2055 Y0.0316  
G00 Z0.0500  
G00 X-0.2055 Y0.1316  
G01 Z-0.0040 F10    
G01 X-0.2316 Y0.1055  F20    
G01 X-0.2684 Y0.1055  
G01 X-0.2945 Y0.1316  
G01 X-0.2945 Y0.1684  
G01 X-0.2684 Y0.1945  
G01 X-0.2316 Y0.1945  
G01 X-0.2055 Y0.1684  
G01 X-0.2055 Y0.1316  
G00 Z0.0500  
G00 X-0.3055 Y0.1316  
G01 Z-0.0040 F10    
G01 X-0.3316 Y0.1055  F20    
G01 X-0.3684 Y0.1055  
G01 X-0.3945 Y0.1316  
G01 X-0.3945 Y0.1684  
G01 X-0.3684 Y0.1945  
G01 X-0.3316 Y0.1945  
G01 X-0.3055 Y0.1684  
G01 X-0.3055 Y0.1316  
G00 Z0.0500  
G00 X-0.3316 Y0.0945  
G01 Z-0.0040 F10    
G01 X-0.3055 Y0.0684  F20    
G01 X-0.3055 Y0.0316  
G01 X-0.3316 Y0.0055  
G01 X-0.3684 Y0.0055  
G01 X-0.3945 Y0.0316  
G01 X-0.3945 Y0.0684  
G01 X-0.3684 Y0.0945  
G01 X-0.3316 Y0.0945  
G00 Z0.0500  
G00 X-0.4316 Y0.0945  
G01 Z-0.0040 F10    
G01 X-0.4055 Y0.0684  F20    
G01 X-0.4055 Y0.0316  
G01 X-0.4316 Y0.0055  
G01 X-0.4684 Y0.0055  
G01 X-0.4945 Y0.0316  
G01 X-0.4945 Y0.0684  
G01 X-0.4684 Y0.0945  
G01 X-0.4316 Y0.0945  
G00 Z0.0500  
G00 X-0.4316 Y0.1055  
G01 Z-0.0040 F10    
G01 X-0.4684 Y0.1055  F20    
G01 X-0.4945 Y0.1316  
G01 X-0.4945 Y0.1684  
G01 X-0.4684 Y0.1945  
G01 X-0.4316 Y0.1945  
G01 X-0.4055 Y0.1684  
G01 X-0.4055 Y0.1316  
G01 X-0.4316 Y0.1055  
G00 Z0.0500  
G00 X-0.5055 Y0.1316  
G01 Z-0.0040 F10    
G01 X-0.5265 Y0.1106  F20    
G01 X-0.5265 Y0.0894  
G01 X-0.5055 Y0.0684  
G01 X-0.5055 Y0.0316  
G01 X-0.5316 Y0.0055  
G01 X-0.5684 Y0.0055  
G01 X-0.5945 Y0.0316  
G01 X-0.5945 Y0.0684  
G01 X-0.5735 Y0.0894  
G01 X-0.5735 Y0.1106  
G01 X-0.5945 Y0.1316  
G01 X-0.5945 Y0.1684  
G01 X-0.5921 Y0.1708  
G01 X-0.6175 Y0.2089  
G01 X-0.7386 Y0.3058  
G01 X-0.7394 Y0.3063  
G01 X-0.7404 Y0.3072  
G01 X-0.7415 Y0.3081  
G01 X-0.7421 Y0.3088  
G01 X-0.7428 Y0.3095  
G01 X-0.7436 Y0.3106  
G01 X-0.7445 Y0.3116  
G01 X-0.7449 Y0.3125  
G01 X-0.7455 Y0.3132  
G01 X-0.7460 Y0.3145  
G01 X-0.7467 Y0.3157  
G01 X-0.7470 Y0.3166  
G01 X-0.7474 Y0.3174  
G01 X-0.7477 Y0.3188  
G01 X-0.7481 Y0.3201  
G01 X-0.7482 Y0.3210  
G01 X-0.7484 Y0.3219  
G01 X-0.7485 Y0.3233  
G01 X-0.7486 Y0.3247  
G01 X-0.7485 Y0.3256  
G01 X-0.7488 Y0.3353  
G01 X-0.7504 Y0.3361  
G01 X-0.7562 Y0.3403  
G01 X-0.7613 Y0.3454  
G01 X-0.7655 Y0.3512  
G01 X-0.7687 Y0.3575  
G01 X-0.7710 Y0.3643  
G01 X-0.7721 Y0.3714  
G01 X-0.7721 Y0.3786  
G01 X-0.7710 Y0.3857  
G01 X-0.7687 Y0.3925  
G01 X-0.7655 Y0.3988  
G01 X-0.7613 Y0.4046  
G01 X-0.7562 Y0.4097  
G01 X-0.7504 Y0.4139  
G01 X-0.7440 Y0.4172  
G01 X-0.7372 Y0.4194  
G01 X-0.7302 Y0.4205  
G01 X-0.7230 Y0.4205  
G01 X-0.7159 Y0.4194  
G01 X-0.7091 Y0.4172  
G01 X-0.7027 Y0.4139  
G01 X-0.6969 Y0.4097  
G01 X-0.6919 Y0.4046  
G01 X-0.6877 Y0.3988  
G01 X-0.6844 Y0.3925  
G01 X-0.6822 Y0.3857  
G01 X-0.6811 Y0.3786  
G01 X-0.6811 Y0.3714  
G01 X-0.6822 Y0.3643  
G01 X-0.6844 Y0.3575  
G01 X-0.6877 Y0.3512  
G01 X-0.6919 Y0.3454  
G01 X-0.6969 Y0.3403  
G01 X-0.7019 Y0.3367  
G01 X-0.7019 Y0.3366  
G01 X-0.5861 Y0.2440  
G01 X-0.5850 Y0.2432  
G01 X-0.5843 Y0.2425  
G01 X-0.5835 Y0.2419  
G01 X-0.5827 Y0.2409  
G01 X-0.5817 Y0.2400  
G01 X-0.5812 Y0.2391  
G01 X-0.5805 Y0.2384  
G01 X-0.5799 Y0.2372  
G01 X-0.5514 Y0.1945  
G01 X-0.5316 Y0.1945  
G01 X-0.5055 Y0.1684  
G01 X-0.5055 Y0.1316  
G00 Z0.0500  
G00 X-0.6055 Y0.1316  
G01 Z-0.0040 F10    
G01 X-0.6265 Y0.1106  F20    
G01 X-0.6265 Y0.0894  
G01 X-0.6055 Y0.0684  
G01 X-0.6055 Y0.0316  
G01 X-0.6316 Y0.0055  
G01 X-0.6684 Y0.0055  
G01 X-0.6894 Y0.0265  
G01 X-0.7106 Y0.0265  
G01 X-0.7316 Y0.0055  
G01 X-0.7684 Y0.0055  
G01 X-0.7894 Y0.0265  
G01 X-0.8106 Y0.0265  
G01 X-0.8316 Y0.0055  
G01 X-0.8684 Y0.0055  
G01 X-0.8945 Y0.0316  
G01 X-0.8945 Y0.0684  
G01 X-0.8684 Y0.0945  
G01 X-0.8316 Y0.0945  
G01 X-0.8106 Y0.0735  
G01 X-0.7894 Y0.0735  
G01 X-0.7684 Y0.0945  
G01 X-0.7316 Y0.0945  
G01 X-0.7106 Y0.0735  
G01 X-0.6894 Y0.0735  
G01 X-0.6735 Y0.0894  
G01 X-0.6735 Y0.1106  
G01 X-0.6894 Y0.1265  
G01 X-0.7106 Y0.1265  
G01 X-0.7316 Y0.1055  
G01 X-0.7684 Y0.1055  
G01 X-0.7894 Y0.1265  
G01 X-0.8106 Y0.1265  
G01 X-0.8316 Y0.1055  
G01 X-0.8684 Y0.1055  
G01 X-0.8945 Y0.1316  
G01 X-0.8945 Y0.1684  
G01 X-0.8735 Y0.1894  
G01 X-0.8735 Y0.2515  
G01 X-0.9773 Y0.2515  
G01 X-0.9819 Y0.2524  
G01 X-0.9861 Y0.2542  
G01 X-0.9900 Y0.2567  
G01 X-0.9933 Y0.2600  
G01 X-1.0433 Y0.3100  
G01 X-1.0458 Y0.3139  
G01 X-1.0476 Y0.3181  
G01 X-1.0485 Y0.3227  
G01 X-1.0485 Y0.3737  
G01 X-1.0699 Y0.5664  
G01 X-1.0749 Y0.5697  
G01 X-1.0803 Y0.5751  
G01 X-1.0846 Y0.5815  
G01 X-1.0875 Y0.5886  
G01 X-1.0890 Y0.5962  
G01 X-1.0890 Y0.6038  
G01 X-1.0875 Y0.6114  
G01 X-1.0846 Y0.6185  
G01 X-1.0803 Y0.6249  
G01 X-1.0749 Y0.6303  
G01 X-1.0735 Y0.6312  
G01 X-1.0735 Y0.7679  
G01 X-1.1559 Y0.8915  
G01 X-1.1639 Y0.8915  
G01 X-1.1835 Y0.9111  
G01 X-1.1835 Y0.9389  
G01 X-1.1639 Y0.9585  
G01 X-1.1361 Y0.9585  
G01 X-1.1165 Y0.9389  
G01 X-1.1165 Y0.9171  
G01 X-1.0304 Y0.7880  
G01 X-1.0292 Y0.7861  
G01 X-1.0283 Y0.7840  
G01 X-1.0274 Y0.7819  
G01 X-1.0269 Y0.7796  
G01 X-1.0265 Y0.7773  
G01 X-1.0265 Y0.7750  
G01 X-1.0265 Y0.6312  
G01 X-1.0251 Y0.6303  
G01 X-1.0197 Y0.6249  
G01 X-1.0154 Y0.6185  
G01 X-1.0125 Y0.6114  
G01 X-1.0110 Y0.6038  
G01 X-1.0110 Y0.5962  
G01 X-1.0125 Y0.5886  
G01 X-1.0154 Y0.5815  
G01 X-1.0197 Y0.5751  
G01 X-1.0232 Y0.5716  
G01 X-1.0018 Y0.3786  
G01 X-1.0015 Y0.3773  
G01 X-1.0015 Y0.3763  
G01 X-1.0014 Y0.3753  
G01 X-1.0015 Y0.3740  
G01 X-1.0015 Y0.3347  
G01 X-0.9653 Y0.2985  
G01 X-0.8597 Y0.2985  
G01 X-0.8485 Y0.3097  
G01 X-0.8485 Y0.5773  
G01 X-0.8476 Y0.5819  
G01 X-0.8458 Y0.5861  
G01 X-0.8433 Y0.5900  
G01 X-0.8400 Y0.5933  
G01 X-0.8390 Y0.5942  
G01 X-0.8390 Y0.6162  
G01 X-0.8304 Y0.6247  
G01 X-0.8727 Y0.7940  
G01 X-0.8733 Y0.7960  
G01 X-0.8733 Y0.7963  
G01 X-0.8734 Y0.7965  
G01 X-0.8735 Y0.7986  
G01 X-0.8736 Y0.8006  
G01 X-0.8736 Y0.8009  
G01 X-0.8736 Y0.8012  
G01 X-0.8733 Y0.8032  
G01 X-0.8730 Y0.8052  
G01 X-0.8729 Y0.8055  
G01 X-0.8729 Y0.8057  
G01 X-0.8722 Y0.8077  
G01 X-0.8716 Y0.8096  
G01 X-0.8714 Y0.8099  
G01 X-0.8713 Y0.8101  
G01 X-0.8703 Y0.8119  
G01 X-0.8693 Y0.8136  
G01 X-0.8691 Y0.8138  
G01 X-0.8690 Y0.8141  
G01 X-0.8676 Y0.8156  
G01 X-0.8662 Y0.8171  
G01 X-0.8660 Y0.8173  
G01 X-0.8658 Y0.8175  
G01 X-0.8642 Y0.8187  
G01 X-0.8626 Y0.8200  
G01 X-0.8623 Y0.8201  
G01 X-0.8621 Y0.8203  
G01 X-0.8603 Y0.8211  
G01 X-0.8118 Y0.8454  
G01 X-0.8111 Y0.8458  
G01 X-0.8098 Y0.8464  
G01 X-0.8084 Y0.8471  
G01 X-0.8076 Y0.8473  
G01 X-0.8069 Y0.8476  
G01 X-0.8054 Y0.8479  
G01 X-0.8040 Y0.8483  
G01 X-0.8031 Y0.8483  
G01 X-0.8023 Y0.8485  
G01 X-0.8008 Y0.8485  
G01 X-0.7994 Y0.8486  
G01 X-0.7985 Y0.8485  
G01 X-0.7000 Y0.8485  
G01 X-0.6977 Y0.8485  
G01 X-0.6954 Y0.8481  
G01 X-0.6932 Y0.8476  
G01 X-0.6910 Y0.8467  
G01 X-0.6889 Y0.8458  
G01 X-0.6870 Y0.8446  
G01 X-0.6179 Y0.7985  
G01 X-0.3985 Y0.7985  
G01 X-0.3985 Y1.9689  
G01 X-0.4906 Y2.1346  
G01 X-0.5860 Y2.1346  
G01 X-0.5950 Y2.1360  
G01 X-0.6036 Y2.1388  
G01 X-0.6116 Y2.1429  
G01 X-0.6190 Y2.1483  
G01 X-0.6254 Y2.1547  
G01 X-0.6307 Y2.1620  
G01 X-0.6348 Y2.1701  
G01 X-0.6376 Y2.1787  
G01 X-0.6390 Y2.1876  
G01 X-0.6390 Y2.1967  
G01 X-0.6376 Y2.2056  
G01 X-0.6348 Y2.2142  
G01 X-0.6307 Y2.2223  
G01 X-0.6254 Y2.2296  
G01 X-0.6190 Y2.2360  
G01 X-0.6116 Y2.2413  
G01 X-0.6036 Y2.2454  
G01 X-0.5950 Y2.2482  
G01 X-0.5860 Y2.2496  
G01 X-0.4770 Y2.2496  
G01 X-0.4680 Y2.2482  
G01 X-0.4594 Y2.2454  
G01 X-0.4514 Y2.2413  
G01 X-0.4440 Y2.2360  
G01 X-0.4376 Y2.2296  
G01 X-0.4323 Y2.2223  
G01 X-0.4289 Y2.2156  
G01 X-0.3129 Y2.2156  
G01 X-0.1559 Y2.3726  
G01 X-0.1559 Y2.4093  
G01 X-0.2145 Y2.5265  
G01 X-0.6837 Y2.5265  
G01 X-0.7438 Y2.3662  
G01 X-0.7415 Y2.3639  
G01 X-0.7415 Y2.3361  
G01 X-0.7611 Y2.3165  
G01 X-0.7889 Y2.3165  
G01 X-0.7989 Y2.3265  
G01 X-0.8761 Y2.3265  
G01 X-0.8861 Y2.3165  
G01 X-0.9139 Y2.3165  
G01 X-0.9239 Y2.3265  
G01 X-1.0855 Y2.3265  
G01 X-1.2265 Y2.0445  
G01 X-1.2265 Y1.9739  
G01 X-1.2165 Y1.9639  
G01 X-1.2165 Y1.9361  
G01 X-1.2361 Y1.9165  
G01 X-1.2639 Y1.9165  
G01 X-1.2835 Y1.9361  
G01 X-1.2835 Y1.9639  
G01 X-1.2735 Y1.9739  
G01 X-1.2735 Y2.0485  
G01 X-1.2736 Y2.0494  
G01 X-1.2735 Y2.0508  
G01 X-1.2735 Y2.0523  
G01 X-1.2733 Y2.0531  
G01 X-1.2733 Y2.0540  
G01 X-1.2729 Y2.0554  
G01 X-1.2726 Y2.0569  
G01 X-1.2723 Y2.0576  
G01 X-1.2721 Y2.0584  
G01 X-1.2714 Y2.0598  
G01 X-1.2708 Y2.0611  
G01 X-1.2704 Y2.0618  
G01 X-1.1214 Y2.3598  
G01 X-1.1208 Y2.3611  
G01 X-1.1204 Y2.3618  
G01 X-1.1200 Y2.3626  
G01 X-1.1191 Y2.3637  
G01 X-1.1183 Y2.3650  
G01 X-1.1177 Y2.3656  
G01 X-1.1171 Y2.3662  
G01 X-1.1160 Y2.3672  
G01 X-1.1150 Y2.3683  
G01 X-1.1143 Y2.3687  
G01 X-1.1136 Y2.3693  
G01 X-1.1124 Y2.3700  
G01 X-1.1111 Y2.3708  
G01 X-1.1104 Y2.3711  
G01 X-1.1096 Y2.3716  
G01 X-1.1082 Y2.3720  
G01 X-1.1069 Y2.3726  
G01 X-1.1060 Y2.3728  
G01 X-1.1052 Y2.3730  
G01 X-1.1038 Y2.3732  
G01 X-1.1023 Y2.3735  
G01 X-1.1015 Y2.3735  
G01 X-1.1006 Y2.3736  
G01 X-1.0992 Y2.3735  
G01 X-0.9239 Y2.3735  
G01 X-0.9139 Y2.3835  
G01 X-0.8861 Y2.3835  
G01 X-0.8761 Y2.3735  
G01 X-0.7989 Y2.3735  
G01 X-0.7889 Y2.3835  
G01 X-0.7875 Y2.3835  
G01 X-0.7227 Y2.5565  
G01 X-0.7226 Y2.5569  
G01 X-0.7219 Y2.5586  
G01 X-0.7212 Y2.5604  
G01 X-0.7210 Y2.5608  
G01 X-0.7208 Y2.5611  
G01 X-0.7198 Y2.5627  
G01 X-0.7188 Y2.5644  
G01 X-0.7185 Y2.5646  
G01 X-0.7183 Y2.5650  
G01 X-0.7169 Y2.5663  
G01 X-0.7156 Y2.5677  
G01 X-0.7153 Y2.5680  
G01 X-0.7150 Y2.5683  
G01 X-0.7134 Y2.5693  
G01 X-0.7118 Y2.5704  
G01 X-0.7115 Y2.5706  
G01 X-0.7111 Y2.5708  
G01 X-0.7094 Y2.5716  
G01 X-0.7076 Y2.5724  
G01 X-0.7072 Y2.5724  
G01 X-0.7069 Y2.5726  
G01 X-0.7050 Y2.5730  
G01 X-0.7031 Y2.5734  
G01 X-0.7027 Y2.5734  
G01 X-0.7023 Y2.5735  
G01 X-0.7004 Y2.5735  
G01 X-0.6985 Y2.5736  
G01 X-0.6981 Y2.5735  
G01 X-0.2008 Y2.5735  
G01 X-0.1994 Y2.5736  
G01 X-0.1985 Y2.5735  
G01 X-0.1977 Y2.5735  
G01 X-0.1962 Y2.5732  
G01 X-0.1948 Y2.5730  
G01 X-0.1940 Y2.5728  
G01 X-0.1931 Y2.5726  
G01 X-0.1918 Y2.5720  
G01 X-0.1904 Y2.5716  
G01 X-0.1896 Y2.5711  
G01 X-0.1889 Y2.5708  
G01 X-0.1876 Y2.5700  
G01 X-0.1864 Y2.5693  
G01 X-0.1857 Y2.5687  
G01 X-0.1850 Y2.5683  
G01 X-0.1840 Y2.5672  
G01 X-0.1829 Y2.5662  
G01 X-0.1823 Y2.5656  
G01 X-0.1817 Y2.5650  
G01 X-0.1809 Y2.5637  
G01 X-0.1800 Y2.5626  
G01 X-0.1796 Y2.5618  
G01 X-0.1792 Y2.5611  
G01 X-0.1786 Y2.5598  
G01 X-0.1413 Y2.4852  
G01 X-0.1359 Y2.4907  
G01 X-0.1286 Y2.4960  
G01 X-0.1205 Y2.5001  
G01 X-0.1119 Y2.5029  
G01 X-0.1030 Y2.5044  
G01 X-0.0939 Y2.5044  
G01 X-0.0850 Y2.5029  
G01 X-0.0764 Y2.5001  
G01 X-0.0683 Y2.4960  
G01 X-0.0610 Y2.4907  
G01 X-0.0546 Y2.4843  
G01 X-0.0492 Y2.4770  
G01 X-0.0451 Y2.4689  
G01 X-0.0423 Y2.4603  
G01 X-0.0409 Y2.4514  
G01 X-0.0409 Y2.3423  
G01 X-0.0423 Y2.3334  
G01 X-0.0451 Y2.3248  
G01 X-0.0492 Y2.3167  
G01 X-0.0546 Y2.3094  
G01 X-0.0610 Y2.3030  
G01 X-0.0683 Y2.2977  
G01 X-0.0764 Y2.2936  
G01 X-0.0850 Y2.2908  
G01 X-0.0939 Y2.2894  
G01 X-0.1030 Y2.2894  
G01 X-0.1119 Y2.2908  
G01 X-0.1205 Y2.2936  
G01 X-0.1286 Y2.2977  
G01 X-0.1359 Y2.3030  
G01 X-0.1423 Y2.3094  
G01 X-0.1466 Y2.3154  
G01 X-0.2882 Y2.1739  
G01 X-0.2920 Y2.1713  
G01 X-0.2963 Y2.1695  
G01 X-0.3008 Y2.1686  
G01 X-0.4289 Y2.1686  
G01 X-0.4323 Y2.1620  
G01 X-0.4376 Y2.1547  
G01 X-0.4440 Y2.1483  
G01 X-0.4443 Y2.1481  
G01 X-0.3549 Y1.9873  
G01 X-0.3542 Y1.9861  
G01 X-0.3538 Y1.9852  
G01 X-0.3533 Y1.9844  
G01 X-0.3529 Y1.9831  
G01 X-0.3524 Y1.9819  
G01 X-0.3522 Y1.9809  
G01 X-0.3519 Y1.9800  
G01 X-0.3518 Y1.9786  
G01 X-0.3515 Y1.9773  
G01 X-0.3515 Y1.9763  
G01 X-0.3514 Y1.9754  
G01 X-0.3515 Y1.9740  
G01 X-0.3515 Y1.6704  
G01 X-0.1559 Y1.6704  
G01 X-0.1559 Y1.7014  
G01 X-0.1545 Y1.7103  
G01 X-0.1517 Y1.7189  
G01 X-0.1476 Y1.7270  
G01 X-0.1423 Y1.7343  
G01 X-0.1359 Y1.7407  
G01 X-0.1286 Y1.7460  
G01 X-0.1205 Y1.7501  
G01 X-0.1119 Y1.7529  
G01 X-0.1030 Y1.7544  
G01 X-0.0939 Y1.7544  
G01 X-0.0850 Y1.7529  
G01 X-0.0764 Y1.7501  
G01 X-0.0683 Y1.7460  
G01 X-0.0610 Y1.7407  
G01 X-0.0546 Y1.7343  
G01 X-0.0492 Y1.7270  
G01 X-0.0451 Y1.7189  
G01 X-0.0423 Y1.7103  
G01 X-0.0409 Y1.7014  
G01 X-0.0409 Y1.5923  
G01 X-0.0423 Y1.5834  
G01 X-0.0451 Y1.5748  
G01 X-0.0492 Y1.5667  
G01 X-0.0546 Y1.5594  
G01 X-0.0610 Y1.5530  
G01 X-0.0683 Y1.5477  
G01 X-0.0764 Y1.5436  
G01 X-0.0850 Y1.5408  
G01 X-0.0939 Y1.5394  
G01 X-0.1030 Y1.5394  
G01 X-0.1119 Y1.5408  
G01 X-0.1205 Y1.5436  
G01 X-0.1286 Y1.5477  
G01 X-0.1359 Y1.5530  
G01 X-0.1423 Y1.5594  
G01 X-0.1476 Y1.5667  
G01 X-0.1517 Y1.5748  
G01 X-0.1545 Y1.5834  
G01 X-0.1559 Y1.5923  
G01 X-0.1559 Y1.6234  
G01 X-0.3515 Y1.6234  
G01 X-0.3515 Y1.1204  
G01 X-0.1559 Y1.1204  
G01 X-0.1559 Y1.1514  
G01 X-0.1545 Y1.1603  
G01 X-0.1517 Y1.1689  
G01 X-0.1476 Y1.1770  
G01 X-0.1423 Y1.1843  
G01 X-0.1359 Y1.1907  
G01 X-0.1286 Y1.1960  
G01 X-0.1205 Y1.2001  
G01 X-0.1119 Y1.2029  
G01 X-0.1030 Y1.2044  
G01 X-0.0939 Y1.2044  
G01 X-0.0850 Y1.2029  
G01 X-0.0764 Y1.2001  
G01 X-0.0683 Y1.1960  
G01 X-0.0610 Y1.1907  
G01 X-0.0546 Y1.1843  
G01 X-0.0492 Y1.1770  
G01 X-0.0451 Y1.1689  
G01 X-0.0423 Y1.1603  
G01 X-0.0409 Y1.1514  
G01 X-0.0409 Y1.0423  
G01 X-0.0423 Y1.0334  
G01 X-0.0451 Y1.0248  
G01 X-0.0492 Y1.0167  
G01 X-0.0546 Y1.0094  
G01 X-0.0610 Y1.0030  
G01 X-0.0683 Y0.9977  
G01 X-0.0764 Y0.9936  
G01 X-0.0850 Y0.9908  
G01 X-0.0939 Y0.9894  
G01 X-0.1030 Y0.9894  
G01 X-0.1119 Y0.9908  
G01 X-0.1205 Y0.9936  
G01 X-0.1286 Y0.9977  
G01 X-0.1359 Y1.0030  
G01 X-0.1423 Y1.0094  
G01 X-0.1476 Y1.0167  
G01 X-0.1517 Y1.0248  
G01 X-0.1545 Y1.0334  
G01 X-0.1559 Y1.0423  
G01 X-0.1559 Y1.0734  
G01 X-0.3515 Y1.0734  
G01 X-0.3515 Y0.7985  
G01 X-0.2477 Y0.7985  
G01 X-0.2431 Y0.7976  
G01 X-0.2389 Y0.7958  
G01 X-0.2350 Y0.7933  
G01 X-0.2317 Y0.7900  
G01 X-0.0961 Y0.6544  
G01 X-0.0939 Y0.6544  
G01 X-0.0850 Y0.6529  
G01 X-0.0764 Y0.6501  
G01 X-0.0683 Y0.6460  
G01 X-0.0610 Y0.6407  
G01 X-0.0546 Y0.6343  
G01 X-0.0492 Y0.6270  
G01 X-0.0451 Y0.6189  
G01 X-0.0423 Y0.6103  
G01 X-0.0409 Y0.6014  
G01 X-0.0409 Y0.4923  
G01 X-0.0423 Y0.4834  
G01 X-0.0451 Y0.4748  
G01 X-0.0492 Y0.4667  
G01 X-0.0546 Y0.4594  
G01 X-0.0610 Y0.4530  
G01 X-0.0683 Y0.4477  
G01 X-0.0764 Y0.4436  
G01 X-0.0850 Y0.4408  
G01 X-0.0939 Y0.4394  
G01 X-0.1030 Y0.4394  
G01 X-0.1119 Y0.4408  
G01 X-0.1205 Y0.4436  
G01 X-0.1286 Y0.4477  
G01 X-0.1359 Y0.4530  
G01 X-0.1423 Y0.4594  
G01 X-0.1476 Y0.4667  
G01 X-0.1517 Y0.4748  
G01 X-0.1545 Y0.4834  
G01 X-0.1559 Y0.4923  
G01 X-0.1559 Y0.6014  
G01 X-0.1545 Y0.6103  
G01 X-0.1517 Y0.6189  
G01 X-0.1476 Y0.6270  
G01 X-0.1424 Y0.6342  
G01 X-0.2597 Y0.7515  
G01 X-0.6250 Y0.7515  
G01 X-0.6273 Y0.7515  
G01 X-0.6296 Y0.7519  
G01 X-0.6318 Y0.7524  
G01 X-0.6340 Y0.7533  
G01 X-0.6361 Y0.7542  
G01 X-0.6380 Y0.7554  
G01 X-0.7071 Y0.8015  
G01 X-0.7945 Y0.8015  
G01 X-0.8226 Y0.7874  
G01 X-0.7855 Y0.6390  
G01 X-0.7838 Y0.6390  
G01 X-0.7610 Y0.6162  
G01 X-0.7610 Y0.5838  
G01 X-0.7838 Y0.5610  
G01 X-0.8015 Y0.5610  
G01 X-0.8015 Y0.2977  
G01 X-0.8024 Y0.2931  
G01 X-0.8042 Y0.2889  
G01 X-0.8067 Y0.2850  
G01 X-0.8265 Y0.2653  
G01 X-0.8265 Y0.1894  
G01 X-0.8106 Y0.1735  
G01 X-0.7894 Y0.1735  
G01 X-0.7684 Y0.1945  
G01 X-0.7316 Y0.1945  
G01 X-0.7106 Y0.1735  
G01 X-0.6894 Y0.1735  
G01 X-0.6684 Y0.1945  
G01 X-0.6316 Y0.1945  
G01 X-0.6055 Y0.1684  
G01 X-0.6055 Y0.1316  
G00 Z0.0500  
G00 X-0.6036 Y0.2888  
G01 Z-0.0040 F10    
G01 X-0.6116 Y0.2929  F20    
G01 X-0.6190 Y0.2983  
G01 X-0.6254 Y0.3047  
G01 X-0.6307 Y0.3120  
G01 X-0.6348 Y0.3201  
G01 X-0.6376 Y0.3287  
G01 X-0.6390 Y0.3376  
G01 X-0.6390 Y0.3467  
G01 X-0.6376 Y0.3556  
G01 X-0.6348 Y0.3642  
G01 X-0.6307 Y0.3723  
G01 X-0.6254 Y0.3796  
G01 X-0.6190 Y0.3860  
G01 X-0.6116 Y0.3913  
G01 X-0.6036 Y0.3954  
G01 X-0.5950 Y0.3982  
G01 X-0.5860 Y0.3996  
G01 X-0.4770 Y0.3996  
G01 X-0.4680 Y0.3982  
G01 X-0.4594 Y0.3954  
G01 X-0.4514 Y0.3913  
G01 X-0.4440 Y0.3860  
G01 X-0.4376 Y0.3796  
G01 X-0.4323 Y0.3723  
G01 X-0.4282 Y0.3642  
G01 X-0.4254 Y0.3556  
G01 X-0.4240 Y0.3467  
G01 X-0.4240 Y0.3376  
G01 X-0.4254 Y0.3287  
G01 X-0.4282 Y0.3201  
G01 X-0.4323 Y0.3120  
G01 X-0.4376 Y0.3047  
G01 X-0.4440 Y0.2983  
G01 X-0.4514 Y0.2929  
G01 X-0.4594 Y0.2888  
G01 X-0.4680 Y0.2860  
G01 X-0.4770 Y0.2846  
G01 X-0.5860 Y0.2846  
G01 X-0.5950 Y0.2860  
G01 X-0.6036 Y0.2888  
G00 Z0.0500  
G00 X-0.6046 Y0.4408  
G01 Z-0.0040 F10    
G01 X-0.6136 Y0.4394  F20    
G01 X-0.6226 Y0.4394  
G01 X-0.6316 Y0.4408  
G01 X-0.6402 Y0.4436  
G01 X-0.6482 Y0.4477  
G01 X-0.6556 Y0.4530  
G01 X-0.6620 Y0.4594  
G01 X-0.6673 Y0.4667  
G01 X-0.6714 Y0.4748  
G01 X-0.6742 Y0.4834  
G01 X-0.6756 Y0.4923  
G01 X-0.6756 Y0.6014  
G01 X-0.6742 Y0.6103  
G01 X-0.6714 Y0.6189  
G01 X-0.6673 Y0.6270  
G01 X-0.6643 Y0.6311  
G01 X-0.7497 Y0.7165  
G01 X-0.7639 Y0.7165  
G01 X-0.7835 Y0.7361  
G01 X-0.7835 Y0.7639  
G01 X-0.7639 Y0.7835  
G01 X-0.7361 Y0.7835  
G01 X-0.7165 Y0.7639  
G01 X-0.7165 Y0.7497  
G01 X-0.6211 Y0.6544  
G01 X-0.6136 Y0.6544  
G01 X-0.6046 Y0.6529  
G01 X-0.5960 Y0.6501  
G01 X-0.5880 Y0.6460  
G01 X-0.5807 Y0.6407  
G01 X-0.5743 Y0.6343  
G01 X-0.5689 Y0.6270  
G01 X-0.5648 Y0.6189  
G01 X-0.5620 Y0.6103  
G01 X-0.5606 Y0.6014  
G01 X-0.5606 Y0.4923  
G01 X-0.5620 Y0.4834  
G01 X-0.5648 Y0.4748  
G01 X-0.5689 Y0.4667  
G01 X-0.5743 Y0.4594  
G01 X-0.5807 Y0.4530  
G01 X-0.5880 Y0.4477  
G01 X-0.5960 Y0.4436  
G01 X-0.6046 Y0.4408  
G00 Z0.0500  
G00 X-0.8938 Y0.4097  
G01 Z-0.0040 F10    
G01 X-0.8887 Y0.4046  F20    
G01 X-0.8845 Y0.3988  
G01 X-0.8813 Y0.3925  
G01 X-0.8790 Y0.3857  
G01 X-0.8779 Y0.3786  
G01 X-0.8779 Y0.3714  
G01 X-0.8790 Y0.3643  
G01 X-0.8813 Y0.3575  
G01 X-0.8845 Y0.3512  
G01 X-0.8887 Y0.3454  
G01 X-0.8938 Y0.3403  
G01 X-0.8996 Y0.3361  
G01 X-0.9060 Y0.3328  
G01 X-0.9107 Y0.3313  
G01 X-0.9112 Y0.3308  
G01 X-0.9126 Y0.3300  
G01 X-0.9139 Y0.3292  
G01 X-0.9146 Y0.3289  
G01 X-0.9152 Y0.3285  
G01 X-0.9167 Y0.3280  
G01 X-0.9181 Y0.3274  
G01 X-0.9189 Y0.3273  
G01 X-0.9196 Y0.3270  
G01 X-0.9211 Y0.3268  
G01 X-0.9227 Y0.3265  
G01 X-0.9234 Y0.3265  
G01 X-0.9242 Y0.3264  
G01 X-0.9257 Y0.3265  
G01 X-0.9273 Y0.3265  
G01 X-0.9280 Y0.3266  
G01 X-0.9288 Y0.3267  
G01 X-0.9303 Y0.3271  
G01 X-0.9319 Y0.3274  
G01 X-0.9325 Y0.3277  
G01 X-0.9333 Y0.3279  
G01 X-0.9347 Y0.3286  
G01 X-0.9361 Y0.3292  
G01 X-0.9368 Y0.3296  
G01 X-0.9374 Y0.3299  
G01 X-0.9387 Y0.3309  
G01 X-0.9400 Y0.3317  
G01 X-0.9405 Y0.3323  
G01 X-0.9411 Y0.3327  
G01 X-0.9414 Y0.3331  
G01 X-0.9473 Y0.3361  
G01 X-0.9531 Y0.3403  
G01 X-0.9581 Y0.3454  
G01 X-0.9623 Y0.3512  
G01 X-0.9656 Y0.3575  
G01 X-0.9678 Y0.3643  
G01 X-0.9689 Y0.3714  
G01 X-0.9689 Y0.3786  
G01 X-0.9678 Y0.3857  
G01 X-0.9656 Y0.3925  
G01 X-0.9623 Y0.3988  
G01 X-0.9581 Y0.4046  
G01 X-0.9531 Y0.4097  
G01 X-0.9485 Y0.4130  
G01 X-0.9485 Y0.5485  
G01 X-0.9486 Y0.5494  
G01 X-0.9485 Y0.5508  
G01 X-0.9485 Y0.8915  
G01 X-0.9639 Y0.8915  
G01 X-0.9835 Y0.9111  
G01 X-0.9835 Y0.9191  
G01 X-1.0361 Y0.9542  
G01 X-1.0380 Y0.9555  
G01 X-1.0400 Y0.9567  
G01 X-1.0416 Y0.9584  
G01 X-1.0432 Y0.9600  
G01 X-1.0446 Y0.9620  
G01 X-1.0458 Y0.9638  
G01 X-1.0467 Y0.9660  
G01 X-1.0476 Y0.9681  
G01 X-1.0481 Y0.9705  
G01 X-1.0485 Y0.9727  
G01 X-1.0485 Y0.9750  
G01 X-1.0485 Y0.9773  
G01 X-1.0485 Y1.2978  
G01 X-1.0485 Y1.2980  
G01 X-1.0485 Y1.3001  
G01 X-1.0485 Y1.3023  
G01 X-1.0485 Y1.3025  
G01 X-1.0485 Y1.3026  
G01 X-1.0480 Y1.3047  
G01 X-1.0476 Y1.3069  
G01 X-1.0475 Y1.3070  
G01 X-1.0475 Y1.3071  
G01 X-1.0467 Y1.3091  
G01 X-1.0458 Y1.3111  
G01 X-1.0457 Y1.3113  
G01 X-1.0457 Y1.3114  
G01 X-1.0445 Y1.3132  
G01 X-1.0433 Y1.3150  
G01 X-1.0432 Y1.3151  
G01 X-1.0431 Y1.3152  
G01 X-1.0415 Y1.3167  
G01 X-1.0400 Y1.3183  
G01 X-1.0399 Y1.3183  
G01 X-1.0398 Y1.3184  
G01 X-1.0379 Y1.3196  
G01 X-1.0361 Y1.3208  
G01 X-1.0360 Y1.3209  
G01 X-1.0359 Y1.3210  
G01 X-1.0339 Y1.3218  
G01 X-1.0319 Y1.3226  
G01 X-1.0317 Y1.3226  
G01 X-0.9595 Y1.3515  
G01 X-0.9595 Y1.3533  
G01 X-0.9582 Y1.3598  
G01 X-0.9557 Y1.3659  
G01 X-0.9520 Y1.3714  
G01 X-0.9474 Y1.3760  
G01 X-0.9419 Y1.3797  
G01 X-0.9358 Y1.3822  
G01 X-0.9293 Y1.3835  
G01 X-0.8707 Y1.3835  
G01 X-0.8642 Y1.3822  
G01 X-0.8581 Y1.3797  
G01 X-0.8526 Y1.3760  
G01 X-0.8480 Y1.3714  
G01 X-0.8443 Y1.3659  
G01 X-0.8418 Y1.3598  
G01 X-0.8405 Y1.3533  
G01 X-0.8405 Y1.3467  
G01 X-0.8418 Y1.3402  
G01 X-0.8443 Y1.3341  
G01 X-0.8480 Y1.3286  
G01 X-0.8526 Y1.3240  
G01 X-0.8581 Y1.3203  
G01 X-0.8642 Y1.3178  
G01 X-0.8707 Y1.3165  
G01 X-0.9205 Y1.3165  
G01 X-1.0015 Y1.2841  
G01 X-1.0015 Y0.9876  
G01 X-0.9579 Y0.9585  
G01 X-0.9361 Y0.9585  
G01 X-0.9261 Y0.9485  
G01 X-0.9227 Y0.9485  
G01 X-0.9181 Y0.9476  
G01 X-0.9139 Y0.9458  
G01 X-0.9100 Y0.9433  
G01 X-0.9067 Y0.9400  
G01 X-0.9042 Y0.9361  
G01 X-0.9024 Y0.9319  
G01 X-0.9015 Y0.9273  
G01 X-0.9015 Y0.6390  
G01 X-0.8962 Y0.6390  
G01 X-0.8886 Y0.6375  
G01 X-0.8815 Y0.6346  
G01 X-0.8751 Y0.6303  
G01 X-0.8697 Y0.6249  
G01 X-0.8654 Y0.6185  
G01 X-0.8625 Y0.6114  
G01 X-0.8610 Y0.6038  
G01 X-0.8610 Y0.5962  
G01 X-0.8625 Y0.5886  
G01 X-0.8654 Y0.5815  
G01 X-0.8697 Y0.5751  
G01 X-0.8751 Y0.5697  
G01 X-0.8815 Y0.5654  
G01 X-0.8886 Y0.5625  
G01 X-0.8929 Y0.5616  
G01 X-0.9015 Y0.5445  
G01 X-0.9015 Y0.4149  
G01 X-0.8996 Y0.4139  
G01 X-0.8938 Y0.4097  
G00 Z0.0500  
G00 X-1.1056 Y0.4091  
G01 Z-0.0040 F10    
G01 X-1.1045 Y0.4020  F20    
G01 X-1.1045 Y0.3948  
G01 X-1.1056 Y0.3878  
G01 X-1.1078 Y0.3810  
G01 X-1.1111 Y0.3746  
G01 X-1.1153 Y0.3688  
G01 X-1.1204 Y0.3637  
G01 X-1.1262 Y0.3595  
G01 X-1.1325 Y0.3563  
G01 X-1.1393 Y0.3540  
G01 X-1.1464 Y0.3529  
G01 X-1.1536 Y0.3529  
G01 X-1.1607 Y0.3540  
G01 X-1.1675 Y0.3563  
G01 X-1.1738 Y0.3595  
G01 X-1.1796 Y0.3637  
G01 X-1.1847 Y0.3688  
G01 X-1.1889 Y0.3746  
G01 X-1.1922 Y0.3810  
G01 X-1.1944 Y0.3878  
G01 X-1.1955 Y0.3948  
G01 X-1.1955 Y0.4020  
G01 X-1.1944 Y0.4091  
G01 X-1.1922 Y0.4159  
G01 X-1.1889 Y0.4223  
G01 X-1.1847 Y0.4281  
G01 X-1.1796 Y0.4331  
G01 X-1.1738 Y0.4373  
G01 X-1.1735 Y0.4375  
G01 X-1.1735 Y0.5683  
G01 X-1.1890 Y0.5838  
G01 X-1.1890 Y0.6058  
G01 X-1.3150 Y0.7317  
G01 X-1.3183 Y0.7350  
G01 X-1.3208 Y0.7389  
G01 X-1.3226 Y0.7431  
G01 X-1.3235 Y0.7477  
G01 X-1.3235 Y1.7023  
G01 X-1.3226 Y1.7069  
G01 X-1.3208 Y1.7111  
G01 X-1.3183 Y1.7150  
G01 X-1.2835 Y1.7497  
G01 X-1.2835 Y1.7639  
G01 X-1.2639 Y1.7835  
G01 X-1.2361 Y1.7835  
G01 X-1.2165 Y1.7639  
G01 X-1.2165 Y1.7361  
G01 X-1.2361 Y1.7165  
G01 X-1.2503 Y1.7165  
G01 X-1.2765 Y1.6903  
G01 X-1.2765 Y1.3735  
G01 X-1.2499 Y1.3735  
G01 X-1.2474 Y1.3760  
G01 X-1.2419 Y1.3797  
G01 X-1.2358 Y1.3822  
G01 X-1.2293 Y1.3835  
G01 X-1.1707 Y1.3835  
G01 X-1.1642 Y1.3822  
G01 X-1.1581 Y1.3797  
G01 X-1.1526 Y1.3760  
G01 X-1.1480 Y1.3714  
G01 X-1.1443 Y1.3659  
G01 X-1.1418 Y1.3598  
G01 X-1.1405 Y1.3533  
G01 X-1.1405 Y1.3467  
G01 X-1.1418 Y1.3402  
G01 X-1.1443 Y1.3341  
G01 X-1.1480 Y1.3286  
G01 X-1.1526 Y1.3240  
G01 X-1.1581 Y1.3203  
G01 X-1.1642 Y1.3178  
G01 X-1.1707 Y1.3165  
G01 X-1.2293 Y1.3165  
G01 X-1.2358 Y1.3178  
G01 X-1.2419 Y1.3203  
G01 X-1.2474 Y1.3240  
G01 X-1.2499 Y1.3265  
G01 X-1.2765 Y1.3265  
G01 X-1.2765 Y0.7597  
G01 X-1.1558 Y0.6390  
G01 X-1.1338 Y0.6390  
G01 X-1.1110 Y0.6162  
G01 X-1.1110 Y0.5838  
G01 X-1.1265 Y0.5683  
G01 X-1.1265 Y0.4375  
G01 X-1.1262 Y0.4373  
G01 X-1.1204 Y0.4331  
G01 X-1.1153 Y0.4281  
G01 X-1.1111 Y0.4223  
G01 X-1.1078 Y0.4159  
G01 X-1.1056 Y0.4091  
G00 Z0.0500  
G00 X-1.1204 Y0.2363  
G01 Z-0.0040 F10    
G01 X-1.1153 Y0.2312  F20    
G01 X-1.1111 Y0.2254  
G01 X-1.1078 Y0.2190  
G01 X-1.1059 Y0.2132  
G01 X-0.9810 Y0.1820  
G01 X-0.9684 Y0.1945  
G01 X-0.9316 Y0.1945  
G01 X-0.9055 Y0.1684  
G01 X-0.9055 Y0.1316  
G01 X-0.9265 Y0.1106  
G01 X-0.9265 Y0.0894  
G01 X-0.9055 Y0.0684  
G01 X-0.9055 Y0.0316  
G01 X-0.9316 Y0.0055  
G01 X-0.9684 Y0.0055  
G01 X-0.9945 Y0.0316  
G01 X-0.9945 Y0.0684  
G01 X-0.9735 Y0.0894  
G01 X-0.9735 Y0.1106  
G01 X-0.9945 Y0.1316  
G01 X-0.9945 Y0.1369  
G01 X-1.1192 Y0.1681  
G01 X-1.1204 Y0.1669  
G01 X-1.1262 Y0.1627  
G01 X-1.1325 Y0.1594  
G01 X-1.1393 Y0.1572  
G01 X-1.1464 Y0.1561  
G01 X-1.1536 Y0.1561  
G01 X-1.1607 Y0.1572  
G01 X-1.1675 Y0.1594  
G01 X-1.1738 Y0.1627  
G01 X-1.1796 Y0.1669  
G01 X-1.1847 Y0.1719  
G01 X-1.1889 Y0.1777  
G01 X-1.1922 Y0.1841  
G01 X-1.1944 Y0.1909  
G01 X-1.1955 Y0.1980  
G01 X-1.1955 Y0.2052  
G01 X-1.1944 Y0.2122  
G01 X-1.1922 Y0.2190  
G01 X-1.1889 Y0.2254  
G01 X-1.1847 Y0.2312  
G01 X-1.1796 Y0.2363  
G01 X-1.1738 Y0.2405  
G01 X-1.1675 Y0.2437  
G01 X-1.1607 Y0.2460  
G01 X-1.1536 Y0.2471  
G01 X-1.1464 Y0.2471  
G01 X-1.1393 Y0.2460  
G01 X-1.1325 Y0.2437  
G01 X-1.1262 Y0.2405  
G01 X-1.1204 Y0.2363  
G00 Z0.0500  
G00 X-1.1361 Y0.7165  
G01 Z-0.0040 F10    
G01 X-1.1639 Y0.7165  F20    
G01 X-1.1835 Y0.7361  
G01 X-1.1835 Y0.7503  
G01 X-1.2400 Y0.8067  
G01 X-1.2433 Y0.8100  
G01 X-1.2458 Y0.8139  
G01 X-1.2476 Y0.8181  
G01 X-1.2485 Y0.8227  
G01 X-1.2485 Y1.0251  
G01 X-1.2520 Y1.0286  
G01 X-1.2557 Y1.0341  
G01 X-1.2582 Y1.0402  
G01 X-1.2595 Y1.0467  
G01 X-1.2595 Y1.0533  
G01 X-1.2582 Y1.0598  
G01 X-1.2557 Y1.0659  
G01 X-1.2520 Y1.0714  
G01 X-1.2474 Y1.0760  
G01 X-1.2419 Y1.0797  
G01 X-1.2358 Y1.0822  
G01 X-1.2293 Y1.0835  
G01 X-1.2235 Y1.0835  
G01 X-1.2235 Y1.1165  
G01 X-1.2293 Y1.1165  
G01 X-1.2358 Y1.1178  
G01 X-1.2419 Y1.1203  
G01 X-1.2474 Y1.1240  
G01 X-1.2520 Y1.1286  
G01 X-1.2557 Y1.1341  
G01 X-1.2582 Y1.1402  
G01 X-1.2595 Y1.1467  
G01 X-1.2595 Y1.1533  
G01 X-1.2582 Y1.1598  
G01 X-1.2557 Y1.1659  
G01 X-1.2520 Y1.1714  
G01 X-1.2474 Y1.1760  
G01 X-1.2419 Y1.1797  
G01 X-1.2358 Y1.1822  
G01 X-1.2293 Y1.1835  
G01 X-1.1707 Y1.1835  
G01 X-1.1642 Y1.1822  
G01 X-1.1581 Y1.1797  
G01 X-1.1526 Y1.1760  
G01 X-1.1480 Y1.1714  
G01 X-1.1443 Y1.1659  
G01 X-1.1418 Y1.1598  
G01 X-1.1405 Y1.1533  
G01 X-1.1405 Y1.1467  
G01 X-1.1418 Y1.1402  
G01 X-1.1443 Y1.1341  
G01 X-1.1480 Y1.1286  
G01 X-1.1526 Y1.1240  
G01 X-1.1581 Y1.1203  
G01 X-1.1642 Y1.1178  
G01 X-1.1707 Y1.1165  
G01 X-1.1765 Y1.1165  
G01 X-1.1765 Y1.0835  
G01 X-1.1707 Y1.0835  
G01 X-1.1642 Y1.0822  
G01 X-1.1581 Y1.0797  
G01 X-1.1526 Y1.0760  
G01 X-1.1480 Y1.0714  
G01 X-1.1443 Y1.0659  
G01 X-1.1418 Y1.0598  
G01 X-1.1405 Y1.0533  
G01 X-1.1405 Y1.0467  
G01 X-1.1418 Y1.0402  
G01 X-1.1443 Y1.0341  
G01 X-1.1480 Y1.0286  
G01 X-1.1526 Y1.0240  
G01 X-1.1581 Y1.0203  
G01 X-1.1642 Y1.0178  
G01 X-1.1707 Y1.0165  
G01 X-1.2003 Y1.0165  
G01 X-1.2015 Y1.0153  
G01 X-1.2015 Y0.8347  
G01 X-1.1503 Y0.7835  
G01 X-1.1361 Y0.7835  
G01 X-1.1165 Y0.7639  
G01 X-1.1165 Y0.7361  
G01 X-1.1361 Y0.7165  
G00 Z0.0500  
G00 X-0.9474 Y1.0240  
G01 Z-0.0040 F10    
G01 X-0.9520 Y1.0286  F20    
G01 X-0.9557 Y1.0341  
G01 X-0.9582 Y1.0402  
G01 X-0.9595 Y1.0467  
G01 X-0.9595 Y1.0533  
G01 X-0.9582 Y1.0598  
G01 X-0.9557 Y1.0659  
G01 X-0.9520 Y1.0714  
G01 X-0.9474 Y1.0760  
G01 X-0.9419 Y1.0797  
G01 X-0.9358 Y1.0822  
G01 X-0.9293 Y1.0835  
G01 X-0.9235 Y1.0835  
G01 X-0.9235 Y1.1165  
G01 X-0.9293 Y1.1165  
G01 X-0.9358 Y1.1178  
G01 X-0.9419 Y1.1203  
G01 X-0.9474 Y1.1240  
G01 X-0.9520 Y1.1286  
G01 X-0.9557 Y1.1341  
G01 X-0.9582 Y1.1402  
G01 X-0.9595 Y1.1467  
G01 X-0.9595 Y1.1533  
G01 X-0.9582 Y1.1598  
G01 X-0.9557 Y1.1659  
G01 X-0.9520 Y1.1714  
G01 X-0.9474 Y1.1760  
G01 X-0.9419 Y1.1797  
G01 X-0.9358 Y1.1822  
G01 X-0.9293 Y1.1835  
G01 X-0.8707 Y1.1835  
G01 X-0.8642 Y1.1822  
G01 X-0.8581 Y1.1797  
G01 X-0.8526 Y1.1760  
G01 X-0.8480 Y1.1714  
G01 X-0.8443 Y1.1659  
G01 X-0.8418 Y1.1598  
G01 X-0.8405 Y1.1533  
G01 X-0.8405 Y1.1467  
G01 X-0.8418 Y1.1402  
G01 X-0.8443 Y1.1341  
G01 X-0.8480 Y1.1286  
G01 X-0.8526 Y1.1240  
G01 X-0.8581 Y1.1203  
G01 X-0.8642 Y1.1178  
G01 X-0.8707 Y1.1165  
G01 X-0.8765 Y1.1165  
G01 X-0.8765 Y1.0835  
G01 X-0.8707 Y1.0835  
G01 X-0.8642 Y1.0822  
G01 X-0.8581 Y1.0797  
G01 X-0.8526 Y1.0760  
G01 X-0.8480 Y1.0714  
G01 X-0.8443 Y1.0659  
G01 X-0.8418 Y1.0598  
G01 X-0.8405 Y1.0533  
G01 X-0.8405 Y1.0467  
G01 X-0.8418 Y1.0402  
G01 X-0.8443 Y1.0341  
G01 X-0.8447 Y1.0336  
G01 X-0.7280 Y0.9335  
G01 X-0.7111 Y0.9335  
G01 X-0.6915 Y0.9139  
G01 X-0.6915 Y0.8861  
G01 X-0.7111 Y0.8665  
G01 X-0.7389 Y0.8665  
G01 X-0.7585 Y0.8861  
G01 X-0.7585 Y0.8978  
G01 X-0.8970 Y1.0165  
G01 X-0.9293 Y1.0165  
G01 X-0.9358 Y1.0178  
G01 X-0.9419 Y1.0203  
G01 X-0.9474 Y1.0240  
G00 Z0.0500  
G00 X-0.9474 Y1.2240  
G01 Z-0.0040 F10    
G01 X-0.9520 Y1.2286  F20    
G01 X-0.9557 Y1.2341  
G01 X-0.9582 Y1.2402  
G01 X-0.9595 Y1.2467  
G01 X-0.9595 Y1.2533  
G01 X-0.9582 Y1.2598  
G01 X-0.9557 Y1.2659  
G01 X-0.9520 Y1.2714  
G01 X-0.9474 Y1.2760  
G01 X-0.9419 Y1.2797  
G01 X-0.9358 Y1.2822  
G01 X-0.9293 Y1.2835  
G01 X-0.8707 Y1.2835  
G01 X-0.8664 Y1.2826  
G01 X-0.8235 Y1.2933  
G01 X-0.8235 Y1.3773  
G01 X-0.8226 Y1.3819  
G01 X-0.8208 Y1.3861  
G01 X-0.8183 Y1.3900  
G01 X-0.8150 Y1.3933  
G01 X-0.8111 Y1.3958  
G01 X-0.8069 Y1.3976  
G01 X-0.8023 Y1.3985  
G01 X-0.6985 Y1.3985  
G01 X-0.6985 Y1.4922  
G01 X-0.7678 Y1.5846  
G01 X-0.7683 Y1.5850  
G01 X-0.7692 Y1.5864  
G01 X-0.7702 Y1.5878  
G01 X-0.7705 Y1.5883  
G01 X-0.7708 Y1.5889  
G01 X-0.7715 Y1.5904  
G01 X-0.7722 Y1.5919  
G01 X-0.7724 Y1.5925  
G01 X-0.7726 Y1.5931  
G01 X-0.7729 Y1.5948  
G01 X-0.7733 Y1.5964  
G01 X-0.7734 Y1.5971  
G01 X-0.7735 Y1.5977  
G01 X-0.7735 Y1.5994  
G01 X-0.7736 Y1.6010  
G01 X-0.7735 Y1.6017  
G01 X-0.7735 Y1.6874  
G01 X-0.8970 Y1.7698  
G01 X-0.9765 Y1.6903  
G01 X-0.9765 Y1.4735  
G01 X-0.9499 Y1.4735  
G01 X-0.9474 Y1.4760  
G01 X-0.9419 Y1.4797  
G01 X-0.9358 Y1.4822  
G01 X-0.9293 Y1.4835  
G01 X-0.8707 Y1.4835  
G01 X-0.8642 Y1.4822  
G01 X-0.8581 Y1.4797  
G01 X-0.8526 Y1.4760  
G01 X-0.8480 Y1.4714  
G01 X-0.8443 Y1.4659  
G01 X-0.8418 Y1.4598  
G01 X-0.8405 Y1.4533  
G01 X-0.8405 Y1.4467  
G01 X-0.8418 Y1.4402  
G01 X-0.8443 Y1.4341  
G01 X-0.8480 Y1.4286  
G01 X-0.8526 Y1.4240  
G01 X-0.8581 Y1.4203  
G01 X-0.8642 Y1.4178  
G01 X-0.8707 Y1.4165  
G01 X-0.9293 Y1.4165  
G01 X-0.9358 Y1.4178  
G01 X-0.9419 Y1.4203  
G01 X-0.9474 Y1.4240  
G01 X-0.9499 Y1.4265  
G01 X-1.0543 Y1.4265  
G01 X-1.0765 Y1.2485  
G01 X-1.0765 Y1.2477  
G01 X-1.0768 Y1.2462  
G01 X-1.0770 Y1.2448  
G01 X-1.0772 Y1.2440  
G01 X-1.0774 Y1.2431  
G01 X-1.0780 Y1.2418  
G01 X-1.0784 Y1.2404  
G01 X-1.0788 Y1.2397  
G01 X-1.0792 Y1.2389  
G01 X-1.0800 Y1.2376  
G01 X-1.0807 Y1.2364  
G01 X-1.0813 Y1.2357  
G01 X-1.0817 Y1.2350  
G01 X-1.0828 Y1.2340  
G01 X-1.0837 Y1.2329  
G01 X-1.0844 Y1.2323  
G01 X-1.0850 Y1.2317  
G01 X-1.0862 Y1.2309  
G01 X-1.0874 Y1.2300  
G01 X-1.0882 Y1.2296  
G01 X-1.0889 Y1.2292  
G01 X-1.0902 Y1.2286  
G01 X-1.0915 Y1.2280  
G01 X-1.0924 Y1.2277  
G01 X-1.0931 Y1.2274  
G01 X-1.0946 Y1.2271  
G01 X-1.0960 Y1.2267  
G01 X-1.0969 Y1.2267  
G01 X-1.0977 Y1.2265  
G01 X-1.0992 Y1.2265  
G01 X-1.1006 Y1.2264  
G01 X-1.1015 Y1.2265  
G01 X-1.1501 Y1.2265  
G01 X-1.1526 Y1.2240  
G01 X-1.1581 Y1.2203  
G01 X-1.1642 Y1.2178  
G01 X-1.1707 Y1.2165  
G01 X-1.2293 Y1.2165  
G01 X-1.2358 Y1.2178  
G01 X-1.2419 Y1.2203  
G01 X-1.2474 Y1.2240  
G01 X-1.2520 Y1.2286  
G01 X-1.2557 Y1.2341  
G01 X-1.2582 Y1.2402  
G01 X-1.2595 Y1.2467  
G01 X-1.2595 Y1.2533  
G01 X-1.2582 Y1.2598  
G01 X-1.2557 Y1.2659  
G01 X-1.2520 Y1.2714  
G01 X-1.2474 Y1.2760  
G01 X-1.2419 Y1.2797  
G01 X-1.2358 Y1.2822  
G01 X-1.2293 Y1.2835  
G01 X-1.1707 Y1.2835  
G01 X-1.1642 Y1.2822  
G01 X-1.1581 Y1.2797  
G01 X-1.1526 Y1.2760  
G01 X-1.1501 Y1.2735  
G01 X-1.1207 Y1.2735  
G01 X-1.1016 Y1.4265  
G01 X-1.1501 Y1.4265  
G01 X-1.1526 Y1.4240  
G01 X-1.1581 Y1.4203  
G01 X-1.1642 Y1.4178  
G01 X-1.1707 Y1.4165  
G01 X-1.2293 Y1.4165  
G01 X-1.2358 Y1.4178  
G01 X-1.2419 Y1.4203  
G01 X-1.2474 Y1.4240  
G01 X-1.2520 Y1.4286  
G01 X-1.2557 Y1.4341  
G01 X-1.2582 Y1.4402  
G01 X-1.2595 Y1.4467  
G01 X-1.2595 Y1.4533  
G01 X-1.2582 Y1.4598  
G01 X-1.2557 Y1.4659  
G01 X-1.2520 Y1.4714  
G01 X-1.2474 Y1.4760  
G01 X-1.2419 Y1.4797  
G01 X-1.2358 Y1.4822  
G01 X-1.2293 Y1.4835  
G01 X-1.1707 Y1.4835  
G01 X-1.1642 Y1.4822  
G01 X-1.1581 Y1.4797  
G01 X-1.1526 Y1.4760  
G01 X-1.1501 Y1.4735  
G01 X-1.0758 Y1.4735  
G01 X-1.0744 Y1.4736  
G01 X-1.0735 Y1.4735  
G01 X-1.0235 Y1.4735  
G01 X-1.0235 Y1.7023  
G01 X-1.0226 Y1.7069  
G01 X-1.0208 Y1.7111  
G01 X-1.0183 Y1.7150  
G01 X-1.0150 Y1.7183  
G01 X-0.9166 Y1.8167  
G01 X-0.9150 Y1.8182  
G01 X-0.9130 Y1.8196  
G01 X-0.9112 Y1.8208  
G01 X-0.9089 Y1.8217  
G01 X-0.9069 Y1.8226  
G01 X-0.9045 Y1.8231  
G01 X-0.9023 Y1.8235  
G01 X-0.9000 Y1.8235  
G01 X-0.8977 Y1.8235  
G01 X-0.8954 Y1.8230  
G01 X-0.8932 Y1.8226  
G01 X-0.8910 Y1.8217  
G01 X-0.8889 Y1.8208  
G01 X-0.8870 Y1.8195  
G01 X-0.7389 Y1.7208  
G01 X-0.7370 Y1.7195  
G01 X-0.7350 Y1.7183  
G01 X-0.7334 Y1.7166  
G01 X-0.7318 Y1.7150  
G01 X-0.7304 Y1.7130  
G01 X-0.7292 Y1.7112  
G01 X-0.7283 Y1.7090  
G01 X-0.7274 Y1.7069  
G01 X-0.7269 Y1.7045  
G01 X-0.7265 Y1.7023  
G01 X-0.7265 Y1.7000  
G01 X-0.7265 Y1.6977  
G01 X-0.7265 Y1.6078  
G01 X-0.6572 Y1.5154  
G01 X-0.6567 Y1.5150  
G01 X-0.6558 Y1.5136  
G01 X-0.6548 Y1.5122  
G01 X-0.6545 Y1.5117  
G01 X-0.6542 Y1.5111  
G01 X-0.6535 Y1.5096  
G01 X-0.6528 Y1.5081  
G01 X-0.6526 Y1.5075  
G01 X-0.6524 Y1.5069  
G01 X-0.6521 Y1.5052  
G01 X-0.6517 Y1.5036  
G01 X-0.6516 Y1.5029  
G01 X-0.6515 Y1.5023  
G01 X-0.6515 Y1.5006  
G01 X-0.6514 Y1.4990  
G01 X-0.6515 Y1.4983  
G01 X-0.6515 Y1.3727  
G01 X-0.6524 Y1.3681  
G01 X-0.6542 Y1.3639  
G01 X-0.6567 Y1.3600  
G01 X-0.6600 Y1.3567  
G01 X-0.6639 Y1.3542  
G01 X-0.6681 Y1.3524  
G01 X-0.6727 Y1.3515  
G01 X-0.7765 Y1.3515  
G01 X-0.7765 Y1.2756  
G01 X-0.7764 Y1.2738  
G01 X-0.7765 Y1.2733  
G01 X-0.7765 Y1.2727  
G01 X-0.7768 Y1.2710  
G01 X-0.7771 Y1.2693  
G01 X-0.7773 Y1.2687  
G01 X-0.7774 Y1.2681  
G01 X-0.7781 Y1.2665  
G01 X-0.7787 Y1.2649  
G01 X-0.7790 Y1.2644  
G01 X-0.7792 Y1.2639  
G01 X-0.7801 Y1.2624  
G01 X-0.7810 Y1.2609  
G01 X-0.7814 Y1.2605  
G01 X-0.7817 Y1.2600  
G01 X-0.7830 Y1.2588  
G01 X-0.7841 Y1.2575  
G01 X-0.7846 Y1.2572  
G01 X-0.7850 Y1.2567  
G01 X-0.7865 Y1.2558  
G01 X-0.7879 Y1.2547  
G01 X-0.7884 Y1.2545  
G01 X-0.7889 Y1.2542  
G01 X-0.7905 Y1.2535  
G01 X-0.7921 Y1.2528  
G01 X-0.7926 Y1.2526  
G01 X-0.7931 Y1.2524  
G01 X-0.7949 Y1.2521  
G01 X-0.8418 Y1.2403  
G01 X-0.8418 Y1.2402  
G01 X-0.8443 Y1.2341  
G01 X-0.8480 Y1.2286  
G01 X-0.8526 Y1.2240  
G01 X-0.8581 Y1.2203  
G01 X-0.8642 Y1.2178  
G01 X-0.8707 Y1.2165  
G01 X-0.9293 Y1.2165  
G01 X-0.9358 Y1.2178  
G01 X-0.9419 Y1.2203  
G01 X-0.9474 Y1.2240  
G00 Z0.0500  
G00 X-0.7585 Y1.2861  
G01 Z-0.0040 F10    
G01 X-0.7585 Y1.3139  F20    
G01 X-0.7389 Y1.3335  
G01 X-0.7111 Y1.3335  
G01 X-0.6915 Y1.3139  
G01 X-0.6915 Y1.2997  
G01 X-0.5999 Y1.2081  
G01 X-0.5973 Y1.2042  
G01 X-0.5955 Y1.2000  
G01 X-0.5955 Y1.1999  
G01 X-0.5880 Y1.1960  
G01 X-0.5807 Y1.1907  
G01 X-0.5743 Y1.1843  
G01 X-0.5689 Y1.1770  
G01 X-0.5648 Y1.1689  
G01 X-0.5620 Y1.1603  
G01 X-0.5606 Y1.1514  
G01 X-0.5606 Y1.0423  
G01 X-0.5620 Y1.0334  
G01 X-0.5648 Y1.0248  
G01 X-0.5689 Y1.0167  
G01 X-0.5743 Y1.0094  
G01 X-0.5807 Y1.0030  
G01 X-0.5880 Y0.9977  
G01 X-0.5960 Y0.9936  
G01 X-0.6046 Y0.9908  
G01 X-0.6136 Y0.9894  
G01 X-0.6226 Y0.9894  
G01 X-0.6316 Y0.9908  
G01 X-0.6402 Y0.9936  
G01 X-0.6482 Y0.9977  
G01 X-0.6556 Y1.0030  
G01 X-0.6620 Y1.0094  
G01 X-0.6673 Y1.0167  
G01 X-0.6714 Y1.0248  
G01 X-0.6742 Y1.0334  
G01 X-0.6756 Y1.0423  
G01 X-0.6756 Y1.1514  
G01 X-0.6742 Y1.1603  
G01 X-0.6714 Y1.1689  
G01 X-0.6673 Y1.1770  
G01 X-0.6620 Y1.1843  
G01 X-0.6556 Y1.1907  
G01 X-0.6517 Y1.1935  
G01 X-0.7247 Y1.2665  
G01 X-0.7389 Y1.2665  
G01 X-0.7585 Y1.2861  
G00 Z0.0500  
G00 X-0.7639 Y1.4165  
G01 Z-0.0040 F10    
G01 X-0.7835 Y1.4361  F20    
G01 X-0.7835 Y1.4503  
G01 X-0.8150 Y1.4817  
G01 X-0.8183 Y1.4850  
G01 X-0.8208 Y1.4889  
G01 X-0.8226 Y1.4931  
G01 X-0.8235 Y1.4977  
G01 X-0.8235 Y1.5403  
G01 X-0.8415 Y1.5583  
G01 X-0.8405 Y1.5533  
G01 X-0.8405 Y1.5467  
G01 X-0.8418 Y1.5402  
G01 X-0.8443 Y1.5341  
G01 X-0.8480 Y1.5286  
G01 X-0.8526 Y1.5240  
G01 X-0.8581 Y1.5203  
G01 X-0.8642 Y1.5178  
G01 X-0.8707 Y1.5165  
G01 X-0.9293 Y1.5165  
G01 X-0.9358 Y1.5178  
G01 X-0.9419 Y1.5203  
G01 X-0.9474 Y1.5240  
G01 X-0.9520 Y1.5286  
G01 X-0.9557 Y1.5341  
G01 X-0.9582 Y1.5402  
G01 X-0.9595 Y1.5467  
G01 X-0.9595 Y1.5533  
G01 X-0.9582 Y1.5598  
G01 X-0.9557 Y1.5659  
G01 X-0.9520 Y1.5714  
G01 X-0.9474 Y1.5760  
G01 X-0.9419 Y1.5797  
G01 X-0.9358 Y1.5822  
G01 X-0.9293 Y1.5835  
G01 X-0.8997 Y1.5835  
G01 X-0.8832 Y1.6000  
G01 X-0.8997 Y1.6165  
G01 X-0.9293 Y1.6165  
G01 X-0.9358 Y1.6178  
G01 X-0.9419 Y1.6203  
G01 X-0.9474 Y1.6240  
G01 X-0.9520 Y1.6286  
G01 X-0.9557 Y1.6341  
G01 X-0.9582 Y1.6402  
G01 X-0.9595 Y1.6467  
G01 X-0.9595 Y1.6533  
G01 X-0.9582 Y1.6598  
G01 X-0.9557 Y1.6659  
G01 X-0.9520 Y1.6714  
G01 X-0.9474 Y1.6760  
G01 X-0.9419 Y1.6797  
G01 X-0.9358 Y1.6822  
G01 X-0.9293 Y1.6835  
G01 X-0.8707 Y1.6835  
G01 X-0.8642 Y1.6822  
G01 X-0.8581 Y1.6797  
G01 X-0.8526 Y1.6760  
G01 X-0.8480 Y1.6714  
G01 X-0.8443 Y1.6659  
G01 X-0.8418 Y1.6598  
G01 X-0.8405 Y1.6533  
G01 X-0.8405 Y1.6467  
G01 X-0.8418 Y1.6402  
G01 X-0.8443 Y1.6341  
G01 X-0.8470 Y1.6302  
G01 X-0.8350 Y1.6183  
G01 X-0.8317 Y1.6150  
G01 X-0.7817 Y1.5650  
G01 X-0.7792 Y1.5611  
G01 X-0.7774 Y1.5569  
G01 X-0.7765 Y1.5523  
G01 X-0.7765 Y1.5097  
G01 X-0.7503 Y1.4835  
G01 X-0.7361 Y1.4835  
G01 X-0.7165 Y1.4639  
G01 X-0.7165 Y1.4361  
G01 X-0.7361 Y1.4165  
G01 X-0.7639 Y1.4165  
G00 Z0.0500  
G00 X-0.6348 Y1.4201  
G01 Z-0.0040 F10    
G01 X-0.6376 Y1.4287  F20    
G01 X-0.6390 Y1.4376  
G01 X-0.6390 Y1.4467  
G01 X-0.6376 Y1.4556  
G01 X-0.6348 Y1.4642  
G01 X-0.6307 Y1.4723  
G01 X-0.6254 Y1.4796  
G01 X-0.6190 Y1.4860  
G01 X-0.6116 Y1.4913  
G01 X-0.6036 Y1.4954  
G01 X-0.5950 Y1.4982  
G01 X-0.5860 Y1.4996  
G01 X-0.4770 Y1.4996  
G01 X-0.4680 Y1.4982  
G01 X-0.4594 Y1.4954  
G01 X-0.4514 Y1.4913  
G01 X-0.4440 Y1.4860  
G01 X-0.4376 Y1.4796  
G01 X-0.4323 Y1.4723  
G01 X-0.4282 Y1.4642  
G01 X-0.4254 Y1.4556  
G01 X-0.4240 Y1.4467  
G01 X-0.4240 Y1.4376  
G01 X-0.4254 Y1.4287  
G01 X-0.4282 Y1.4201  
G01 X-0.4323 Y1.4120  
G01 X-0.4376 Y1.4047  
G01 X-0.4440 Y1.3983  
G01 X-0.4514 Y1.3929  
G01 X-0.4594 Y1.3888  
G01 X-0.4680 Y1.3860  
G01 X-0.4770 Y1.3846  
G01 X-0.5860 Y1.3846  
G01 X-0.5950 Y1.3860  
G01 X-0.6036 Y1.3888  
G01 X-0.6116 Y1.3929  
G01 X-0.6190 Y1.3983  
G01 X-0.6254 Y1.4047  
G01 X-0.6307 Y1.4120  
G01 X-0.6348 Y1.4201  
G00 Z0.0500  
G00 X-0.6316 Y1.5408  
G01 Z-0.0040 F10    
G01 X-0.6402 Y1.5436  F20    
G01 X-0.6482 Y1.5477  
G01 X-0.6556 Y1.5530  
G01 X-0.6620 Y1.5594  
G01 X-0.6673 Y1.5667  
G01 X-0.6714 Y1.5748  
G01 X-0.6742 Y1.5834  
G01 X-0.6756 Y1.5923  
G01 X-0.6756 Y1.7014  
G01 X-0.6742 Y1.7103  
G01 X-0.6714 Y1.7189  
G01 X-0.6673 Y1.7270  
G01 X-0.6620 Y1.7343  
G01 X-0.6556 Y1.7407  
G01 X-0.6482 Y1.7460  
G01 X-0.6416 Y1.7494  
G01 X-0.6416 Y1.7584  
G01 X-0.7097 Y1.8265  
G01 X-0.7261 Y1.8265  
G01 X-0.7361 Y1.8165  
G01 X-0.7639 Y1.8165  
G01 X-0.7835 Y1.8361  
G01 X-0.7835 Y1.8639  
G01 X-0.7639 Y1.8835  
G01 X-0.7361 Y1.8835  
G01 X-0.7261 Y1.8735  
G01 X-0.6977 Y1.8735  
G01 X-0.6931 Y1.8726  
G01 X-0.6889 Y1.8708  
G01 X-0.6850 Y1.8683  
G01 X-0.6817 Y1.8650  
G01 X-0.5999 Y1.7831  
G01 X-0.5973 Y1.7792  
G01 X-0.5955 Y1.7750  
G01 X-0.5946 Y1.7704  
G01 X-0.5946 Y1.7494  
G01 X-0.5880 Y1.7460  
G01 X-0.5807 Y1.7407  
G01 X-0.5743 Y1.7343  
G01 X-0.5689 Y1.7270  
G01 X-0.5648 Y1.7189  
G01 X-0.5620 Y1.7103  
G01 X-0.5606 Y1.7014  
G01 X-0.5606 Y1.5923  
G01 X-0.5620 Y1.5834  
G01 X-0.5648 Y1.5748  
G01 X-0.5689 Y1.5667  
G01 X-0.5743 Y1.5594  
G01 X-0.5807 Y1.5530  
G01 X-0.5880 Y1.5477  
G01 X-0.5960 Y1.5436  
G01 X-0.6046 Y1.5408  
G01 X-0.6136 Y1.5394  
G01 X-0.6226 Y1.5394  
G01 X-0.6316 Y1.5408  
G00 Z0.0500  
G00 X-1.0535 Y1.5405  
G01 Z-0.0040 F10    
G01 X-1.0542 Y1.5389  F20    
G01 X-1.0545 Y1.5384  
G01 X-1.0548 Y1.5378  
G01 X-1.0558 Y1.5365  
G01 X-1.0567 Y1.5350  
G01 X-1.0572 Y1.5346  
G01 X-1.0575 Y1.5341  
G01 X-1.0588 Y1.5330  
G01 X-1.0600 Y1.5317  
G01 X-1.0605 Y1.5314  
G01 X-1.0609 Y1.5310  
G01 X-1.0624 Y1.5301  
G01 X-1.0639 Y1.5292  
G01 X-1.0644 Y1.5289  
G01 X-1.0649 Y1.5286  
G01 X-1.0665 Y1.5281  
G01 X-1.0681 Y1.5274  
G01 X-1.0687 Y1.5273  
G01 X-1.0693 Y1.5271  
G01 X-1.0710 Y1.5268  
G01 X-1.0727 Y1.5265  
G01 X-1.0733 Y1.5265  
G01 X-1.0739 Y1.5264  
G01 X-1.0756 Y1.5265  
G01 X-1.1501 Y1.5265  
G01 X-1.1526 Y1.5240  
G01 X-1.1581 Y1.5203  
G01 X-1.1642 Y1.5178  
G01 X-1.1707 Y1.5165  
G01 X-1.2293 Y1.5165  
G01 X-1.2358 Y1.5178  
G01 X-1.2419 Y1.5203  
G01 X-1.2474 Y1.5240  
G01 X-1.2520 Y1.5286  
G01 X-1.2557 Y1.5341  
G01 X-1.2582 Y1.5402  
G01 X-1.2595 Y1.5467  
G01 X-1.2595 Y1.5533  
G01 X-1.2582 Y1.5598  
G01 X-1.2557 Y1.5659  
G01 X-1.2520 Y1.5714  
G01 X-1.2474 Y1.5760  
G01 X-1.2419 Y1.5797  
G01 X-1.2358 Y1.5822  
G01 X-1.2293 Y1.5835  
G01 X-1.1707 Y1.5835  
G01 X-1.1642 Y1.5822  
G01 X-1.1581 Y1.5797  
G01 X-1.1526 Y1.5760  
G01 X-1.1501 Y1.5735  
G01 X-1.0974 Y1.5735  
G01 X-1.0747 Y2.0273  
G01 X-1.0835 Y2.0361  
G01 X-1.0835 Y2.0639  
G01 X-1.0639 Y2.0835  
G01 X-1.0361 Y2.0835  
G01 X-1.0165 Y2.0639  
G01 X-1.0165 Y2.0497  
G01 X-1.0104 Y2.0437  
G01 X-0.9102 Y1.9835  
G01 X-0.8861 Y1.9835  
G01 X-0.8665 Y1.9639  
G01 X-0.8665 Y1.9361  
G01 X-0.8861 Y1.9165  
G01 X-0.9139 Y1.9165  
G01 X-0.9335 Y1.9361  
G01 X-0.9335 Y1.9427  
G01 X-1.0290 Y2.0000  
G01 X-1.0515 Y1.5494  
G01 X-1.0515 Y1.5477  
G01 X-1.0516 Y1.5471  
G01 X-1.0516 Y1.5465  
G01 X-1.0521 Y1.5448  
G01 X-1.0524 Y1.5431  
G01 X-1.0526 Y1.5426  
G01 X-1.0528 Y1.5420  
G01 X-1.0535 Y1.5405  
G00 Z0.0500  
G00 X-1.1480 Y1.6286  
G01 Z-0.0040 F10    
G01 X-1.1526 Y1.6240  F20    
G01 X-1.1581 Y1.6203  
G01 X-1.1642 Y1.6178  
G01 X-1.1707 Y1.6165  
G01 X-1.2293 Y1.6165  
G01 X-1.2358 Y1.6178  
G01 X-1.2419 Y1.6203  
G01 X-1.2474 Y1.6240  
G01 X-1.2520 Y1.6286  
G01 X-1.2557 Y1.6341  
G01 X-1.2582 Y1.6402  
G01 X-1.2595 Y1.6467  
G01 X-1.2595 Y1.6533  
G01 X-1.2582 Y1.6598  
G01 X-1.2557 Y1.6659  
G01 X-1.2520 Y1.6714  
G01 X-1.2474 Y1.6760  
G01 X-1.2419 Y1.6797  
G01 X-1.2358 Y1.6822  
G01 X-1.2293 Y1.6835  
G01 X-1.2059 Y1.6835  
G01 X-1.1735 Y1.7321  
G01 X-1.1735 Y2.0261  
G01 X-1.1835 Y2.0361  
G01 X-1.1835 Y2.0639  
G01 X-1.1639 Y2.0835  
G01 X-1.1361 Y2.0835  
G01 X-1.1165 Y2.0639  
G01 X-1.1165 Y2.0361  
G01 X-1.1265 Y2.0261  
G01 X-1.1265 Y1.7250  
G01 X-1.1265 Y1.7227  
G01 X-1.1269 Y1.7204  
G01 X-1.1274 Y1.7182  
G01 X-1.1283 Y1.7160  
G01 X-1.1292 Y1.7139  
G01 X-1.1304 Y1.7120  
G01 X-1.1539 Y1.6768  
G01 X-1.1526 Y1.6760  
G01 X-1.1480 Y1.6714  
G01 X-1.1443 Y1.6659  
G01 X-1.1418 Y1.6598  
G01 X-1.1405 Y1.6533  
G01 X-1.1405 Y1.6467  
G01 X-1.1418 Y1.6402  
G01 X-1.1443 Y1.6341  
G01 X-1.1480 Y1.6286  
G00 Z0.0500  
G00 X-0.7889 Y1.9165  
G01 Z-0.0040 F10    
G01 X-0.8085 Y1.9361  F20    
G01 X-0.8085 Y1.9639  
G01 X-0.7889 Y1.9835  
G01 X-0.7747 Y1.9835  
G01 X-0.7735 Y1.9847  
G01 X-0.7735 Y2.2023  
G01 X-0.7726 Y2.2069  
G01 X-0.7708 Y2.2111  
G01 X-0.7683 Y2.2150  
G01 X-0.7650 Y2.2183  
G01 X-0.6670 Y2.3163  
G01 X-0.6673 Y2.3167  
G01 X-0.6714 Y2.3248  
G01 X-0.6742 Y2.3334  
G01 X-0.6756 Y2.3423  
G01 X-0.6756 Y2.4514  
G01 X-0.6742 Y2.4603  
G01 X-0.6714 Y2.4689  
G01 X-0.6673 Y2.4770  
G01 X-0.6620 Y2.4843  
G01 X-0.6556 Y2.4907  
G01 X-0.6482 Y2.4960  
G01 X-0.6402 Y2.5001  
G01 X-0.6316 Y2.5029  
G01 X-0.6226 Y2.5044  
G01 X-0.6136 Y2.5044  
G01 X-0.6046 Y2.5029  
G01 X-0.5960 Y2.5001  
G01 X-0.5880 Y2.4960  
G01 X-0.5807 Y2.4907  
G01 X-0.5743 Y2.4843  
G01 X-0.5689 Y2.4770  
G01 X-0.5648 Y2.4689  
G01 X-0.5620 Y2.4603  
G01 X-0.5606 Y2.4514  
G01 X-0.5606 Y2.3423  
G01 X-0.5620 Y2.3334  
G01 X-0.5648 Y2.3248  
G01 X-0.5689 Y2.3167  
G01 X-0.5743 Y2.3094  
G01 X-0.5807 Y2.3030  
G01 X-0.5880 Y2.2977  
G01 X-0.5960 Y2.2936  
G01 X-0.6046 Y2.2908  
G01 X-0.6136 Y2.2894  
G01 X-0.6226 Y2.2894  
G01 X-0.6268 Y2.2900  
G01 X-0.7265 Y2.1903  
G01 X-0.7265 Y1.9727  
G01 X-0.7274 Y1.9681  
G01 X-0.7292 Y1.9639  
G01 X-0.7317 Y1.9600  
G01 X-0.7415 Y1.9503  
G01 X-0.7415 Y1.9361  
G01 X-0.7611 Y1.9165  
G01 X-0.7889 Y1.9165  
G00 Z0.0500  
G00 X-0.6254 Y0.9296  
G01 Z-0.0040 F10    
G01 X-0.6190 Y0.9360  F20    
G01 X-0.6116 Y0.9413  
G01 X-0.6036 Y0.9454  
G01 X-0.5950 Y0.9482  
G01 X-0.5860 Y0.9496  
G01 X-0.4770 Y0.9496  
G01 X-0.4680 Y0.9482  
G01 X-0.4594 Y0.9454  
G01 X-0.4514 Y0.9413  
G01 X-0.4440 Y0.9360  
G01 X-0.4376 Y0.9296  
G01 X-0.4323 Y0.9223  
G01 X-0.4282 Y0.9142  
G01 X-0.4254 Y0.9056  
G01 X-0.4240 Y0.8967  
G01 X-0.4240 Y0.8876  
G01 X-0.4254 Y0.8787  
G01 X-0.4282 Y0.8701  
G01 X-0.4323 Y0.8620  
G01 X-0.4376 Y0.8547  
G01 X-0.4440 Y0.8483  
G01 X-0.4514 Y0.8429  
G01 X-0.4594 Y0.8388  
G01 X-0.4680 Y0.8360  
G01 X-0.4770 Y0.8346  
G01 X-0.5860 Y0.8346  
G01 X-0.5950 Y0.8360  
G01 X-0.6036 Y0.8388  
G01 X-0.6116 Y0.8429  
G01 X-0.6190 Y0.8483  
G01 X-0.6254 Y0.8547  
G01 X-0.6307 Y0.8620  
G01 X-0.6348 Y0.8701  
G01 X-0.6376 Y0.8787  
G01 X-0.6390 Y0.8876  
G01 X-0.6390 Y0.8967  
G01 X-0.6376 Y0.9056  
G01 X-0.6348 Y0.9142  
G01 X-0.6307 Y0.9223  
G01 X-0.6254 Y0.9296  
G00 Z0.0500  
G00 X-0.2040 Y0.0309  
G01 Z-0.0040 F10    
G01 X-0.2309 Y0.0040  F20    
G01 X-0.2691 Y0.0040  
G01 X-0.2960 Y0.0309  
G01 X-0.2960 Y0.0691  
G01 X-0.2691 Y0.0960  
G01 X-0.2309 Y0.0960  
G01 X-0.2040 Y0.0691  
G01 X-0.2040 Y0.0309  
G00 Z0.0500  
G00 X-0.2040 Y0.1309  
G01 Z-0.0040 F10    
G01 X-0.2309 Y0.1040  F20    
G01 X-0.2691 Y0.1040  
G01 X-0.2960 Y0.1309  
G01 X-0.2960 Y0.1691  
G01 X-0.2691 Y0.1960  
G01 X-0.2309 Y0.1960  
G01 X-0.2040 Y0.1691  
G01 X-0.2040 Y0.1309  
G00 Z0.0500  
G00 X-0.3040 Y0.1309  
G01 Z-0.0040 F10    
G01 X-0.3309 Y0.1040  F20    
G01 X-0.3691 Y0.1040  
G01 X-0.3960 Y0.1309  
G01 X-0.3960 Y0.1691  
G01 X-0.3691 Y0.1960  
G01 X-0.3309 Y0.1960  
G01 X-0.3040 Y0.1691  
G01 X-0.3040 Y0.1309  
G00 Z0.0500  
G00 X-0.3309 Y0.0960  
G01 Z-0.0040 F10    
G01 X-0.3040 Y0.0691  F20    
G01 X-0.3040 Y0.0309  
G01 X-0.3309 Y0.0040  
G01 X-0.3691 Y0.0040  
G01 X-0.3960 Y0.0309  
G01 X-0.3960 Y0.0691  
G01 X-0.3691 Y0.0960  
G01 X-0.3309 Y0.0960  
G00 Z0.0500  
G00 X-0.4309 Y0.0960  
G01 Z-0.0040 F10    
G01 X-0.4040 Y0.0691  F20    
G01 X-0.4040 Y0.0309  
G01 X-0.4309 Y0.0040  
G01 X-0.4691 Y0.0040  
G01 X-0.4960 Y0.0309  
G01 X-0.4960 Y0.0691  
G01 X-0.4691 Y0.0960  
G01 X-0.4309 Y0.0960  
G00 Z0.0500  
G00 X-0.4309 Y0.1040  
G01 Z-0.0040 F10    
G01 X-0.4691 Y0.1040  F20    
G01 X-0.4960 Y0.1309  
G01 X-0.4960 Y0.1691  
G01 X-0.4691 Y0.1960  
G01 X-0.4309 Y0.1960  
G01 X-0.4040 Y0.1691  
G01 X-0.4040 Y0.1309  
G01 X-0.4309 Y0.1040  
G00 Z0.0500  
G00 X-0.5040 Y0.1309  
G01 Z-0.0040 F10    
G01 X-0.5250 Y0.1099  F20    
G01 X-0.5250 Y0.0901  
G01 X-0.5040 Y0.0691  
G01 X-0.5040 Y0.0309  
G01 X-0.5309 Y0.0040  
G01 X-0.5691 Y0.0040  
G01 X-0.5960 Y0.0309  
G01 X-0.5960 Y0.0691  
G01 X-0.5750 Y0.0901  
G01 X-0.5750 Y0.1099  
G01 X-0.5960 Y0.1309  
G01 X-0.5960 Y0.1691  
G01 X-0.5940 Y0.1710  
G01 X-0.6186 Y0.2079  
G01 X-0.7395 Y0.3046  
G01 X-0.7403 Y0.3051  
G01 X-0.7414 Y0.3061  
G01 X-0.7425 Y0.3070  
G01 X-0.7432 Y0.3078  
G01 X-0.7439 Y0.3085  
G01 X-0.7448 Y0.3097  
G01 X-0.7457 Y0.3108  
G01 X-0.7462 Y0.3117  
G01 X-0.7468 Y0.3125  
G01 X-0.7474 Y0.3138  
G01 X-0.7481 Y0.3151  
G01 X-0.7484 Y0.3160  
G01 X-0.7488 Y0.3170  
G01 X-0.7491 Y0.3184  
G01 X-0.7496 Y0.3198  
G01 X-0.7497 Y0.3208  
G01 X-0.7499 Y0.3218  
G01 X-0.7500 Y0.3232  
G01 X-0.7501 Y0.3247  
G01 X-0.7500 Y0.3257  
G01 X-0.7503 Y0.3343  
G01 X-0.7512 Y0.3348  
G01 X-0.7572 Y0.3392  
G01 X-0.7624 Y0.3444  
G01 X-0.7668 Y0.3504  
G01 X-0.7701 Y0.3570  
G01 X-0.7724 Y0.3640  
G01 X-0.7736 Y0.3713  
G01 X-0.7736 Y0.3787  
G01 X-0.7724 Y0.3860  
G01 X-0.7701 Y0.3930  
G01 X-0.7668 Y0.3996  
G01 X-0.7624 Y0.4056  
G01 X-0.7572 Y0.4108  
G01 X-0.7512 Y0.4152  
G01 X-0.7446 Y0.4186  
G01 X-0.7376 Y0.4208  
G01 X-0.7303 Y0.4220  
G01 X-0.7229 Y0.4220  
G01 X-0.7156 Y0.4208  
G01 X-0.7085 Y0.4186  
G01 X-0.7019 Y0.4152  
G01 X-0.6960 Y0.4108  
G01 X-0.6907 Y0.4056  
G01 X-0.6864 Y0.3996  
G01 X-0.6830 Y0.3930  
G01 X-0.6807 Y0.3860  
G01 X-0.6796 Y0.3787  
G01 X-0.6796 Y0.3713  
G01 X-0.6807 Y0.3640  
G01 X-0.6830 Y0.3570  
G01 X-0.6864 Y0.3504  
G01 X-0.6907 Y0.3444  
G01 X-0.6960 Y0.3392  
G01 X-0.6995 Y0.3366  
G01 X-0.5852 Y0.2452  
G01 X-0.5840 Y0.2444  
G01 X-0.5833 Y0.2436  
G01 X-0.5825 Y0.2430  
G01 X-0.5816 Y0.2419  
G01 X-0.5806 Y0.2409  
G01 X-0.5800 Y0.2400  
G01 X-0.5793 Y0.2392  
G01 X-0.5786 Y0.2380  
G01 X-0.5506 Y0.1960  
G01 X-0.5309 Y0.1960  
G01 X-0.5040 Y0.1691  
G01 X-0.5040 Y0.1309  
G00 Z0.0500  
G00 X-0.6040 Y0.1309  
G01 Z-0.0040 F10    
G01 X-0.6250 Y0.1099  F20    
G01 X-0.6250 Y0.0901  
G01 X-0.6040 Y0.0691  
G01 X-0.6040 Y0.0309  
G01 X-0.6309 Y0.0040  
G01 X-0.6691 Y0.0040  
G01 X-0.6901 Y0.0250  
G01 X-0.7099 Y0.0250  
G01 X-0.7309 Y0.0040  
G01 X-0.7691 Y0.0040  
G01 X-0.7901 Y0.0250  
G01 X-0.8099 Y0.0250  
G01 X-0.8309 Y0.0040  
G01 X-0.8691 Y0.0040  
G01 X-0.8960 Y0.0309  
G01 X-0.8960 Y0.0691  
G01 X-0.8691 Y0.0960  
G01 X-0.8309 Y0.0960  
G01 X-0.8099 Y0.0750  
G01 X-0.7901 Y0.0750  
G01 X-0.7691 Y0.0960  
G01 X-0.7309 Y0.0960  
G01 X-0.7099 Y0.0750  
G01 X-0.6901 Y0.0750  
G01 X-0.6750 Y0.0901  
G01 X-0.6750 Y0.1099  
G01 X-0.6901 Y0.1250  
G01 X-0.7099 Y0.1250  
G01 X-0.7309 Y0.1040  
G01 X-0.7691 Y0.1040  
G01 X-0.7901 Y0.1250  
G01 X-0.8099 Y0.1250  
G01 X-0.8309 Y0.1040  
G01 X-0.8691 Y0.1040  
G01 X-0.8960 Y0.1309  
G01 X-0.8960 Y0.1691  
G01 X-0.8750 Y0.1901  
G01 X-0.8750 Y0.2500  
G01 X-0.9775 Y0.2500  
G01 X-0.9823 Y0.2510  
G01 X-0.9868 Y0.2528  
G01 X-0.9909 Y0.2556  
G01 X-0.9944 Y0.2591  
G01 X-1.0444 Y0.3091  
G01 X-1.0472 Y0.3132  
G01 X-1.0490 Y0.3177  
G01 X-1.0500 Y0.3225  
G01 X-1.0500 Y0.3736  
G01 X-1.0713 Y0.5655  
G01 X-1.0758 Y0.5685  
G01 X-1.0815 Y0.5742  
G01 X-1.0859 Y0.5808  
G01 X-1.0889 Y0.5882  
G01 X-1.0905 Y0.5960  
G01 X-1.0905 Y0.6040  
G01 X-1.0889 Y0.6118  
G01 X-1.0859 Y0.6192  
G01 X-1.0815 Y0.6258  
G01 X-1.0758 Y0.6315  
G01 X-1.0750 Y0.6320  
G01 X-1.0750 Y0.7674  
G01 X-1.1567 Y0.8900  
G01 X-1.1645 Y0.8900  
G01 X-1.1850 Y0.9105  
G01 X-1.1850 Y0.9395  
G01 X-1.1645 Y0.9600  
G01 X-1.1355 Y0.9600  
G01 X-1.1150 Y0.9395  
G01 X-1.1150 Y0.9176  
G01 X-1.0292 Y0.7889  
G01 X-1.0278 Y0.7868  
G01 X-1.0269 Y0.7846  
G01 X-1.0260 Y0.7823  
G01 X-1.0255 Y0.7798  
G01 X-1.0250 Y0.7775  
G01 X-1.0250 Y0.7750  
G01 X-1.0250 Y0.6320  
G01 X-1.0242 Y0.6315  
G01 X-1.0185 Y0.6258  
G01 X-1.0141 Y0.6192  
G01 X-1.0111 Y0.6118  
G01 X-1.0095 Y0.6040  
G01 X-1.0095 Y0.5960  
G01 X-1.0111 Y0.5882  
G01 X-1.0141 Y0.5808  
G01 X-1.0185 Y0.5742  
G01 X-1.0216 Y0.5711  
G01 X-1.0003 Y0.3788  
G01 X-1.0000 Y0.3775  
G01 X-1.0000 Y0.3764  
G01 X-0.9999 Y0.3753  
G01 X-1.0000 Y0.3739  
G01 X-1.0000 Y0.3354  
G01 X-0.9646 Y0.3000  
G01 X-0.8604 Y0.3000  
G01 X-0.8500 Y0.3104  
G01 X-0.8500 Y0.5775  
G01 X-0.8490 Y0.5823  
G01 X-0.8472 Y0.5868  
G01 X-0.8444 Y0.5909  
G01 X-0.8409 Y0.5944  
G01 X-0.8405 Y0.5949  
G01 X-0.8405 Y0.6168  
G01 X-0.8321 Y0.6252  
G01 X-0.8742 Y0.7937  
G01 X-0.8748 Y0.7958  
G01 X-0.8748 Y0.7961  
G01 X-0.8749 Y0.7963  
G01 X-0.8750 Y0.7985  
G01 X-0.8751 Y0.8007  
G01 X-0.8751 Y0.8010  
G01 X-0.8751 Y0.8012  
G01 X-0.8748 Y0.8034  
G01 X-0.8745 Y0.8056  
G01 X-0.8744 Y0.8058  
G01 X-0.8744 Y0.8061  
G01 X-0.8736 Y0.8082  
G01 X-0.8729 Y0.8102  
G01 X-0.8728 Y0.8105  
G01 X-0.8727 Y0.8108  
G01 X-0.8716 Y0.8126  
G01 X-0.8705 Y0.8145  
G01 X-0.8703 Y0.8147  
G01 X-0.8702 Y0.8150  
G01 X-0.8687 Y0.8166  
G01 X-0.8673 Y0.8182  
G01 X-0.8671 Y0.8184  
G01 X-0.8669 Y0.8186  
G01 X-0.8651 Y0.8199  
G01 X-0.8634 Y0.8213  
G01 X-0.8631 Y0.8214  
G01 X-0.8629 Y0.8216  
G01 X-0.8609 Y0.8225  
G01 X-0.8126 Y0.8467  
G01 X-0.8118 Y0.8472  
G01 X-0.8104 Y0.8478  
G01 X-0.8090 Y0.8485  
G01 X-0.8081 Y0.8487  
G01 X-0.8073 Y0.8490  
G01 X-0.8057 Y0.8493  
G01 X-0.8042 Y0.8498  
G01 X-0.8033 Y0.8498  
G01 X-0.8025 Y0.8500  
G01 X-0.8009 Y0.8500  
G01 X-0.7993 Y0.8501  
G01 X-0.7984 Y0.8500  
G01 X-0.7000 Y0.8500  
G01 X-0.6976 Y0.8500  
G01 X-0.6952 Y0.8495  
G01 X-0.6927 Y0.8490  
G01 X-0.6904 Y0.8481  
G01 X-0.6882 Y0.8472  
G01 X-0.6861 Y0.8458  
G01 X-0.6174 Y0.8000  
G01 X-0.4000 Y0.8000  
G01 X-0.4000 Y1.9685  
G01 X-0.4914 Y2.1331  
G01 X-0.5861 Y2.1331  
G01 X-0.5953 Y2.1346  
G01 X-0.6041 Y2.1374  
G01 X-0.6124 Y2.1417  
G01 X-0.6199 Y2.1471  
G01 X-0.6265 Y2.1537  
G01 X-0.6320 Y2.1612  
G01 X-0.6362 Y2.1695  
G01 X-0.6390 Y2.1783  
G01 X-0.6405 Y2.1875  
G01 X-0.6405 Y2.1968  
G01 X-0.6390 Y2.2059  
G01 X-0.6362 Y2.2148  
G01 X-0.6320 Y2.2230  
G01 X-0.6265 Y2.2306  
G01 X-0.6199 Y2.2371  
G01 X-0.6124 Y2.2426  
G01 X-0.6041 Y2.2468  
G01 X-0.5953 Y2.2497  
G01 X-0.5861 Y2.2511  
G01 X-0.4769 Y2.2511  
G01 X-0.4677 Y2.2497  
G01 X-0.4588 Y2.2468  
G01 X-0.4506 Y2.2426  
G01 X-0.4431 Y2.2371  
G01 X-0.4365 Y2.2306  
G01 X-0.4310 Y2.2230  
G01 X-0.4280 Y2.2171  
G01 X-0.3135 Y2.2171  
G01 X-0.1574 Y2.3732  
G01 X-0.1574 Y2.4089  
G01 X-0.2155 Y2.5250  
G01 X-0.6827 Y2.5250  
G01 X-0.7421 Y2.3666  
G01 X-0.7400 Y2.3645  
G01 X-0.7400 Y2.3355  
G01 X-0.7605 Y2.3150  
G01 X-0.7895 Y2.3150  
G01 X-0.7995 Y2.3250  
G01 X-0.8755 Y2.3250  
G01 X-0.8855 Y2.3150  
G01 X-0.9145 Y2.3150  
G01 X-0.9245 Y2.3250  
G01 X-1.0845 Y2.3250  
G01 X-1.2250 Y2.0441  
G01 X-1.2250 Y1.9745  
G01 X-1.2150 Y1.9645  
G01 X-1.2150 Y1.9355  
G01 X-1.2355 Y1.9150  
G01 X-1.2645 Y1.9150  
G01 X-1.2850 Y1.9355  
G01 X-1.2850 Y1.9645  
G01 X-1.2750 Y1.9745  
G01 X-1.2750 Y2.0484  
G01 X-1.2751 Y2.0493  
G01 X-1.2750 Y2.0509  
G01 X-1.2750 Y2.0525  
G01 X-1.2748 Y2.0533  
G01 X-1.2748 Y2.0542  
G01 X-1.2743 Y2.0557  
G01 X-1.2740 Y2.0573  
G01 X-1.2737 Y2.0581  
G01 X-1.2735 Y2.0590  
G01 X-1.2728 Y2.0604  
G01 X-1.2722 Y2.0618  
G01 X-1.2717 Y2.0626  
G01 X-1.1228 Y2.3604  
G01 X-1.1222 Y2.3618  
G01 X-1.1217 Y2.3626  
G01 X-1.1213 Y2.3634  
G01 X-1.1203 Y2.3646  
G01 X-1.1194 Y2.3659  
G01 X-1.1188 Y2.3666  
G01 X-1.1182 Y2.3673  
G01 X-1.1171 Y2.3683  
G01 X-1.1159 Y2.3694  
G01 X-1.1152 Y2.3699  
G01 X-1.1145 Y2.3705  
G01 X-1.1132 Y2.3713  
G01 X-1.1118 Y2.3722  
G01 X-1.1110 Y2.3725  
G01 X-1.1102 Y2.3729  
G01 X-1.1087 Y2.3734  
G01 X-1.1073 Y2.3740  
G01 X-1.1064 Y2.3742  
G01 X-1.1056 Y2.3745  
G01 X-1.1040 Y2.3747  
G01 X-1.1025 Y2.3750  
G01 X-1.1016 Y2.3750  
G01 X-1.1007 Y2.3751  
G01 X-1.0991 Y2.3750  
G01 X-0.9245 Y2.3750  
G01 X-0.9145 Y2.3850  
G01 X-0.8855 Y2.3850  
G01 X-0.8755 Y2.3750  
