( Made using CamBam - http://www.cambam.co.uk )
( active_mult_panel 2/2/2016 12:38:09 AM )
( T3 : 3.175 )
G21 G90 G64 G40
G0 Z3.0
( T3 : 3.175 )
T3 M6
( holes )
G17
M3 S1000
G0 X7.1443 Y3.0817
G0 Z3.0
G0 X7.1568 Y3.0817
G1 F1000.0 Z0.0
G2 F2000.0 X7.138 Y3.0709 Z-0.0333 I-0.0125 J0.0
G2 Y3.0926 Z-0.0667 I0.0062 J0.0108
G2 X7.1568 Y3.0817 Z-0.1 I0.0063 J-0.0108
G2 X7.138 Y3.0709 Z-0.1333 I-0.0125 J0.0
G2 Y3.0926 Z-0.1667 I0.0062 J0.0108
G2 X7.1568 Y3.0817 Z-0.2 I0.0063 J-0.0108
G2 X7.138 Y3.0709 Z-0.2333 I-0.0125 J0.0
G2 Y3.0926 Z-0.2667 I0.0062 J0.0108
G2 X7.1568 Y3.0817 Z-0.3 I0.0063 J-0.0108
G2 X7.138 Y3.0709 Z-0.3333 I-0.0125 J0.0
G2 Y3.0926 Z-0.3667 I0.0063 J0.0108
G2 X7.1568 Y3.0817 Z-0.4 I0.0062 J-0.0108
G2 X7.138 Y3.0709 Z-0.4333 I-0.0125 J0.0
G2 Y3.0926 Z-0.4667 I0.0063 J0.0108
G2 X7.1568 Y3.0817 Z-0.5 I0.0062 J-0.0108
G2 X7.138 Y3.0709 Z-0.5333 I-0.0125 J0.0
G2 Y3.0926 Z-0.5667 I0.0063 J0.0108
G2 X7.1568 Y3.0817 Z-0.6 I0.0062 J-0.0108
G2 X7.138 Y3.0709 Z-0.6333 I-0.0125 J0.0
G2 Y3.0926 Z-0.6667 I0.0062 J0.0108
G2 X7.1568 Y3.0817 Z-0.7 I0.0063 J-0.0108
G2 X7.138 Y3.0709 Z-0.7333 I-0.0125 J0.0
G2 Y3.0926 Z-0.7667 I0.0062 J0.0108
G2 X7.1568 Y3.0817 Z-0.8 I0.0063 J-0.0108
G2 X7.138 Y3.0709 Z-0.8333 I-0.0125 J0.0
G2 Y3.0926 Z-0.8667 I0.0062 J0.0108
G2 X7.1568 Y3.0817 Z-0.9 I0.0063 J-0.0108
G2 X7.138 Y3.0709 Z-0.9333 I-0.0125 J0.0
G2 Y3.0926 Z-0.9667 I0.0062 J0.0108
G2 X7.1568 Y3.0817 Z-1.0 I0.0063 J-0.0108
G2 X7.138 Y3.0709 Z-1.0333 I-0.0125 J0.0
G2 Y3.0926 Z-1.0667 I0.0062 J0.0108
G2 X7.1568 Y3.0817 Z-1.1 I0.0063 J-0.0108
G2 X7.138 Y3.0709 Z-1.1333 I-0.0125 J0.0
G2 Y3.0926 Z-1.1667 I0.0062 J0.0108
G2 X7.1568 Y3.0817 Z-1.2 I0.0063 J-0.0108
G2 X7.138 Y3.0709 Z-1.2333 I-0.0125 J0.0
G2 Y3.0926 Z-1.2667 I0.0062 J0.0108
G2 X7.1568 Y3.0817 Z-1.3 I0.0063 J-0.0108
G2 X7.138 Y3.0709 Z-1.3333 I-0.0125 J0.0
G2 Y3.0926 Z-1.3667 I0.0062 J0.0108
G2 X7.1568 Y3.0817 Z-1.4 I0.0063 J-0.0108
G2 X7.138 Y3.0709 Z-1.4333 I-0.0125 J0.0
G2 Y3.0926 Z-1.4667 I0.0062 J0.0108
G2 X7.1568 Y3.0817 Z-1.5 I0.0063 J-0.0108
G2 X7.138 Y3.0709 Z-1.5333 I-0.0125 J0.0
G2 Y3.0926 Z-1.5667 I0.0062 J0.0108
G2 X7.1568 Y3.0817 Z-1.6 I0.0063 J-0.0108
G2 X7.138 Y3.0709 Z-1.6333 I-0.0125 J0.0
G2 Y3.0926 Z-1.6667 I0.0062 J0.0108
G2 X7.1568 Y3.0817 Z-1.7 I0.0063 J-0.0108
G2 X7.138 Y3.0709 Z-1.7333 I-0.0125 J0.0
G2 Y3.0926 Z-1.7667 I0.0062 J0.0108
G2 X7.1568 Y3.0817 Z-1.8 I0.0063 J-0.0108
G2 X7.138 Y3.0709 Z-1.8333 I-0.0125 J0.0
G2 Y3.0926 Z-1.8667 I0.0062 J0.0108
G2 X7.1568 Y3.0817 Z-1.9 I0.0063 J-0.0108
G2 X7.138 Y3.0709 Z-1.9333 I-0.0125 J0.0
G2 Y3.0926 Z-1.9667 I0.0062 J0.0108
G2 X7.1568 Y3.0817 Z-2.0 I0.0063 J-0.0108
G2 X7.138 Y3.0709 Z-2.0333 I-0.0125 J0.0
G2 Y3.0926 Z-2.0667 I0.0062 J0.0108
G2 X7.1568 Y3.0817 Z-2.1 I0.0063 J-0.0108
G2 X7.138 Y3.0709 Z-2.1333 I-0.0125 J0.0
G2 Y3.0926 Z-2.1667 I0.0062 J0.0108
G2 X7.1568 Y3.0817 Z-2.2 I0.0063 J-0.0108
G2 X7.138 Y3.0709 Z-2.2333 I-0.0125 J0.0
G2 Y3.0926 Z-2.2667 I0.0062 J0.0108
G2 X7.1568 Y3.0817 Z-2.3 I0.0063 J-0.0108
G2 X7.138 Y3.0709 Z-2.3333 I-0.0125 J0.0
G2 Y3.0926 Z-2.3667 I0.0063 J0.0108
G2 X7.1568 Y3.0817 Z-2.4 I0.0062 J-0.0108
G2 X7.138 Y3.0709 Z-2.4333 I-0.0125 J0.0
G2 Y3.0926 Z-2.4667 I0.0063 J0.0108
G2 X7.1568 Y3.0817 Z-2.5 I0.0062 J-0.0108
G2 X7.138 Y3.0709 Z-2.5333 I-0.0125 J0.0
G2 Y3.0926 Z-2.5667 I0.0063 J0.0108
G2 X7.1568 Y3.0817 Z-2.6 I0.0062 J-0.0108
G2 X7.138 Y3.0709 Z-2.6333 I-0.0125 J0.0
G2 Y3.0926 Z-2.6667 I0.0063 J0.0108
G2 X7.1568 Y3.0817 Z-2.7 I0.0062 J-0.0108
G2 X7.138 Y3.0709 Z-2.7333 I-0.0125 J0.0
G2 Y3.0926 Z-2.7667 I0.0063 J0.0108
G2 X7.1568 Y3.0817 Z-2.8 I0.0062 J-0.0108
G2 X7.138 Y3.0709 Z-2.8333 I-0.0125 J0.0
G2 Y3.0926 Z-2.8667 I0.0063 J0.0108
G2 X7.1568 Y3.0817 Z-2.9 I0.0062 J-0.0108
G2 X7.138 Y3.0709 Z-2.9333 I-0.0125 J0.0
G2 Y3.0926 Z-2.9667 I0.0063 J0.0108
G2 X7.1568 Y3.0817 Z-3.0 I0.0062 J-0.0108
G2 X7.138 Y3.0709 Z-3.0333 I-0.0125 J0.0
G2 Y3.0926 Z-3.0667 I0.0063 J0.0108
G2 X7.1568 Y3.0817 Z-3.1 I0.0062 J-0.0108
G2 X7.138 Y3.0709 Z-3.1333 I-0.0125 J0.0
G2 Y3.0926 Z-3.1667 I0.0063 J0.0108
G2 X7.1568 Y3.0817 Z-3.2 I0.0062 J-0.0108
G2 X7.138 Y3.0709 I-0.0125 J0.0
G2 Y3.0926 I0.0063 J0.0108
G2 X7.1568 Y3.0817 I0.0062 J-0.0108
G0 Z3.0
G0 X12.3754 Y34.4545
G1 F1000.0 Z0.0
G2 F2000.0 X12.3567 Y34.4437 Z-0.0333 I-0.0125 J0.0
G2 Y34.4654 Z-0.0667 I0.0063 J0.0108
G2 X12.3754 Y34.4545 Z-0.1 I0.0062 J-0.0108
G2 X12.3567 Y34.4437 Z-0.1333 I-0.0125 J0.0
G2 Y34.4654 Z-0.1667 I0.0063 J0.0108
G2 X12.3754 Y34.4545 Z-0.2 I0.0062 J-0.0108
G2 X12.3567 Y34.4437 Z-0.2333 I-0.0125 J0.0
G2 Y34.4654 Z-0.2667 I0.0063 J0.0108
G2 X12.3754 Y34.4545 Z-0.3 I0.0062 J-0.0108
G2 X12.3567 Y34.4437 Z-0.3333 I-0.0125 J0.0
G2 Y34.4654 Z-0.3667 I0.0063 J0.0108
G2 X12.3754 Y34.4545 Z-0.4 I0.0062 J-0.0108
G2 X12.3567 Y34.4437 Z-0.4333 I-0.0125 J0.0
G2 Y34.4654 Z-0.4667 I0.0063 J0.0108
G2 X12.3754 Y34.4545 Z-0.5 I0.0062 J-0.0108
G2 X12.3567 Y34.4437 Z-0.5333 I-0.0125 J0.0
G2 Y34.4654 Z-0.5667 I0.0063 J0.0108
G2 X12.3754 Y34.4545 Z-0.6 I0.0062 J-0.0108
G2 X12.3567 Y34.4437 Z-0.6333 I-0.0125 J0.0
G2 Y34.4654 Z-0.6667 I0.0063 J0.0108
G2 X12.3754 Y34.4545 Z-0.7 I0.0062 J-0.0108
G2 X12.3567 Y34.4437 Z-0.7333 I-0.0125 J0.0
G2 Y34.4654 Z-0.7667 I0.0063 J0.0108
G2 X12.3754 Y34.4545 Z-0.8 I0.0062 J-0.0108
G2 X12.3567 Y34.4437 Z-0.8333 I-0.0125 J0.0
G2 Y34.4654 Z-0.8667 I0.0063 J0.0108
G2 X12.3754 Y34.4545 Z-0.9 I0.0062 J-0.0108
G2 X12.3567 Y34.4437 Z-0.9333 I-0.0125 J0.0
G2 Y34.4654 Z-0.9667 I0.0063 J0.0108
G2 X12.3754 Y34.4545 Z-1.0 I0.0062 J-0.0108
G2 X12.3567 Y34.4437 Z-1.0333 I-0.0125 J0.0
G2 Y34.4654 Z-1.0667 I0.0063 J0.0108
G2 X12.3754 Y34.4545 Z-1.1 I0.0062 J-0.0108
G2 X12.3567 Y34.4437 Z-1.1333 I-0.0125 J0.0
G2 Y34.4654 Z-1.1667 I0.0063 J0.0108
G2 X12.3754 Y34.4545 Z-1.2 I0.0062 J-0.0108
G2 X12.3567 Y34.4437 Z-1.2333 I-0.0125 J0.0
G2 Y34.4654 Z-1.2667 I0.0063 J0.0108
G2 X12.3754 Y34.4545 Z-1.3 I0.0062 J-0.0108
G2 X12.3567 Y34.4437 Z-1.3333 I-0.0125 J0.0
G2 Y34.4654 Z-1.3667 I0.0063 J0.0108
G2 X12.3754 Y34.4545 Z-1.4 I0.0062 J-0.0108
G2 X12.3567 Y34.4437 Z-1.4333 I-0.0125 J0.0
G2 Y34.4654 Z-1.4667 I0.0063 J0.0108
G2 X12.3754 Y34.4545 Z-1.5 I0.0062 J-0.0108
G2 X12.3567 Y34.4437 Z-1.5333 I-0.0125 J0.0
G2 Y34.4654 Z-1.5667 I0.0063 J0.0108
G2 X12.3754 Y34.4545 Z-1.6 I0.0062 J-0.0108
G2 X12.3567 Y34.4437 Z-1.6333 I-0.0125 J0.0
G2 Y34.4654 Z-1.6667 I0.0063 J0.0108
G2 X12.3754 Y34.4545 Z-1.7 I0.0062 J-0.0108
G2 X12.3567 Y34.4437 Z-1.7333 I-0.0125 J0.0
G2 Y34.4654 Z-1.7667 I0.0063 J0.0108
G2 X12.3754 Y34.4545 Z-1.8 I0.0062 J-0.0108
G2 X12.3567 Y34.4437 Z-1.8333 I-0.0125 J0.0
G2 Y34.4654 Z-1.8667 I0.0063 J0.0108
G2 X12.3754 Y34.4545 Z-1.9 I0.0062 J-0.0108
G2 X12.3567 Y34.4437 Z-1.9333 I-0.0125 J0.0
G2 Y34.4654 Z-1.9667 I0.0063 J0.0108
G2 X12.3754 Y34.4545 Z-2.0 I0.0062 J-0.0108
G2 X12.3567 Y34.4437 Z-2.0333 I-0.0125 J0.0
G2 Y34.4654 Z-2.0667 I0.0063 J0.0108
G2 X12.3754 Y34.4545 Z-2.1 I0.0062 J-0.0108
G2 X12.3567 Y34.4437 Z-2.1333 I-0.0125 J0.0
G2 Y34.4654 Z-2.1667 I0.0063 J0.0108
G2 X12.3754 Y34.4545 Z-2.2 I0.0062 J-0.0108
G2 X12.3567 Y34.4437 Z-2.2333 I-0.0125 J0.0
G2 Y34.4654 Z-2.2667 I0.0063 J0.0108
G2 X12.3754 Y34.4545 Z-2.3 I0.0062 J-0.0108
G2 X12.3567 Y34.4437 Z-2.3333 I-0.0125 J0.0
G2 Y34.4654 Z-2.3667 I0.0063 J0.0108
G2 X12.3754 Y34.4545 Z-2.4 I0.0062 J-0.0108
G2 X12.3567 Y34.4437 Z-2.4333 I-0.0125 J0.0
G2 Y34.4654 Z-2.4667 I0.0063 J0.0108
G2 X12.3754 Y34.4545 Z-2.5 I0.0062 J-0.0108
G2 X12.3567 Y34.4437 Z-2.5333 I-0.0125 J0.0
G2 Y34.4654 Z-2.5667 I0.0063 J0.0108
G2 X12.3754 Y34.4545 Z-2.6 I0.0062 J-0.0108
G2 X12.3567 Y34.4437 Z-2.6333 I-0.0125 J0.0
G2 Y34.4654 Z-2.6667 I0.0063 J0.0108
G2 X12.3754 Y34.4545 Z-2.7 I0.0062 J-0.0108
G2 X12.3567 Y34.4437 Z-2.7333 I-0.0125 J0.0
G2 Y34.4654 Z-2.7667 I0.0063 J0.0108
G2 X12.3754 Y34.4545 Z-2.8 I0.0062 J-0.0108
G2 X12.3567 Y34.4437 Z-2.8333 I-0.0125 J0.0
G2 Y34.4654 Z-2.8667 I0.0063 J0.0108
G2 X12.3754 Y34.4545 Z-2.9 I0.0062 J-0.0108
G2 X12.3567 Y34.4437 Z-2.9333 I-0.0125 J0.0
G2 Y34.4654 Z-2.9667 I0.0063 J0.0108
G2 X12.3754 Y34.4545 Z-3.0 I0.0062 J-0.0108
G2 X12.3567 Y34.4437 Z-3.0333 I-0.0125 J0.0
G2 Y34.4654 Z-3.0667 I0.0063 J0.0108
G2 X12.3754 Y34.4545 Z-3.1 I0.0062 J-0.0108
G2 X12.3567 Y34.4437 Z-3.1333 I-0.0125 J0.0
G2 Y34.4654 Z-3.1667 I0.0063 J0.0108
G2 X12.3754 Y34.4545 Z-3.2 I0.0062 J-0.0108
G2 X12.3567 Y34.4437 I-0.0125 J0.0
G2 Y34.4654 I0.0063 J0.0108
G2 X12.3754 Y34.4545 I0.0062 J-0.0108
G0 Z3.0
G0 X12.3455 Y48.4847
G1 F1000.0 Z0.0
G2 F2000.0 X12.3267 Y48.4739 Z-0.0333 I-0.0125 J0.0
G2 Y48.4956 Z-0.0667 I0.0063 J0.0108
G2 X12.3455 Y48.4847 Z-0.1 I0.0062 J-0.0108
G2 X12.3267 Y48.4739 Z-0.1333 I-0.0125 J0.0
G2 Y48.4956 Z-0.1667 I0.0063 J0.0108
G2 X12.3455 Y48.4847 Z-0.2 I0.0062 J-0.0108
G2 X12.3267 Y48.4739 Z-0.2333 I-0.0125 J0.0
G2 Y48.4956 Z-0.2667 I0.0063 J0.0108
G2 X12.3455 Y48.4847 Z-0.3 I0.0062 J-0.0108
G2 X12.3267 Y48.4739 Z-0.3333 I-0.0125 J0.0
G2 Y48.4956 Z-0.3667 I0.0063 J0.0108
G2 X12.3455 Y48.4847 Z-0.4 I0.0062 J-0.0108
G2 X12.3267 Y48.4739 Z-0.4333 I-0.0125 J0.0
G2 Y48.4956 Z-0.4667 I0.0063 J0.0108
G2 X12.3455 Y48.4847 Z-0.5 I0.0062 J-0.0108
G2 X12.3267 Y48.4739 Z-0.5333 I-0.0125 J0.0
G2 Y48.4956 Z-0.5667 I0.0063 J0.0108
G2 X12.3455 Y48.4847 Z-0.6 I0.0062 J-0.0108
G2 X12.3267 Y48.4739 Z-0.6333 I-0.0125 J0.0
G2 Y48.4956 Z-0.6667 I0.0063 J0.0108
G2 X12.3455 Y48.4847 Z-0.7 I0.0062 J-0.0108
G2 X12.3267 Y48.4739 Z-0.7333 I-0.0125 J0.0
G2 Y48.4956 Z-0.7667 I0.0063 J0.0108
G2 X12.3455 Y48.4847 Z-0.8 I0.0062 J-0.0108
G2 X12.3267 Y48.4739 Z-0.8333 I-0.0125 J0.0
G2 Y48.4956 Z-0.8667 I0.0063 J0.0108
G2 X12.3455 Y48.4847 Z-0.9 I0.0062 J-0.0108
G2 X12.3267 Y48.4739 Z-0.9333 I-0.0125 J0.0
G2 Y48.4956 Z-0.9667 I0.0063 J0.0108
G2 X12.3455 Y48.4847 Z-1.0 I0.0062 J-0.0108
G2 X12.3267 Y48.4739 Z-1.0333 I-0.0125 J0.0
G2 Y48.4956 Z-1.0667 I0.0063 J0.0108
G2 X12.3455 Y48.4847 Z-1.1 I0.0062 J-0.0108
G2 X12.3267 Y48.4739 Z-1.1333 I-0.0125 J0.0
G2 Y48.4956 Z-1.1667 I0.0063 J0.0108
G2 X12.3455 Y48.4847 Z-1.2 I0.0062 J-0.0108
G2 X12.3267 Y48.4739 Z-1.2333 I-0.0125 J0.0
G2 Y48.4956 Z-1.2667 I0.0063 J0.0108
G2 X12.3455 Y48.4847 Z-1.3 I0.0062 J-0.0108
G2 X12.3267 Y48.4739 Z-1.3333 I-0.0125 J0.0
G2 Y48.4956 Z-1.3667 I0.0063 J0.0108
G2 X12.3455 Y48.4847 Z-1.4 I0.0062 J-0.0108
G2 X12.3267 Y48.4739 Z-1.4333 I-0.0125 J0.0
G2 Y48.4956 Z-1.4667 I0.0063 J0.0108
G2 X12.3455 Y48.4847 Z-1.5 I0.0062 J-0.0108
G2 X12.3267 Y48.4739 Z-1.5333 I-0.0125 J0.0
G2 Y48.4956 Z-1.5667 I0.0063 J0.0108
G2 X12.3455 Y48.4847 Z-1.6 I0.0062 J-0.0108
G2 X12.3267 Y48.4739 Z-1.6333 I-0.0125 J0.0
G2 Y48.4956 Z-1.6667 I0.0063 J0.0108
G2 X12.3455 Y48.4847 Z-1.7 I0.0062 J-0.0108
G2 X12.3267 Y48.4739 Z-1.7333 I-0.0125 J0.0
G2 Y48.4956 Z-1.7667 I0.0063 J0.0108
G2 X12.3455 Y48.4847 Z-1.8 I0.0062 J-0.0108
G2 X12.3267 Y48.4739 Z-1.8333 I-0.0125 J0.0
G2 Y48.4956 Z-1.8667 I0.0063 J0.0108
G2 X12.3455 Y48.4847 Z-1.9 I0.0062 J-0.0108
G2 X12.3267 Y48.4739 Z-1.9333 I-0.0125 J0.0
G2 Y48.4956 Z-1.9667 I0.0063 J0.0108
G2 X12.3455 Y48.4847 Z-2.0 I0.0062 J-0.0108
G2 X12.3267 Y48.4739 Z-2.0333 I-0.0125 J0.0
G2 Y48.4956 Z-2.0667 I0.0063 J0.0108
G2 X12.3455 Y48.4847 Z-2.1 I0.0062 J-0.0108
G2 X12.3267 Y48.4739 Z-2.1333 I-0.0125 J0.0
G2 Y48.4956 Z-2.1667 I0.0063 J0.0108
G2 X12.3455 Y48.4847 Z-2.2 I0.0062 J-0.0108
G2 X12.3267 Y48.4739 Z-2.2333 I-0.0125 J0.0
G2 Y48.4956 Z-2.2667 I0.0063 J0.0108
G2 X12.3455 Y48.4847 Z-2.3 I0.0062 J-0.0108
G2 X12.3267 Y48.4739 Z-2.3333 I-0.0125 J0.0
G2 Y48.4956 Z-2.3667 I0.0063 J0.0108
G2 X12.3455 Y48.4847 Z-2.4 I0.0062 J-0.0108
G2 X12.3267 Y48.4739 Z-2.4333 I-0.0125 J0.0
G2 Y48.4956 Z-2.4667 I0.0063 J0.0108
G2 X12.3455 Y48.4847 Z-2.5 I0.0062 J-0.0108
G2 X12.3267 Y48.4739 Z-2.5333 I-0.0125 J0.0
G2 Y48.4956 Z-2.5667 I0.0063 J0.0108
G2 X12.3455 Y48.4847 Z-2.6 I0.0062 J-0.0108
G2 X12.3267 Y48.4739 Z-2.6333 I-0.0125 J0.0
G2 Y48.4956 Z-2.6667 I0.0063 J0.0108
G2 X12.3455 Y48.4847 Z-2.7 I0.0062 J-0.0108
G2 X12.3267 Y48.4739 Z-2.7333 I-0.0125 J0.0
G2 Y48.4956 Z-2.7667 I0.0063 J0.0108
G2 X12.3455 Y48.4847 Z-2.8 I0.0062 J-0.0108
G2 X12.3267 Y48.4739 Z-2.8333 I-0.0125 J0.0
G2 Y48.4956 Z-2.8667 I0.0063 J0.0108
G2 X12.3455 Y48.4847 Z-2.9 I0.0062 J-0.0108
G2 X12.3267 Y48.4739 Z-2.9333 I-0.0125 J0.0
G2 Y48.4956 Z-2.9667 I0.0063 J0.0108
G2 X12.3455 Y48.4847 Z-3.0 I0.0062 J-0.0108
G2 X12.3267 Y48.4739 Z-3.0333 I-0.0125 J0.0
G2 Y48.4956 Z-3.0667 I0.0063 J0.0108
G2 X12.3455 Y48.4847 Z-3.1 I0.0062 J-0.0108
G2 X12.3267 Y48.4739 Z-3.1333 I-0.0125 J0.0
G2 Y48.4956 Z-3.1667 I0.0063 J0.0108
G2 X12.3455 Y48.4847 Z-3.2 I0.0062 J-0.0108
G2 X12.3267 Y48.4739 I-0.0125 J0.0
G2 Y48.4956 I0.0063 J0.0108
G2 X12.3455 Y48.4847 I0.0062 J-0.0108
G0 Z3.0
G0 X12.3263 Y62.4903
G1 F1000.0 Z0.0
G2 F2000.0 X12.3075 Y62.4795 Z-0.0333 I-0.0125 J0.0
G2 Y62.5011 Z-0.0667 I0.0063 J0.0108
G2 X12.3263 Y62.4903 Z-0.1 I0.0062 J-0.0108
G2 X12.3075 Y62.4795 Z-0.1333 I-0.0125 J0.0
G2 Y62.5011 Z-0.1667 I0.0063 J0.0108
G2 X12.3263 Y62.4903 Z-0.2 I0.0062 J-0.0108
G2 X12.3075 Y62.4795 Z-0.2333 I-0.0125 J0.0
G2 Y62.5011 Z-0.2667 I0.0063 J0.0108
G2 X12.3263 Y62.4903 Z-0.3 I0.0062 J-0.0108
G2 X12.3075 Y62.4795 Z-0.3333 I-0.0125 J0.0
G2 Y62.5011 Z-0.3667 I0.0063 J0.0108
G2 X12.3263 Y62.4903 Z-0.4 I0.0062 J-0.0108
G2 X12.3075 Y62.4795 Z-0.4333 I-0.0125 J0.0
G2 Y62.5011 Z-0.4667 I0.0063 J0.0108
G2 X12.3263 Y62.4903 Z-0.5 I0.0062 J-0.0108
G2 X12.3075 Y62.4795 Z-0.5333 I-0.0125 J0.0
G2 Y62.5011 Z-0.5667 I0.0063 J0.0108
G2 X12.3263 Y62.4903 Z-0.6 I0.0062 J-0.0108
G2 X12.3075 Y62.4795 Z-0.6333 I-0.0125 J0.0
G2 Y62.5011 Z-0.6667 I0.0063 J0.0108
G2 X12.3263 Y62.4903 Z-0.7 I0.0062 J-0.0108
G2 X12.3075 Y62.4795 Z-0.7333 I-0.0125 J0.0
G2 Y62.5011 Z-0.7667 I0.0063 J0.0108
G2 X12.3263 Y62.4903 Z-0.8 I0.0062 J-0.0108
G2 X12.3075 Y62.4795 Z-0.8333 I-0.0125 J0.0
G2 Y62.5011 Z-0.8667 I0.0063 J0.0108
G2 X12.3263 Y62.4903 Z-0.9 I0.0062 J-0.0108
G2 X12.3075 Y62.4795 Z-0.9333 I-0.0125 J0.0
G2 Y62.5011 Z-0.9667 I0.0063 J0.0108
G2 X12.3263 Y62.4903 Z-1.0 I0.0062 J-0.0108
G2 X12.3075 Y62.4795 Z-1.0333 I-0.0125 J0.0
G2 Y62.5011 Z-1.0667 I0.0063 J0.0108
G2 X12.3263 Y62.4903 Z-1.1 I0.0062 J-0.0108
G2 X12.3075 Y62.4795 Z-1.1333 I-0.0125 J0.0
G2 Y62.5011 Z-1.1667 I0.0063 J0.0108
G2 X12.3263 Y62.4903 Z-1.2 I0.0062 J-0.0108
G2 X12.3075 Y62.4795 Z-1.2333 I-0.0125 J0.0
G2 Y62.5011 Z-1.2667 I0.0063 J0.0108
G2 X12.3263 Y62.4903 Z-1.3 I0.0062 J-0.0108
G2 X12.3075 Y62.4795 Z-1.3333 I-0.0125 J0.0
G2 Y62.5011 Z-1.3667 I0.0063 J0.0108
G2 X12.3263 Y62.4903 Z-1.4 I0.0062 J-0.0108
G2 X12.3075 Y62.4795 Z-1.4333 I-0.0125 J0.0
G2 Y62.5011 Z-1.4667 I0.0063 J0.0108
G2 X12.3263 Y62.4903 Z-1.5 I0.0062 J-0.0108
G2 X12.3075 Y62.4795 Z-1.5333 I-0.0125 J0.0
G2 Y62.5011 Z-1.5667 I0.0063 J0.0108
G2 X12.3263 Y62.4903 Z-1.6 I0.0062 J-0.0108
G2 X12.3075 Y62.4795 Z-1.6333 I-0.0125 J0.0
G2 Y62.5011 Z-1.6667 I0.0063 J0.0108
G2 X12.3263 Y62.4903 Z-1.7 I0.0062 J-0.0108
G2 X12.3075 Y62.4795 Z-1.7333 I-0.0125 J0.0
G2 Y62.5011 Z-1.7667 I0.0063 J0.0108
G2 X12.3263 Y62.4903 Z-1.8 I0.0062 J-0.0108
G2 X12.3075 Y62.4795 Z-1.8333 I-0.0125 J0.0
G2 Y62.5011 Z-1.8667 I0.0063 J0.0108
G2 X12.3263 Y62.4903 Z-1.9 I0.0062 J-0.0108
G2 X12.3075 Y62.4795 Z-1.9333 I-0.0125 J0.0
G2 Y62.5011 Z-1.9667 I0.0063 J0.0108
G2 X12.3263 Y62.4903 Z-2.0 I0.0062 J-0.0108
G2 X12.3075 Y62.4795 Z-2.0333 I-0.0125 J0.0
G2 Y62.5011 Z-2.0667 I0.0063 J0.0108
G2 X12.3263 Y62.4903 Z-2.1 I0.0062 J-0.0108
G2 X12.3075 Y62.4795 Z-2.1333 I-0.0125 J0.0
G2 Y62.5011 Z-2.1667 I0.0063 J0.0108
G2 X12.3263 Y62.4903 Z-2.2 I0.0062 J-0.0108
G2 X12.3075 Y62.4795 Z-2.2333 I-0.0125 J0.0
G2 Y62.5011 Z-2.2667 I0.0063 J0.0108
G2 X12.3263 Y62.4903 Z-2.3 I0.0062 J-0.0108
G2 X12.3075 Y62.4795 Z-2.3333 I-0.0125 J0.0
G2 Y62.5011 Z-2.3667 I0.0063 J0.0108
G2 X12.3263 Y62.4903 Z-2.4 I0.0062 J-0.0108
G2 X12.3075 Y62.4795 Z-2.4333 I-0.0125 J0.0
G2 Y62.5011 Z-2.4667 I0.0063 J0.0108
G2 X12.3263 Y62.4903 Z-2.5 I0.0062 J-0.0108
G2 X12.3075 Y62.4795 Z-2.5333 I-0.0125 J0.0
G2 Y62.5011 Z-2.5667 I0.0063 J0.0108
G2 X12.3263 Y62.4903 Z-2.6 I0.0062 J-0.0108
G2 X12.3075 Y62.4795 Z-2.6333 I-0.0125 J0.0
G2 Y62.5011 Z-2.6667 I0.0063 J0.0108
G2 X12.3263 Y62.4903 Z-2.7 I0.0062 J-0.0108
G2 X12.3075 Y62.4795 Z-2.7333 I-0.0125 J0.0
G2 Y62.5011 Z-2.7667 I0.0063 J0.0108
G2 X12.3263 Y62.4903 Z-2.8 I0.0062 J-0.0108
G2 X12.3075 Y62.4795 Z-2.8333 I-0.0125 J0.0
G2 Y62.5011 Z-2.8667 I0.0063 J0.0108
G2 X12.3263 Y62.4903 Z-2.9 I0.0062 J-0.0108
G2 X12.3075 Y62.4795 Z-2.9333 I-0.0125 J0.0
G2 Y62.5011 Z-2.9667 I0.0063 J0.0108
G2 X12.3263 Y62.4903 Z-3.0 I0.0062 J-0.0108
G2 X12.3075 Y62.4795 Z-3.0333 I-0.0125 J0.0
G2 Y62.5011 Z-3.0667 I0.0063 J0.0108
G2 X12.3263 Y62.4903 Z-3.1 I0.0062 J-0.0108
G2 X12.3075 Y62.4795 Z-3.1333 I-0.0125 J0.0
G2 Y62.5011 Z-3.1667 I0.0063 J0.0108
G2 X12.3263 Y62.4903 Z-3.2 I0.0062 J-0.0108
G2 X12.3075 Y62.4795 I-0.0125 J0.0
G2 Y62.5011 I0.0063 J0.0108
G2 X12.3263 Y62.4903 I0.0062 J-0.0108
G0 Z3.0
G0 X12.3527 Y81.5746
G1 F1000.0 Z0.0
G2 F2000.0 X12.334 Y81.5638 Z-0.0333 I-0.0125 J0.0
G2 Y81.5854 Z-0.0667 I0.0062 J0.0108
G2 X12.3527 Y81.5746 Z-0.1 I0.0063 J-0.0108
G2 X12.334 Y81.5638 Z-0.1333 I-0.0125 J0.0
G2 Y81.5854 Z-0.1667 I0.0062 J0.0108
G2 X12.3527 Y81.5746 Z-0.2 I0.0063 J-0.0108
G2 X12.334 Y81.5638 Z-0.2333 I-0.0125 J0.0
G2 Y81.5854 Z-0.2667 I0.0062 J0.0108
G2 X12.3527 Y81.5746 Z-0.3 I0.0063 J-0.0108
G2 X12.334 Y81.5638 Z-0.3333 I-0.0125 J0.0
G2 Y81.5854 Z-0.3667 I0.0062 J0.0108
G2 X12.3527 Y81.5746 Z-0.4 I0.0063 J-0.0108
G2 X12.334 Y81.5638 Z-0.4333 I-0.0125 J0.0
G2 Y81.5854 Z-0.4667 I0.0062 J0.0108
G2 X12.3527 Y81.5746 Z-0.5 I0.0063 J-0.0108
G2 X12.334 Y81.5638 Z-0.5333 I-0.0125 J0.0
G2 Y81.5854 Z-0.5667 I0.0062 J0.0108
G2 X12.3527 Y81.5746 Z-0.6 I0.0063 J-0.0108
G2 X12.334 Y81.5638 Z-0.6333 I-0.0125 J0.0
G2 Y81.5854 Z-0.6667 I0.0062 J0.0108
G2 X12.3527 Y81.5746 Z-0.7 I0.0063 J-0.0108
G2 X12.334 Y81.5638 Z-0.7333 I-0.0125 J0.0
G2 Y81.5854 Z-0.7667 I0.0062 J0.0108
G2 X12.3527 Y81.5746 Z-0.8 I0.0063 J-0.0108
G2 X12.334 Y81.5638 Z-0.8333 I-0.0125 J0.0
G2 Y81.5854 Z-0.8667 I0.0062 J0.0108
G2 X12.3527 Y81.5746 Z-0.9 I0.0063 J-0.0108
G2 X12.334 Y81.5638 Z-0.9333 I-0.0125 J0.0
G2 Y81.5854 Z-0.9667 I0.0062 J0.0108
G2 X12.3527 Y81.5746 Z-1.0 I0.0063 J-0.0108
G2 X12.334 Y81.5638 Z-1.0333 I-0.0125 J0.0
G2 Y81.5854 Z-1.0667 I0.0062 J0.0108
G2 X12.3527 Y81.5746 Z-1.1 I0.0063 J-0.0108
G2 X12.334 Y81.5638 Z-1.1333 I-0.0125 J0.0
G2 Y81.5854 Z-1.1667 I0.0062 J0.0108
G2 X12.3527 Y81.5746 Z-1.2 I0.0063 J-0.0108
G2 X12.334 Y81.5638 Z-1.2333 I-0.0125 J0.0
G2 Y81.5854 Z-1.2667 I0.0062 J0.0108
G2 X12.3527 Y81.5746 Z-1.3 I0.0063 J-0.0108
G2 X12.334 Y81.5638 Z-1.3333 I-0.0125 J0.0
G2 Y81.5854 Z-1.3667 I0.0062 J0.0108
G2 X12.3527 Y81.5746 Z-1.4 I0.0063 J-0.0108
G2 X12.334 Y81.5638 Z-1.4333 I-0.0125 J0.0
G2 Y81.5854 Z-1.4667 I0.0062 J0.0108
G2 X12.3527 Y81.5746 Z-1.5 I0.0063 J-0.0108
G2 X12.334 Y81.5638 Z-1.5333 I-0.0125 J0.0
G2 Y81.5854 Z-1.5667 I0.0062 J0.0108
G2 X12.3527 Y81.5746 Z-1.6 I0.0063 J-0.0108
G2 X12.334 Y81.5638 Z-1.6333 I-0.0125 J0.0
G2 Y81.5854 Z-1.6667 I0.0062 J0.0108
G2 X12.3527 Y81.5746 Z-1.7 I0.0063 J-0.0108
G2 X12.334 Y81.5638 Z-1.7333 I-0.0125 J0.0
G2 Y81.5854 Z-1.7667 I0.0062 J0.0108
G2 X12.3527 Y81.5746 Z-1.8 I0.0063 J-0.0108
G2 X12.334 Y81.5638 Z-1.8333 I-0.0125 J0.0
G2 Y81.5854 Z-1.8667 I0.0062 J0.0108
G2 X12.3527 Y81.5746 Z-1.9 I0.0063 J-0.0108
G2 X12.334 Y81.5638 Z-1.9333 I-0.0125 J0.0
G2 Y81.5854 Z-1.9667 I0.0062 J0.0108
G2 X12.3527 Y81.5746 Z-2.0 I0.0063 J-0.0108
G2 X12.334 Y81.5638 Z-2.0333 I-0.0125 J0.0
G2 Y81.5854 Z-2.0667 I0.0062 J0.0108
G2 X12.3527 Y81.5746 Z-2.1 I0.0063 J-0.0108
G2 X12.334 Y81.5638 Z-2.1333 I-0.0125 J0.0
G2 Y81.5854 Z-2.1667 I0.0062 J0.0108
G2 X12.3527 Y81.5746 Z-2.2 I0.0063 J-0.0108
G2 X12.334 Y81.5638 Z-2.2333 I-0.0125 J0.0
G2 Y81.5854 Z-2.2667 I0.0062 J0.0108
G2 X12.3527 Y81.5746 Z-2.3 I0.0063 J-0.0108
G2 X12.334 Y81.5638 Z-2.3333 I-0.0125 J0.0
G2 Y81.5854 Z-2.3667 I0.0062 J0.0108
G2 X12.3527 Y81.5746 Z-2.4 I0.0063 J-0.0108
G2 X12.334 Y81.5638 Z-2.4333 I-0.0125 J0.0
G2 Y81.5854 Z-2.4667 I0.0062 J0.0108
G2 X12.3527 Y81.5746 Z-2.5 I0.0063 J-0.0108
G2 X12.334 Y81.5638 Z-2.5333 I-0.0125 J0.0
G2 Y81.5854 Z-2.5667 I0.0062 J0.0108
G2 X12.3527 Y81.5746 Z-2.6 I0.0063 J-0.0108
G2 X12.334 Y81.5638 Z-2.6333 I-0.0125 J0.0
G2 Y81.5854 Z-2.6667 I0.0062 J0.0108
G2 X12.3527 Y81.5746 Z-2.7 I0.0063 J-0.0108
G2 X12.334 Y81.5638 Z-2.7333 I-0.0125 J0.0
G2 Y81.5854 Z-2.7667 I0.0062 J0.0108
G2 X12.3527 Y81.5746 Z-2.8 I0.0063 J-0.0108
G2 X12.334 Y81.5638 Z-2.8333 I-0.0125 J0.0
G2 Y81.5854 Z-2.8667 I0.0062 J0.0108
G2 X12.3527 Y81.5746 Z-2.9 I0.0063 J-0.0108
G2 X12.334 Y81.5638 Z-2.9333 I-0.0125 J0.0
G2 Y81.5854 Z-2.9667 I0.0062 J0.0108
G2 X12.3527 Y81.5746 Z-3.0 I0.0063 J-0.0108
G2 X12.334 Y81.5638 Z-3.0333 I-0.0125 J0.0
G2 Y81.5854 Z-3.0667 I0.0062 J0.0108
G2 X12.3527 Y81.5746 Z-3.1 I0.0063 J-0.0108
G2 X12.334 Y81.5638 Z-3.1333 I-0.0125 J0.0
G2 Y81.5854 Z-3.1667 I0.0063 J0.0108
G2 X12.3527 Y81.5746 Z-3.2 I0.0062 J-0.0108
G2 X12.334 Y81.5638 I-0.0125 J0.0
G2 Y81.5854 I0.0063 J0.0108
G2 X12.3527 Y81.5746 I0.0062 J-0.0108
G0 Z3.0
G0 Y101.2384
G1 F1000.0 Z0.0
G2 F2000.0 X12.334 Y101.2276 Z-0.0333 I-0.0125 J0.0
G2 Y101.2492 Z-0.0667 I0.0062 J0.0108
G2 X12.3527 Y101.2384 Z-0.1 I0.0063 J-0.0108
G2 X12.334 Y101.2276 Z-0.1333 I-0.0125 J0.0
G2 Y101.2492 Z-0.1667 I0.0062 J0.0108
G2 X12.3527 Y101.2384 Z-0.2 I0.0063 J-0.0108
G2 X12.334 Y101.2276 Z-0.2333 I-0.0125 J0.0
G2 Y101.2492 Z-0.2667 I0.0062 J0.0108
G2 X12.3527 Y101.2384 Z-0.3 I0.0063 J-0.0108
G2 X12.334 Y101.2276 Z-0.3333 I-0.0125 J0.0
G2 Y101.2492 Z-0.3667 I0.0062 J0.0108
G2 X12.3527 Y101.2384 Z-0.4 I0.0063 J-0.0108
G2 X12.334 Y101.2276 Z-0.4333 I-0.0125 J0.0
G2 Y101.2492 Z-0.4667 I0.0062 J0.0108
G2 X12.3527 Y101.2384 Z-0.5 I0.0063 J-0.0108
G2 X12.334 Y101.2276 Z-0.5333 I-0.0125 J0.0
G2 Y101.2492 Z-0.5667 I0.0062 J0.0108
G2 X12.3527 Y101.2384 Z-0.6 I0.0063 J-0.0108
G2 X12.334 Y101.2276 Z-0.6333 I-0.0125 J0.0
G2 Y101.2492 Z-0.6667 I0.0062 J0.0108
G2 X12.3527 Y101.2384 Z-0.7 I0.0063 J-0.0108
G2 X12.334 Y101.2276 Z-0.7333 I-0.0125 J0.0
G2 Y101.2492 Z-0.7667 I0.0062 J0.0108
G2 X12.3527 Y101.2384 Z-0.8 I0.0063 J-0.0108
G2 X12.334 Y101.2276 Z-0.8333 I-0.0125 J0.0
G2 Y101.2492 Z-0.8667 I0.0062 J0.0108
G2 X12.3527 Y101.2384 Z-0.9 I0.0063 J-0.0108
G2 X12.334 Y101.2276 Z-0.9333 I-0.0125 J0.0
G2 Y101.2492 Z-0.9667 I0.0062 J0.0108
G2 X12.3527 Y101.2384 Z-1.0 I0.0063 J-0.0108
G2 X12.334 Y101.2276 Z-1.0333 I-0.0125 J0.0
G2 Y101.2492 Z-1.0667 I0.0062 J0.0108
G2 X12.3527 Y101.2384 Z-1.1 I0.0063 J-0.0108
G2 X12.334 Y101.2276 Z-1.1333 I-0.0125 J0.0
G2 Y101.2492 Z-1.1667 I0.0062 J0.0108
G2 X12.3527 Y101.2384 Z-1.2 I0.0063 J-0.0108
G2 X12.334 Y101.2276 Z-1.2333 I-0.0125 J0.0
G2 Y101.2492 Z-1.2667 I0.0062 J0.0108
G2 X12.3527 Y101.2384 Z-1.3 I0.0063 J-0.0108
G2 X12.334 Y101.2276 Z-1.3333 I-0.0125 J0.0
G2 Y101.2492 Z-1.3667 I0.0062 J0.0108
G2 X12.3527 Y101.2384 Z-1.4 I0.0063 J-0.0108
G2 X12.334 Y101.2276 Z-1.4333 I-0.0125 J0.0
G2 Y101.2492 Z-1.4667 I0.0062 J0.0108
G2 X12.3527 Y101.2384 Z-1.5 I0.0063 J-0.0108
G2 X12.334 Y101.2276 Z-1.5333 I-0.0125 J0.0
G2 Y101.2492 Z-1.5667 I0.0062 J0.0108
G2 X12.3527 Y101.2384 Z-1.6 I0.0063 J-0.0108
G2 X12.334 Y101.2276 Z-1.6333 I-0.0125 J0.0
G2 Y101.2492 Z-1.6667 I0.0062 J0.0108
G2 X12.3527 Y101.2384 Z-1.7 I0.0063 J-0.0108
G2 X12.334 Y101.2276 Z-1.7333 I-0.0125 J0.0
G2 Y101.2492 Z-1.7667 I0.0062 J0.0108
G2 X12.3527 Y101.2384 Z-1.8 I0.0063 J-0.0108
G2 X12.334 Y101.2276 Z-1.8333 I-0.0125 J0.0
G2 Y101.2492 Z-1.8667 I0.0062 J0.0108
G2 X12.3527 Y101.2384 Z-1.9 I0.0063 J-0.0108
G2 X12.334 Y101.2276 Z-1.9333 I-0.0125 J0.0
G2 Y101.2492 Z-1.9667 I0.0062 J0.0108
G2 X12.3527 Y101.2384 Z-2.0 I0.0063 J-0.0108
G2 X12.334 Y101.2276 Z-2.0333 I-0.0125 J0.0
G2 Y101.2492 Z-2.0667 I0.0062 J0.0108
G2 X12.3527 Y101.2384 Z-2.1 I0.0063 J-0.0108
G2 X12.334 Y101.2276 Z-2.1333 I-0.0125 J0.0
G2 Y101.2492 Z-2.1667 I0.0062 J0.0108
G2 X12.3527 Y101.2384 Z-2.2 I0.0063 J-0.0108
G2 X12.334 Y101.2276 Z-2.2333 I-0.0125 J0.0
G2 Y101.2492 Z-2.2667 I0.0062 J0.0108
G2 X12.3527 Y101.2384 Z-2.3 I0.0063 J-0.0108
G2 X12.334 Y101.2276 Z-2.3333 I-0.0125 J0.0
G2 Y101.2492 Z-2.3667 I0.0062 J0.0108
G2 X12.3527 Y101.2384 Z-2.4 I0.0063 J-0.0108
G2 X12.334 Y101.2276 Z-2.4333 I-0.0125 J0.0
G2 Y101.2492 Z-2.4667 I0.0062 J0.0108
G2 X12.3527 Y101.2384 Z-2.5 I0.0063 J-0.0108
G2 X12.334 Y101.2276 Z-2.5333 I-0.0125 J0.0
G2 Y101.2492 Z-2.5667 I0.0062 J0.0108
G2 X12.3527 Y101.2384 Z-2.6 I0.0063 J-0.0108
G2 X12.334 Y101.2276 Z-2.6333 I-0.0125 J0.0
G2 Y101.2492 Z-2.6667 I0.0062 J0.0108
G2 X12.3527 Y101.2384 Z-2.7 I0.0063 J-0.0108
G2 X12.334 Y101.2276 Z-2.7333 I-0.0125 J0.0
G2 Y101.2492 Z-2.7667 I0.0062 J0.0108
G2 X12.3527 Y101.2384 Z-2.8 I0.0063 J-0.0108
G2 X12.334 Y101.2276 Z-2.8333 I-0.0125 J0.0
G2 Y101.2492 Z-2.8667 I0.0062 J0.0108
G2 X12.3527 Y101.2384 Z-2.9 I0.0063 J-0.0108
G2 X12.334 Y101.2276 Z-2.9333 I-0.0125 J0.0
G2 Y101.2492 Z-2.9667 I0.0062 J0.0108
G2 X12.3527 Y101.2384 Z-3.0 I0.0063 J-0.0108
G2 X12.334 Y101.2276 Z-3.0333 I-0.0125 J0.0
G2 Y101.2492 Z-3.0667 I0.0062 J0.0108
G2 X12.3527 Y101.2384 Z-3.1 I0.0063 J-0.0108
G2 X12.334 Y101.2276 Z-3.1333 I-0.0125 J0.0
G2 Y101.2492 Z-3.1667 I0.0063 J0.0108
G2 X12.3527 Y101.2384 Z-3.2 I0.0062 J-0.0108
G2 X12.334 Y101.2276 I-0.0125 J0.0
G2 Y101.2492 I0.0063 J0.0108
G2 X12.3527 Y101.2384 I0.0062 J-0.0108
G0 Z3.0
G0 X18.3859 Y125.2883
G1 F1000.0 Z0.0
G2 F2000.0 X18.3672 Y125.2774 Z-0.0333 I-0.0125 J0.0
G2 Y125.2991 Z-0.0667 I0.0062 J0.0108
G2 X18.3859 Y125.2883 Z-0.1 I0.0063 J-0.0108
G2 X18.3672 Y125.2774 Z-0.1333 I-0.0125 J0.0
G2 Y125.2991 Z-0.1667 I0.0062 J0.0108
G2 X18.3859 Y125.2883 Z-0.2 I0.0063 J-0.0108
G2 X18.3672 Y125.2774 Z-0.2333 I-0.0125 J0.0
G2 Y125.2991 Z-0.2667 I0.0062 J0.0108
G2 X18.3859 Y125.2883 Z-0.3 I0.0063 J-0.0108
G2 X18.3672 Y125.2774 Z-0.3333 I-0.0125 J0.0
G2 Y125.2991 Z-0.3667 I0.0062 J0.0108
G2 X18.3859 Y125.2883 Z-0.4 I0.0063 J-0.0108
G2 X18.3672 Y125.2774 Z-0.4333 I-0.0125 J0.0
G2 Y125.2991 Z-0.4667 I0.0062 J0.0108
G2 X18.3859 Y125.2883 Z-0.5 I0.0063 J-0.0108
G2 X18.3672 Y125.2774 Z-0.5333 I-0.0125 J0.0
G2 Y125.2991 Z-0.5667 I0.0062 J0.0108
G2 X18.3859 Y125.2883 Z-0.6 I0.0063 J-0.0108
G2 X18.3672 Y125.2774 Z-0.6333 I-0.0125 J0.0
G2 Y125.2991 Z-0.6667 I0.0062 J0.0108
G2 X18.3859 Y125.2883 Z-0.7 I0.0063 J-0.0108
G2 X18.3672 Y125.2774 Z-0.7333 I-0.0125 J0.0
G2 Y125.2991 Z-0.7667 I0.0062 J0.0108
G2 X18.3859 Y125.2883 Z-0.8 I0.0063 J-0.0108
G2 X18.3672 Y125.2774 Z-0.8333 I-0.0125 J0.0
G2 Y125.2991 Z-0.8667 I0.0062 J0.0108
G2 X18.3859 Y125.2883 Z-0.9 I0.0063 J-0.0108
G2 X18.3672 Y125.2774 Z-0.9333 I-0.0125 J0.0
G2 Y125.2991 Z-0.9667 I0.0062 J0.0108
G2 X18.3859 Y125.2883 Z-1.0 I0.0063 J-0.0108
G2 X18.3672 Y125.2774 Z-1.0333 I-0.0125 J0.0
G2 Y125.2991 Z-1.0667 I0.0062 J0.0108
G2 X18.3859 Y125.2883 Z-1.1 I0.0063 J-0.0108
G2 X18.3672 Y125.2774 Z-1.1333 I-0.0125 J0.0
G2 Y125.2991 Z-1.1667 I0.0062 J0.0108
G2 X18.3859 Y125.2883 Z-1.2 I0.0063 J-0.0108
G2 X18.3672 Y125.2774 Z-1.2333 I-0.0125 J0.0
G2 Y125.2991 Z-1.2667 I0.0062 J0.0108
G2 X18.3859 Y125.2883 Z-1.3 I0.0063 J-0.0108
G2 X18.3672 Y125.2774 Z-1.3333 I-0.0125 J0.0
G2 Y125.2991 Z-1.3667 I0.0062 J0.0108
G2 X18.3859 Y125.2883 Z-1.4 I0.0063 J-0.0108
G2 X18.3672 Y125.2774 Z-1.4333 I-0.0125 J0.0
G2 Y125.2991 Z-1.4667 I0.0062 J0.0108
G2 X18.3859 Y125.2883 Z-1.5 I0.0063 J-0.0108
G2 X18.3672 Y125.2774 Z-1.5333 I-0.0125 J0.0
G2 Y125.2991 Z-1.5667 I0.0062 J0.0108
G2 X18.3859 Y125.2883 Z-1.6 I0.0063 J-0.0108
G2 X18.3672 Y125.2774 Z-1.6333 I-0.0125 J0.0
G2 Y125.2991 Z-1.6667 I0.0062 J0.0108
G2 X18.3859 Y125.2883 Z-1.7 I0.0063 J-0.0108
G2 X18.3672 Y125.2774 Z-1.7333 I-0.0125 J0.0
G2 Y125.2991 Z-1.7667 I0.0062 J0.0108
G2 X18.3859 Y125.2883 Z-1.8 I0.0063 J-0.0108
G2 X18.3672 Y125.2774 Z-1.8333 I-0.0125 J0.0
G2 Y125.2991 Z-1.8667 I0.0062 J0.0108
G2 X18.3859 Y125.2883 Z-1.9 I0.0063 J-0.0108
G2 X18.3672 Y125.2774 Z-1.9333 I-0.0125 J0.0
G2 Y125.2991 Z-1.9667 I0.0062 J0.0108
G2 X18.3859 Y125.2883 Z-2.0 I0.0063 J-0.0108
G2 X18.3672 Y125.2774 Z-2.0333 I-0.0125 J0.0
G2 Y125.2991 Z-2.0667 I0.0062 J0.0108
G2 X18.3859 Y125.2883 Z-2.1 I0.0063 J-0.0108
G2 X18.3672 Y125.2774 Z-2.1333 I-0.0125 J0.0
G2 Y125.2991 Z-2.1667 I0.0062 J0.0108
G2 X18.3859 Y125.2883 Z-2.2 I0.0063 J-0.0108
G2 X18.3672 Y125.2774 Z-2.2333 I-0.0125 J0.0
G2 Y125.2991 Z-2.2667 I0.0062 J0.0108
G2 X18.3859 Y125.2883 Z-2.3 I0.0063 J-0.0108
G2 X18.3672 Y125.2774 Z-2.3333 I-0.0125 J0.0
G2 Y125.2991 Z-2.3667 I0.0062 J0.0108
G2 X18.3859 Y125.2883 Z-2.4 I0.0063 J-0.0108
G2 X18.3672 Y125.2774 Z-2.4333 I-0.0125 J0.0
G2 Y125.2991 Z-2.4667 I0.0062 J0.0108
G2 X18.3859 Y125.2883 Z-2.5 I0.0063 J-0.0108
G2 X18.3672 Y125.2774 Z-2.5333 I-0.0125 J0.0
G2 Y125.2991 Z-2.5667 I0.0062 J0.0108
G2 X18.3859 Y125.2883 Z-2.6 I0.0063 J-0.0108
G2 X18.3672 Y125.2774 Z-2.6333 I-0.0125 J0.0
G2 Y125.2991 Z-2.6667 I0.0062 J0.0108
G2 X18.3859 Y125.2883 Z-2.7 I0.0063 J-0.0108
G2 X18.3672 Y125.2774 Z-2.7333 I-0.0125 J0.0
G2 Y125.2991 Z-2.7667 I0.0062 J0.0108
G2 X18.3859 Y125.2883 Z-2.8 I0.0063 J-0.0108
G2 X18.3672 Y125.2774 Z-2.8333 I-0.0125 J0.0
G2 Y125.2991 Z-2.8667 I0.0062 J0.0108
G2 X18.3859 Y125.2883 Z-2.9 I0.0063 J-0.0108
G2 X18.3672 Y125.2774 Z-2.9333 I-0.0125 J0.0
G2 Y125.2991 Z-2.9667 I0.0062 J0.0108
G2 X18.3859 Y125.2883 Z-3.0 I0.0063 J-0.0108
G2 X18.3672 Y125.2774 Z-3.0333 I-0.0125 J0.0
G2 Y125.2991 Z-3.0667 I0.0062 J0.0108
G2 X18.3859 Y125.2883 Z-3.1 I0.0063 J-0.0108
G2 X18.3672 Y125.2774 Z-3.1333 I-0.0125 J0.0
G2 Y125.2991 Z-3.1667 I0.0062 J0.0108
G2 X18.3859 Y125.2883 Z-3.2 I0.0063 J-0.0108
G2 X18.3672 Y125.2774 I-0.0125 J0.0
G2 Y125.2991 I0.0063 J0.0108
G2 X18.3859 Y125.2883 I0.0062 J-0.0108
( cutout )
S1000
G0 Z3.0
G0 X7.915 Y-1.5398
G1 F1000.0 Z-0.1
G1 F2000.0 X0.0362
G2 X-1.5513 Y0.0477 I0.0 J1.5875
G1 Y128.4757
G2 X0.0362 Y130.0632 I1.5875 J0.0
G1 X21.8534
G2 X23.4409 Y128.4757 I0.0 J-1.5875
G1 Y0.0477
G2 X21.8534 Y-1.5398 I-1.5875 J0.0
G1 X7.915
G1 F1000.0 Z-0.2
G1 F2000.0 X0.0362
G2 X-1.5513 Y0.0477 I0.0 J1.5875
G1 Y128.4757
G2 X0.0362 Y130.0632 I1.5875 J0.0
G1 X21.8534
G2 X23.4409 Y128.4757 I0.0 J-1.5875
G1 Y0.0477
G2 X21.8534 Y-1.5398 I-1.5875 J0.0
G1 X7.915
G1 F1000.0 Z-0.3
G1 F2000.0 X0.0362
G2 X-1.5513 Y0.0477 I0.0 J1.5875
G1 Y28.6276
G1 Y30.7151 Z-0.2
G1 Y32.8026 Z-0.3
G1 Y105.7199
G1 Y107.8074 Z-0.2
G1 Y109.8949 Z-0.3
G1 Y128.4757
G2 X0.0362 Y130.0632 I1.5875 J0.0
G1 X21.8534
G2 X23.4409 Y128.4757 I0.0 J-1.5875
G1 Y95.9565
G1 Y93.869 Z-0.2
G1 Y91.7815 Z-0.3
G1 Y18.8642
G1 Y16.7767 Z-0.2
G1 Y14.6892 Z-0.3
G1 Y0.0477
G2 X21.8534 Y-1.5398 I-1.5875 J0.0
G1 X7.915
G1 F1000.0 Z-0.4
G1 F2000.0 X0.0362
G2 X-1.5513 Y0.0477 I0.0 J1.5875
G1 Y28.6276
G1 Y30.7151 Z-0.2
G1 Y32.8026 Z-0.4
G1 Y105.7199
G1 Y107.8074 Z-0.2
G1 Y109.8949 Z-0.4
G1 Y128.4757
G2 X0.0362 Y130.0632 I1.5875 J0.0
G1 X21.8534
G2 X23.4409 Y128.4757 I0.0 J-1.5875
G1 Y95.9565
G1 Y93.869 Z-0.2
G1 Y91.7815 Z-0.4
G1 Y18.8642
G1 Y16.7767 Z-0.2
G1 Y14.6892 Z-0.4
G1 Y0.0477
G2 X21.8534 Y-1.5398 I-1.5875 J0.0
G1 X7.915
G1 F1000.0 Z-0.5
G1 F2000.0 X0.0362
G2 X-1.5513 Y0.0477 I0.0 J1.5875
G1 Y28.6276
G1 Y30.7151 Z-0.2
G1 Y32.8026 Z-0.5
G1 Y105.7199
G1 Y107.8074 Z-0.2
G1 Y109.8949 Z-0.5
G1 Y128.4757
G2 X0.0362 Y130.0632 I1.5875 J0.0
G1 X21.8534
G2 X23.4409 Y128.4757 I0.0 J-1.5875
G1 Y95.9565
G1 Y93.869 Z-0.2
G1 Y91.7815 Z-0.5
G1 Y18.8642
G1 Y16.7767 Z-0.2
G1 Y14.6892 Z-0.5
G1 Y0.0477
G2 X21.8534 Y-1.5398 I-1.5875 J0.0
G1 X7.915
G1 F1000.0 Z-0.6
G1 F2000.0 X0.0362
G2 X-1.5513 Y0.0477 I0.0 J1.5875
G1 Y28.6276
G1 Y30.7151 Z-0.2
G1 Y32.8026 Z-0.6
G1 Y105.7199
G1 Y107.8074 Z-0.2
G1 Y109.8949 Z-0.6
G1 Y128.4757
G2 X0.0362 Y130.0632 I1.5875 J0.0
G1 X21.8534
G2 X23.4409 Y128.4757 I0.0 J-1.5875
G1 Y95.9565
G1 Y93.869 Z-0.2
G1 Y91.7815 Z-0.6
G1 Y18.8642
G1 Y16.7767 Z-0.2
G1 Y14.6892 Z-0.6
G1 Y0.0477
G2 X21.8534 Y-1.5398 I-1.5875 J0.0
G1 X7.915
G1 F1000.0 Z-0.7
G1 F2000.0 X0.0362
G2 X-1.5513 Y0.0477 I0.0 J1.5875
G1 Y28.6276
G1 Y30.7151 Z-0.2
G1 Y32.8026 Z-0.7
G1 Y105.7199
G1 Y107.8074 Z-0.2
G1 Y109.8949 Z-0.7
G1 Y128.4757
G2 X0.0362 Y130.0632 I1.5875 J0.0
G1 X21.8534
G2 X23.4409 Y128.4757 I0.0 J-1.5875
G1 Y95.9565
G1 Y93.869 Z-0.2
G1 Y91.7815 Z-0.7
G1 Y18.8642
G1 Y16.7767 Z-0.2
G1 Y14.6892 Z-0.7
G1 Y0.0477
G2 X21.8534 Y-1.5398 I-1.5875 J0.0
G1 X7.915
G1 F1000.0 Z-0.8
G1 F2000.0 X0.0362
G2 X-1.5513 Y0.0477 I0.0 J1.5875
G1 Y28.6276
G1 Y30.7151 Z-0.2
G1 Y32.8026 Z-0.8
G1 Y105.7199
G1 Y107.8074 Z-0.2
G1 Y109.8949 Z-0.8
G1 Y128.4757
G2 X0.0362 Y130.0632 I1.5875 J0.0
G1 X21.8534
G2 X23.4409 Y128.4757 I0.0 J-1.5875
G1 Y95.9565
G1 Y93.869 Z-0.2
G1 Y91.7815 Z-0.8
G1 Y18.8642
G1 Y16.7767 Z-0.2
G1 Y14.6892 Z-0.8
G1 Y0.0477
G2 X21.8534 Y-1.5398 I-1.5875 J0.0
G1 X7.915
G1 F1000.0 Z-0.9
G1 F2000.0 X0.0362
G2 X-1.5513 Y0.0477 I0.0 J1.5875
G1 Y28.6276
G1 Y30.7151 Z-0.2
G1 Y32.8026 Z-0.9
G1 Y105.7199
G1 Y107.8074 Z-0.2
G1 Y109.8949 Z-0.9
G1 Y128.4757
G2 X0.0362 Y130.0632 I1.5875 J0.0
G1 X21.8534
G2 X23.4409 Y128.4757 I0.0 J-1.5875
G1 Y95.9565
G1 Y93.869 Z-0.2
G1 Y91.7815 Z-0.9
G1 Y18.8642
G1 Y16.7767 Z-0.2
G1 Y14.6892 Z-0.9
G1 Y0.0477
G2 X21.8534 Y-1.5398 I-1.5875 J0.0
G1 X7.915
G1 F1000.0 Z-1.0
G1 F2000.0 X0.0362
G2 X-1.5513 Y0.0477 I0.0 J1.5875
G1 Y28.6276
G1 Y30.7151 Z-0.2
G1 Y32.8026 Z-1.0
G1 Y105.7199
G1 Y107.8074 Z-0.2
G1 Y109.8949 Z-1.0
G1 Y128.4757
G2 X0.0362 Y130.0632 I1.5875 J0.0
G1 X21.8534
G2 X23.4409 Y128.4757 I0.0 J-1.5875
G1 Y95.9565
G1 Y93.869 Z-0.2
G1 Y91.7815 Z-1.0
G1 Y18.8642
G1 Y16.7767 Z-0.2
G1 Y14.6892 Z-1.0
G1 Y0.0477
G2 X21.8534 Y-1.5398 I-1.5875 J0.0
G1 X7.915
G1 F1000.0 Z-1.1
G1 F2000.0 X0.0362
G2 X-1.5513 Y0.0477 I0.0 J1.5875
G1 Y28.6276
G1 Y30.7151 Z-0.2
G1 Y32.8026 Z-1.1
G1 Y105.7199
G1 Y107.8074 Z-0.2
G1 Y109.8949 Z-1.1
G1 Y128.4757
G2 X0.0362 Y130.0632 I1.5875 J0.0
G1 X21.8534
G2 X23.4409 Y128.4757 I0.0 J-1.5875
G1 Y95.9565
G1 Y93.869 Z-0.2
G1 Y91.7815 Z-1.1
G1 Y18.8642
G1 Y16.7767 Z-0.2
G1 Y14.6892 Z-1.1
G1 Y0.0477
G2 X21.8534 Y-1.5398 I-1.5875 J0.0
G1 X7.915
G1 F1000.0 Z-1.2
G1 F2000.0 X0.0362
G2 X-1.5513 Y0.0477 I0.0 J1.5875
G1 Y28.6276
G1 Y30.7151 Z-0.2
G1 Y32.8026 Z-1.2
G1 Y105.7199
G1 Y107.8074 Z-0.2
G1 Y109.8949 Z-1.2
G1 Y128.4757
G2 X0.0362 Y130.0632 I1.5875 J0.0
G1 X21.8534
G2 X23.4409 Y128.4757 I0.0 J-1.5875
G1 Y95.9565
G1 Y93.869 Z-0.2
G1 Y91.7815 Z-1.2
G1 Y18.8642
G1 Y16.7767 Z-0.2
G1 Y14.6892 Z-1.2
G1 Y0.0477
G2 X21.8534 Y-1.5398 I-1.5875 J0.0
G1 X7.915
G1 F1000.0 Z-1.3
G1 F2000.0 X0.0362
G2 X-1.5513 Y0.0477 I0.0 J1.5875
G1 Y28.6276
G1 Y30.7151 Z-0.2
G1 Y32.8026 Z-1.3
G1 Y105.7199
G1 Y107.8074 Z-0.2
G1 Y109.8949 Z-1.3
G1 Y128.4757
G2 X0.0362 Y130.0632 I1.5875 J0.0
G1 X21.8534
G2 X23.4409 Y128.4757 I0.0 J-1.5875
G1 Y95.9565
G1 Y93.869 Z-0.2
G1 Y91.7815 Z-1.3
G1 Y18.8642
G1 Y16.7767 Z-0.2
G1 Y14.6892 Z-1.3
G1 Y0.0477
G2 X21.8534 Y-1.5398 I-1.5875 J0.0
G1 X7.915
G1 F1000.0 Z-1.4
G1 F2000.0 X0.0362
G2 X-1.5513 Y0.0477 I0.0 J1.5875
G1 Y28.6276
G1 Y30.7151 Z-0.2
G1 Y32.8026 Z-1.4
G1 Y105.7199
G1 Y107.8074 Z-0.2
G1 Y109.8949 Z-1.4
G1 Y128.4757
G2 X0.0362 Y130.0632 I1.5875 J0.0
G1 X21.8534
G2 X23.4409 Y128.4757 I0.0 J-1.5875
G1 Y95.9565
G1 Y93.869 Z-0.2
G1 Y91.7815 Z-1.4
G1 Y18.8642
G1 Y16.7767 Z-0.2
G1 Y14.6892 Z-1.4
G1 Y0.0477
G2 X21.8534 Y-1.5398 I-1.5875 J0.0
G1 X7.915
G1 F1000.0 Z-1.5
G1 F2000.0 X0.0362
G2 X-1.5513 Y0.0477 I0.0 J1.5875
G1 Y28.6276
G1 Y30.7151 Z-0.2
G1 Y32.8026 Z-1.5
G1 Y105.7199
G1 Y107.8074 Z-0.2
G1 Y109.8949 Z-1.5
G1 Y128.4757
G2 X0.0362 Y130.0632 I1.5875 J0.0
G1 X21.8534
G2 X23.4409 Y128.4757 I0.0 J-1.5875
G1 Y95.9565
G1 Y93.869 Z-0.2
G1 Y91.7815 Z-1.5
G1 Y18.8642
G1 Y16.7767 Z-0.2
G1 Y14.6892 Z-1.5
G1 Y0.0477
G2 X21.8534 Y-1.5398 I-1.5875 J0.0
G1 X7.915
G1 F1000.0 Z-1.6
G1 F2000.0 X0.0362
G2 X-1.5513 Y0.0477 I0.0 J1.5875
G1 Y28.6276
G1 Y30.7151 Z-0.2
G1 Y32.8026 Z-1.6
G1 Y105.7199
G1 Y107.8074 Z-0.2
G1 Y109.8949 Z-1.6
G1 Y128.4757
G2 X0.0362 Y130.0632 I1.5875 J0.0
G1 X21.8534
G2 X23.4409 Y128.4757 I0.0 J-1.5875
G1 Y95.9565
G1 Y93.869 Z-0.2
G1 Y91.7815 Z-1.6
G1 Y18.8642
G1 Y16.7767 Z-0.2
G1 Y14.6892 Z-1.6
G1 Y0.0477
G2 X21.8534 Y-1.5398 I-1.5875 J0.0
G1 X7.915
G1 F1000.0 Z-1.7
G1 F2000.0 X0.0362
G2 X-1.5513 Y0.0477 I0.0 J1.5875
G1 Y28.6276
G1 Y30.7151 Z-0.2
G1 Y32.8026 Z-1.7
G1 Y105.7199
G1 Y107.8074 Z-0.2
G1 Y109.8949 Z-1.7
G1 Y128.4757
G2 X0.0362 Y130.0632 I1.5875 J0.0
G1 X21.8534
G2 X23.4409 Y128.4757 I0.0 J-1.5875
G1 Y95.9565
G1 Y93.869 Z-0.2
G1 Y91.7815 Z-1.7
G1 Y18.8642
G1 Y16.7767 Z-0.2
G1 Y14.6892 Z-1.7
G1 Y0.0477
G2 X21.8534 Y-1.5398 I-1.5875 J0.0
G1 X7.915
G1 F1000.0 Z-1.8
G1 F2000.0 X0.0362
G2 X-1.5513 Y0.0477 I0.0 J1.5875
G1 Y28.6276
G1 Y30.7151 Z-0.2
G1 Y32.8026 Z-1.8
G1 Y105.7199
G1 Y107.8074 Z-0.2
G1 Y109.8949 Z-1.8
G1 Y128.4757
G2 X0.0362 Y130.0632 I1.5875 J0.0
G1 X21.8534
G2 X23.4409 Y128.4757 I0.0 J-1.5875
G1 Y95.9565
G1 Y93.869 Z-0.2
G1 Y91.7815 Z-1.8
G1 Y18.8642
G1 Y16.7767 Z-0.2
G1 Y14.6892 Z-1.8
G1 Y0.0477
G2 X21.8534 Y-1.5398 I-1.5875 J0.0
G1 X7.915
G1 F1000.0 Z-1.9
G1 F2000.0 X0.0362
G2 X-1.5513 Y0.0477 I0.0 J1.5875
G1 Y28.6276
G1 Y30.7151 Z-0.2
G1 Y32.8026 Z-1.9
G1 Y105.7199
G1 Y107.8074 Z-0.2
G1 Y109.8949 Z-1.9
G1 Y128.4757
G2 X0.0362 Y130.0632 I1.5875 J0.0
G1 X21.8534
G2 X23.4409 Y128.4757 I0.0 J-1.5875
G1 Y95.9565
G1 Y93.869 Z-0.2
G1 Y91.7815 Z-1.9
G1 Y18.8642
G1 Y16.7767 Z-0.2
G1 Y14.6892 Z-1.9
G1 Y0.0477
G2 X21.8534 Y-1.5398 I-1.5875 J0.0
G1 X7.915
G1 F1000.0 Z-2.0
G1 F2000.0 X0.0362
G2 X-1.5513 Y0.0477 I0.0 J1.5875
G1 Y28.6276
G1 Y30.7151 Z-0.2
G1 Y32.8026 Z-2.0
G1 Y105.7199
G1 Y107.8074 Z-0.2
G1 Y109.8949 Z-2.0
G1 Y128.4757
G2 X0.0362 Y130.0632 I1.5875 J0.0
G1 X21.8534
G2 X23.4409 Y128.4757 I0.0 J-1.5875
G1 Y95.9565
G1 Y93.869 Z-0.2
G1 Y91.7815 Z-2.0
G1 Y18.8642
G1 Y16.7767 Z-0.2
G1 Y14.6892 Z-2.0
G1 Y0.0477
G2 X21.8534 Y-1.5398 I-1.5875 J0.0
G1 X7.915
G1 F1000.0 Z-2.1
G1 F2000.0 X0.0362
G2 X-1.5513 Y0.0477 I0.0 J1.5875
G1 Y28.6276
G1 Y30.7151 Z-0.2
G1 Y32.8026 Z-2.1
G1 Y105.7199
G1 Y107.8074 Z-0.2
G1 Y109.8949 Z-2.1
G1 Y128.4757
G2 X0.0362 Y130.0632 I1.5875 J0.0
G1 X21.8534
G2 X23.4409 Y128.4757 I0.0 J-1.5875
G1 Y95.9565
G1 Y93.869 Z-0.2
G1 Y91.7815 Z-2.1
G1 Y18.8642
G1 Y16.7767 Z-0.2
G1 Y14.6892 Z-2.1
G1 Y0.0477
G2 X21.8534 Y-1.5398 I-1.5875 J0.0
G1 X7.915
G1 F1000.0 Z-2.2
G1 F2000.0 X0.0362
G2 X-1.5513 Y0.0477 I0.0 J1.5875
G1 Y28.6276
G1 Y30.7151 Z-0.2
G1 Y32.8026 Z-2.2
G1 Y105.7199
G1 Y107.8074 Z-0.2
G1 Y109.8949 Z-2.2
G1 Y128.4757
G2 X0.0362 Y130.0632 I1.5875 J0.0
G1 X21.8534
G2 X23.4409 Y128.4757 I0.0 J-1.5875
G1 Y95.9565
G1 Y93.869 Z-0.2
G1 Y91.7815 Z-2.2
G1 Y18.8642
G1 Y16.7767 Z-0.2
G1 Y14.6892 Z-2.2
G1 Y0.0477
G2 X21.8534 Y-1.5398 I-1.5875 J0.0
G1 X7.915
G1 F1000.0 Z-2.3
G1 F2000.0 X0.0362
G2 X-1.5513 Y0.0477 I0.0 J1.5875
G1 Y28.6276
G1 Y30.7151 Z-0.2
G1 Y32.8026 Z-2.3
G1 Y105.7199
G1 Y107.8074 Z-0.2
G1 Y109.8949 Z-2.3
G1 Y128.4757
G2 X0.0362 Y130.0632 I1.5875 J0.0
G1 X21.8534
G2 X23.4409 Y128.4757 I0.0 J-1.5875
G1 Y95.9565
G1 Y93.869 Z-0.2
G1 Y91.7815 Z-2.3
G1 Y18.8642
G1 Y16.7767 Z-0.2
G1 Y14.6892 Z-2.3
G1 Y0.0477
G2 X21.8534 Y-1.5398 I-1.5875 J0.0
G1 X7.915
G1 F1000.0 Z-2.4
G1 F2000.0 X0.0362
G2 X-1.5513 Y0.0477 I0.0 J1.5875
G1 Y28.6276
G1 Y30.7151 Z-0.2
G1 Y32.8026 Z-2.4
G1 Y105.7199
G1 Y107.8074 Z-0.2
G1 Y109.8949 Z-2.4
G1 Y128.4757
G2 X0.0362 Y130.0632 I1.5875 J0.0
G1 X21.8534
G2 X23.4409 Y128.4757 I0.0 J-1.5875
G1 Y95.9565
G1 Y93.869 Z-0.2
G1 Y91.7815 Z-2.4
G1 Y18.8642
G1 Y16.7767 Z-0.2
G1 Y14.6892 Z-2.4
G1 Y0.0477
G2 X21.8534 Y-1.5398 I-1.5875 J0.0
G1 X7.915
G1 F1000.0 Z-2.5
G1 F2000.0 X0.0362
G2 X-1.5513 Y0.0477 I0.0 J1.5875
G1 Y28.6276
G1 Y30.7151 Z-0.2
G1 Y32.8026 Z-2.5
G1 Y105.7199
G1 Y107.8074 Z-0.2
G1 Y109.8949 Z-2.5
G1 Y128.4757
G2 X0.0362 Y130.0632 I1.5875 J0.0
G1 X21.8534
G2 X23.4409 Y128.4757 I0.0 J-1.5875
G1 Y95.9565
G1 Y93.869 Z-0.2
G1 Y91.7815 Z-2.5
G1 Y18.8642
G1 Y16.7767 Z-0.2
G1 Y14.6892 Z-2.5
G1 Y0.0477
G2 X21.8534 Y-1.5398 I-1.5875 J0.0
G1 X7.915
G1 F1000.0 Z-2.6
G1 F2000.0 X0.0362
G2 X-1.5513 Y0.0477 I0.0 J1.5875
G1 Y28.6276
G1 Y30.7151 Z-0.2
G1 Y32.8026 Z-2.6
G1 Y105.7199
G1 Y107.8074 Z-0.2
G1 Y109.8949 Z-2.6
G1 Y128.4757
G2 X0.0362 Y130.0632 I1.5875 J0.0
G1 X21.8534
G2 X23.4409 Y128.4757 I0.0 J-1.5875
G1 Y95.9565
G1 Y93.869 Z-0.2
G1 Y91.7815 Z-2.6
G1 Y18.8642
G1 Y16.7767 Z-0.2
G1 Y14.6892 Z-2.6
G1 Y0.0477
G2 X21.8534 Y-1.5398 I-1.5875 J0.0
G1 X7.915
G1 F1000.0 Z-2.7
G1 F2000.0 X0.0362
G2 X-1.5513 Y0.0477 I0.0 J1.5875
G1 Y28.6276
G1 Y30.7151 Z-0.2
G1 Y32.8026 Z-2.7
G1 Y105.7199
G1 Y107.8074 Z-0.2
G1 Y109.8949 Z-2.7
G1 Y128.4757
G2 X0.0362 Y130.0632 I1.5875 J0.0
G1 X21.8534
G2 X23.4409 Y128.4757 I0.0 J-1.5875
G1 Y95.9565
G1 Y93.869 Z-0.2
G1 Y91.7815 Z-2.7
G1 Y18.8642
G1 Y16.7767 Z-0.2
G1 Y14.6892 Z-2.7
G1 Y0.0477
G2 X21.8534 Y-1.5398 I-1.5875 J0.0
G1 X7.915
G1 F1000.0 Z-2.8
G1 F2000.0 X0.0362
G2 X-1.5513 Y0.0477 I0.0 J1.5875
G1 Y28.6276
G1 Y30.7151 Z-0.2
G1 Y32.8026 Z-2.8
G1 Y105.7199
G1 Y107.8074 Z-0.2
G1 Y109.8949 Z-2.8
G1 Y128.4757
G2 X0.0362 Y130.0632 I1.5875 J0.0
G1 X21.8534
G2 X23.4409 Y128.4757 I0.0 J-1.5875
G1 Y95.9565
G1 Y93.869 Z-0.2
G1 Y91.7815 Z-2.8
G1 Y18.8642
G1 Y16.7767 Z-0.2
G1 Y14.6892 Z-2.8
G1 Y0.0477
G2 X21.8534 Y-1.5398 I-1.5875 J0.0
G1 X7.915
G1 F1000.0 Z-2.9
G1 F2000.0 X0.0362
G2 X-1.5513 Y0.0477 I0.0 J1.5875
G1 Y28.6276
G1 Y30.7151 Z-0.2
G1 Y32.8026 Z-2.9
G1 Y105.7199
G1 Y107.8074 Z-0.2
G1 Y109.8949 Z-2.9
G1 Y128.4757
G2 X0.0362 Y130.0632 I1.5875 J0.0
G1 X21.8534
G2 X23.4409 Y128.4757 I0.0 J-1.5875
G1 Y95.9565
G1 Y93.869 Z-0.2
G1 Y91.7815 Z-2.9
G1 Y18.8642
G1 Y16.7767 Z-0.2
G1 Y14.6892 Z-2.9
G1 Y0.0477
G2 X21.8534 Y-1.5398 I-1.5875 J0.0
G1 X7.915
G1 F1000.0 Z-3.0
G1 F2000.0 X0.0362
G2 X-1.5513 Y0.0477 I0.0 J1.5875
G1 Y28.6276
G1 Y30.7151 Z-0.2
G1 Y32.8026 Z-3.0
G1 Y105.7199
G1 Y107.8074 Z-0.2
G1 Y109.8949 Z-3.0
G1 Y128.4757
G2 X0.0362 Y130.0632 I1.5875 J0.0
G1 X21.8534
G2 X23.4409 Y128.4757 I0.0 J-1.5875
G1 Y95.9565
G1 Y93.869 Z-0.2
G1 Y91.7815 Z-3.0
G1 Y18.8642
G1 Y16.7767 Z-0.2
G1 Y14.6892 Z-3.0
G1 Y0.0477
G2 X21.8534 Y-1.5398 I-1.5875 J0.0
G1 X7.915
G1 F1000.0 Z-3.1
G1 F2000.0 X0.0362
G2 X-1.5513 Y0.0477 I0.0 J1.5875
G1 Y28.6276
G1 Y30.7151 Z-0.2
G1 Y32.8026 Z-3.1
G1 Y105.7199
G1 Y107.8074 Z-0.2
G1 Y109.8949 Z-3.1
G1 Y128.4757
G2 X0.0362 Y130.0632 I1.5875 J0.0
G1 X21.8534
G2 X23.4409 Y128.4757 I0.0 J-1.5875
G1 Y95.9565
G1 Y93.869 Z-0.2
G1 Y91.7815 Z-3.1
G1 Y18.8642
G1 Y16.7767 Z-0.2
G1 Y14.6892 Z-3.1
G1 Y0.0477
G2 X21.8534 Y-1.5398 I-1.5875 J0.0
G1 X7.915
G1 F1000.0 Z-3.2
G1 F2000.0 X0.0362
G2 X-1.5513 Y0.0477 I0.0 J1.5875
G1 Y28.6276
G1 Y30.7151 Z-0.2
G1 Y32.8026 Z-3.2
G1 Y105.7199
G1 Y107.8074 Z-0.2
G1 Y109.8949 Z-3.2
G1 Y128.4757
G2 X0.0362 Y130.0632 I1.5875 J0.0
G1 X21.8534
G2 X23.4409 Y128.4757 I0.0 J-1.5875
G1 Y95.9565
G1 Y93.869 Z-0.2
G1 Y91.7815 Z-3.2
G1 Y18.8642
G1 Y16.7767 Z-0.2
G1 Y14.6892 Z-3.2
G1 Y0.0477
G2 X21.8534 Y-1.5398 I-1.5875 J0.0
G1 X7.915
G0 Z3.0
M5
M30
