(/Applications/pcbgcode.repo/pcb-gcode.ulp)
(Copyright 2005 - 2012 by John Johnson)
(See readme.txt for licensing terms.)
(This file generated from the board:)
(.../eurorack/Active-Mult/eagle/mult.brd)
(Current profile is .../pcbgcode.repo/profiles/mach.pp  )
(This file generated 2/2/16 12:15 AM)
(Settings from pcb-machine.h)
(spindle on time = 0.0000)
(  Tool Size)
(0.0100  )
(spindle speed = 30000.0000)
(tool change at 0.0000  0.0000  3.0000  )
(feed rate xy = F20    )
(feed rate z  = F10    )
(Z Axis Settings)
(  High     Up        Down     Drill)
(1.0000  	0.0500  	-0.0040 	-0.0730 )
(Settings from pcb-defaults.h)
(isolate min = 0.0010)
(isolate max = 0.0170)
(isolate step = 0.0017)
(Generated bottom outlines, bottom drill, )
(Unit of measure: inch)
(Inch Mode)
G20
(Absolute Coordinates)
G90
S30000
G00 Z1.0000  
G00 X0.0000  Y0.0000  
M03
G04 P0.000000
G00 Z0.0500  
G00 X-0.2070 Y0.0322  
G01 Z-0.0040 F10    
G01 X-0.2322 Y0.0070  F20    
G01 X-0.2678 Y0.0070  
G01 X-0.2930 Y0.0322  
G01 X-0.2930 Y0.0678  
G01 X-0.2678 Y0.0930  
G01 X-0.2322 Y0.0930  
G01 X-0.2070 Y0.0678  
G01 X-0.2070 Y0.0322  
G00 Z0.0500  
G00 X-0.2070 Y0.1322  
G01 Z-0.0040 F10    
G01 X-0.2322 Y0.1070  F20    
G01 X-0.2678 Y0.1070  
G01 X-0.2930 Y0.1322  
G01 X-0.2930 Y0.1678  
G01 X-0.2678 Y0.1930  
G01 X-0.2322 Y0.1930  
G01 X-0.2070 Y0.1678  
G01 X-0.2070 Y0.1322  
G00 Z0.0500  
G00 X-0.3070 Y0.1322  
G01 Z-0.0040 F10    
G01 X-0.3322 Y0.1070  F20    
G01 X-0.3678 Y0.1070  
G01 X-0.3930 Y0.1322  
G01 X-0.3930 Y0.1678  
G01 X-0.3678 Y0.1930  
G01 X-0.3322 Y0.1930  
G01 X-0.3070 Y0.1678  
G01 X-0.3070 Y0.1322  
G00 Z0.0500  
G00 X-0.3322 Y0.0930  
G01 Z-0.0040 F10    
G01 X-0.3070 Y0.0678  F20    
G01 X-0.3070 Y0.0322  
G01 X-0.3322 Y0.0070  
G01 X-0.3678 Y0.0070  
G01 X-0.3930 Y0.0322  
G01 X-0.3930 Y0.0678  
G01 X-0.3678 Y0.0930  
G01 X-0.3322 Y0.0930  
G00 Z0.0500  
G00 X-0.4322 Y0.0930  
G01 Z-0.0040 F10    
G01 X-0.4070 Y0.0678  F20    
G01 X-0.4070 Y0.0322  
G01 X-0.4322 Y0.0070  
G01 X-0.4678 Y0.0070  
G01 X-0.4930 Y0.0322  
G01 X-0.4930 Y0.0678  
G01 X-0.4678 Y0.0930  
G01 X-0.4322 Y0.0930  
G00 Z0.0500  
G00 X-0.4322 Y0.1070  
G01 Z-0.0040 F10    
G01 X-0.4678 Y0.1070  F20    
G01 X-0.4930 Y0.1322  
G01 X-0.4930 Y0.1678  
G01 X-0.4678 Y0.1930  
G01 X-0.4322 Y0.1930  
G01 X-0.4070 Y0.1678  
G01 X-0.4070 Y0.1322  
G01 X-0.4322 Y0.1070  
G00 Z0.0500  
G00 X-0.5070 Y0.1322  
G01 Z-0.0040 F10    
G01 X-0.5280 Y0.1112  F20    
G01 X-0.5280 Y0.0888  
G01 X-0.5070 Y0.0678  
G01 X-0.5070 Y0.0322  
G01 X-0.5322 Y0.0070  
G01 X-0.5678 Y0.0070  
G01 X-0.5930 Y0.0322  
G01 X-0.5930 Y0.0678  
G01 X-0.5720 Y0.0888  
G01 X-0.5720 Y0.1112  
G01 X-0.5930 Y0.1322  
G01 X-0.5930 Y0.1678  
G01 X-0.5902 Y0.1706  
G01 X-0.6164 Y0.2100  
G01 X-0.7372 Y0.3066  
G01 X-0.7379 Y0.3070  
G01 X-0.7394 Y0.3084  
G01 X-0.7410 Y0.3096  
G01 X-0.7415 Y0.3103  
G01 X-0.7422 Y0.3109  
G01 X-0.7432 Y0.3127  
G01 X-0.7444 Y0.3143  
G01 X-0.7448 Y0.3151  
G01 X-0.7452 Y0.3159  
G01 X-0.7458 Y0.3178  
G01 X-0.7465 Y0.3197  
G01 X-0.7466 Y0.3206  
G01 X-0.7469 Y0.3214  
G01 X-0.7470 Y0.3234  
G01 X-0.7472 Y0.3254  
G01 X-0.7471 Y0.3263  
G01 X-0.7474 Y0.3362  
G01 X-0.7496 Y0.3374  
G01 X-0.7552 Y0.3414  
G01 X-0.7601 Y0.3463  
G01 X-0.7642 Y0.3519  
G01 X-0.7674 Y0.3581  
G01 X-0.7695 Y0.3647  
G01 X-0.7706 Y0.3715  
G01 X-0.7706 Y0.3785  
G01 X-0.7695 Y0.3853  
G01 X-0.7674 Y0.3919  
G01 X-0.7642 Y0.3981  
G01 X-0.7601 Y0.4037  
G01 X-0.7552 Y0.4086  
G01 X-0.7496 Y0.4126  
G01 X-0.7435 Y0.4158  
G01 X-0.7369 Y0.4179  
G01 X-0.7300 Y0.4190  
G01 X-0.7231 Y0.4190  
G01 X-0.7163 Y0.4179  
G01 X-0.7097 Y0.4158  
G01 X-0.7035 Y0.4126  
G01 X-0.6979 Y0.4086  
G01 X-0.6930 Y0.4037  
G01 X-0.6889 Y0.3981  
G01 X-0.6858 Y0.3919  
G01 X-0.6837 Y0.3853  
G01 X-0.6826 Y0.3785  
G01 X-0.6826 Y0.3715  
G01 X-0.6837 Y0.3647  
G01 X-0.6858 Y0.3581  
G01 X-0.6889 Y0.3519  
G01 X-0.6930 Y0.3463  
G01 X-0.6979 Y0.3414  
G01 X-0.7034 Y0.3375  
G01 X-0.7033 Y0.3358  
G01 X-0.5881 Y0.2437  
G01 X-0.5877 Y0.2434  
G01 X-0.5859 Y0.2419  
G01 X-0.5840 Y0.2404  
G01 X-0.5837 Y0.2400  
G01 X-0.5833 Y0.2396  
G01 X-0.5820 Y0.2376  
G01 X-0.5806 Y0.2357  
G01 X-0.5804 Y0.2352  
G01 X-0.5522 Y0.1930  
G01 X-0.5322 Y0.1930  
G01 X-0.5070 Y0.1678  
G01 X-0.5070 Y0.1322  
G00 Z0.0500  
G00 X-0.6070 Y0.1322  
G01 Z-0.0040 F10    
G01 X-0.6280 Y0.1112  F20    
G01 X-0.6280 Y0.0888  
G01 X-0.6070 Y0.0678  
G01 X-0.6070 Y0.0322  
G01 X-0.6322 Y0.0070  
G01 X-0.6678 Y0.0070  
G01 X-0.6888 Y0.0280  
G01 X-0.7112 Y0.0280  
G01 X-0.7322 Y0.0070  
G01 X-0.7678 Y0.0070  
G01 X-0.7888 Y0.0280  
G01 X-0.8112 Y0.0280  
G01 X-0.8322 Y0.0070  
G01 X-0.8678 Y0.0070  
G01 X-0.8930 Y0.0322  
G01 X-0.8930 Y0.0678  
G01 X-0.8678 Y0.0930  
G01 X-0.8560 Y0.0930  
G01 X-0.8560 Y0.1070  
G01 X-0.8678 Y0.1070  
G01 X-0.8930 Y0.1322  
G01 X-0.8930 Y0.1678  
G01 X-0.8720 Y0.1888  
G01 X-0.8720 Y0.2530  
G01 X-0.9779 Y0.2530  
G01 X-0.9835 Y0.2545  
G01 X-0.9885 Y0.2574  
G01 X-0.9926 Y0.2615  
G01 X-1.0426 Y0.3115  
G01 X-1.0455 Y0.3165  
G01 X-1.0470 Y0.3221  
G01 X-1.0470 Y0.3738  
G01 X-1.0685 Y0.5673  
G01 X-1.0739 Y0.5709  
G01 X-1.0791 Y0.5761  
G01 X-1.0832 Y0.5822  
G01 X-1.0861 Y0.5891  
G01 X-1.0875 Y0.5963  
G01 X-1.0875 Y0.6037  
G01 X-1.0861 Y0.6109  
G01 X-1.0832 Y0.6178  
G01 X-1.0791 Y0.6239  
G01 X-1.0739 Y0.6291  
G01 X-1.0720 Y0.6304  
G01 X-1.0720 Y0.7683  
G01 X-1.1551 Y0.8930  
G01 X-1.1633 Y0.8930  
G01 X-1.1820 Y0.9117  
G01 X-1.1820 Y0.9383  
G01 X-1.1633 Y0.9570  
G01 X-1.1367 Y0.9570  
G01 X-1.1180 Y0.9383  
G01 X-1.1180 Y0.9167  
G01 X-1.0329 Y0.7890  
G01 X-1.0324 Y0.7885  
G01 X-1.0313 Y0.7866  
G01 X-1.0301 Y0.7848  
G01 X-1.0299 Y0.7841  
G01 X-1.0295 Y0.7835  
G01 X-1.0289 Y0.7814  
G01 X-1.0282 Y0.7793  
G01 X-1.0282 Y0.7786  
G01 X-1.0280 Y0.7779  
G01 X-1.0280 Y0.7757  
G01 X-1.0279 Y0.7735  
G01 X-1.0280 Y0.7728  
G01 X-1.0280 Y0.6304  
G01 X-1.0261 Y0.6291  
G01 X-1.0209 Y0.6239  
G01 X-1.0168 Y0.6178  
G01 X-1.0139 Y0.6109  
G01 X-1.0125 Y0.6037  
G01 X-1.0125 Y0.5963  
G01 X-1.0139 Y0.5891  
G01 X-1.0168 Y0.5822  
G01 X-1.0209 Y0.5761  
G01 X-1.0248 Y0.5722  
G01 X-1.0033 Y0.3791  
G01 X-1.0030 Y0.3779  
G01 X-1.0030 Y0.3762  
G01 X-1.0028 Y0.3746  
G01 X-1.0030 Y0.3733  
G01 X-1.0030 Y0.3341  
G01 X-0.9659 Y0.2970  
G01 X-0.8591 Y0.2970  
G01 X-0.8470 Y0.3091  
G01 X-0.8470 Y0.5779  
G01 X-0.8455 Y0.5835  
G01 X-0.8426 Y0.5885  
G01 X-0.8385 Y0.5926  
G01 X-0.8375 Y0.5936  
G01 X-0.8375 Y0.6155  
G01 X-0.8287 Y0.6243  
G01 X-0.8708 Y0.7923  
G01 X-0.8710 Y0.7928  
G01 X-0.8715 Y0.7951  
G01 X-0.8720 Y0.7975  
G01 X-0.8720 Y0.7980  
G01 X-0.8721 Y0.7984  
G01 X-0.8720 Y0.8008  
G01 X-0.8719 Y0.8033  
G01 X-0.8718 Y0.8037  
G01 X-0.8718 Y0.8042  
G01 X-0.8710 Y0.8065  
G01 X-0.8704 Y0.8088  
G01 X-0.8701 Y0.8092  
G01 X-0.8700 Y0.8097  
G01 X-0.8686 Y0.8117  
G01 X-0.8674 Y0.8138  
G01 X-0.8670 Y0.8141  
G01 X-0.8668 Y0.8145  
G01 X-0.8650 Y0.8161  
G01 X-0.8632 Y0.8178  
G01 X-0.8628 Y0.8181  
G01 X-0.8624 Y0.8184  
G01 X-0.8603 Y0.8195  
G01 X-0.8581 Y0.8206  
G01 X-0.8577 Y0.8208  
G01 X-0.8104 Y0.8444  
G01 X-0.8085 Y0.8455  
G01 X-0.8078 Y0.8457  
G01 X-0.8072 Y0.8460  
G01 X-0.8051 Y0.8464  
G01 X-0.8029 Y0.8470  
G01 X-0.8022 Y0.8470  
G01 X-0.8016 Y0.8471  
G01 X-0.7993 Y0.8470  
G01 X-0.7022 Y0.8470  
G01 X-0.7015 Y0.8471  
G01 X-0.6993 Y0.8470  
G01 X-0.6971 Y0.8470  
G01 X-0.6964 Y0.8468  
G01 X-0.6957 Y0.8468  
G01 X-0.6936 Y0.8461  
G01 X-0.6915 Y0.8455  
G01 X-0.6909 Y0.8451  
G01 X-0.6902 Y0.8449  
G01 X-0.6884 Y0.8437  
G01 X-0.6865 Y0.8426  
G01 X-0.6860 Y0.8421  
G01 X-0.6134 Y0.7937  
G01 X-0.6115 Y0.7926  
G01 X-0.6110 Y0.7921  
G01 X-0.6104 Y0.7917  
G01 X-0.6089 Y0.7901  
G01 X-0.5409 Y0.7220  
G01 X-0.2487 Y0.7220  
G01 X-0.2431 Y0.7205  
G01 X-0.2381 Y0.7176  
G01 X-0.1464 Y0.6260  
G01 X-0.1463 Y0.6262  
G01 X-0.1411 Y0.6333  
G01 X-0.1349 Y0.6396  
G01 X-0.1278 Y0.6447  
G01 X-0.1204 Y0.6485  
G01 X-0.1204 Y0.9952  
G01 X-0.1278 Y0.9990  
G01 X-0.1349 Y1.0041  
G01 X-0.1411 Y1.0104  
G01 X-0.1463 Y1.0175  
G01 X-0.1503 Y1.0254  
G01 X-0.1530 Y1.0337  
G01 X-0.1544 Y1.0424  
G01 X-0.1544 Y1.1513  
G01 X-0.1530 Y1.1600  
G01 X-0.1503 Y1.1683  
G01 X-0.1463 Y1.1762  
G01 X-0.1411 Y1.1833  
G01 X-0.1349 Y1.1896  
G01 X-0.1278 Y1.1947  
G01 X-0.1204 Y1.1985  
G01 X-0.1204 Y1.5452  
G01 X-0.1278 Y1.5490  
G01 X-0.1349 Y1.5541  
G01 X-0.1411 Y1.5604  
G01 X-0.1463 Y1.5675  
G01 X-0.1503 Y1.5754  
G01 X-0.1530 Y1.5837  
G01 X-0.1544 Y1.5924  
G01 X-0.1544 Y1.7013  
G01 X-0.1530 Y1.7100  
G01 X-0.1503 Y1.7183  
G01 X-0.1463 Y1.7262  
G01 X-0.1411 Y1.7333  
G01 X-0.1349 Y1.7396  
G01 X-0.1278 Y1.7447  
G01 X-0.1204 Y1.7485  
G01 X-0.1204 Y1.9393  
G01 X-0.1491 Y1.9680  
G01 X-0.1633 Y1.9680  
G01 X-0.1820 Y1.9867  
G01 X-0.1820 Y2.0133  
G01 X-0.1720 Y2.0233  
G01 X-0.1720 Y2.3482  
G01 X-0.1705 Y2.3538  
G01 X-0.1676 Y2.3588  
G01 X-0.1544 Y2.3720  
G01 X-0.1544 Y2.4097  
G01 X-0.2136 Y2.5280  
G01 X-0.6848 Y2.5280  
G01 X-0.7456 Y2.3658  
G01 X-0.7430 Y2.3633  
G01 X-0.7430 Y2.3367  
G01 X-0.7617 Y2.3180  
G01 X-0.7883 Y2.3180  
G01 X-0.7983 Y2.3280  
G01 X-0.8767 Y2.3280  
G01 X-0.8867 Y2.3180  
G01 X-0.9133 Y2.3180  
G01 X-0.9233 Y2.3280  
G01 X-1.0864 Y2.3280  
G01 X-1.2280 Y2.0448  
G01 X-1.2280 Y1.9733  
G01 X-1.2180 Y1.9633  
G01 X-1.2180 Y1.9367  
G01 X-1.2367 Y1.9180  
G01 X-1.2633 Y1.9180  
G01 X-1.2820 Y1.9367  
G01 X-1.2820 Y1.9633  
G01 X-1.2720 Y1.9733  
G01 X-1.2720 Y2.0493  
G01 X-1.2721 Y2.0516  
G01 X-1.2720 Y2.0522  
G01 X-1.2720 Y2.0529  
G01 X-1.2714 Y2.0551  
G01 X-1.2710 Y2.0572  
G01 X-1.2707 Y2.0578  
G01 X-1.2705 Y2.0585  
G01 X-1.2694 Y2.0604  
G01 X-1.1207 Y2.3578  
G01 X-1.1205 Y2.3585  
G01 X-1.1194 Y2.3604  
G01 X-1.1184 Y2.3624  
G01 X-1.1179 Y2.3629  
G01 X-1.1176 Y2.3635  
G01 X-1.1160 Y2.3651  
G01 X-1.1145 Y2.3668  
G01 X-1.1140 Y2.3671  
G01 X-1.1135 Y2.3676  
G01 X-1.1116 Y2.3687  
G01 X-1.1097 Y2.3700  
G01 X-1.1091 Y2.3702  
G01 X-1.1085 Y2.3705  
G01 X-1.1063 Y2.3711  
G01 X-1.1042 Y2.3718  
G01 X-1.1035 Y2.3718  
G01 X-1.1029 Y2.3720  
G01 X-1.1007 Y2.3720  
G01 X-1.0984 Y2.3721  
G01 X-1.0978 Y2.3720  
G01 X-0.9233 Y2.3720  
G01 X-0.9133 Y2.3820  
G01 X-0.8867 Y2.3820  
G01 X-0.8767 Y2.3720  
G01 X-0.7983 Y2.3720  
G01 X-0.7883 Y2.3820  
G01 X-0.7865 Y2.3820  
G01 X-0.7210 Y2.5567  
G01 X-0.7205 Y2.5585  
G01 X-0.7200 Y2.5594  
G01 X-0.7196 Y2.5604  
G01 X-0.7185 Y2.5619  
G01 X-0.7176 Y2.5635  
G01 X-0.7168 Y2.5643  
G01 X-0.7162 Y2.5651  
G01 X-0.7148 Y2.5663  
G01 X-0.7135 Y2.5676  
G01 X-0.7126 Y2.5681  
G01 X-0.7117 Y2.5688  
G01 X-0.7101 Y2.5696  
G01 X-0.7085 Y2.5705  
G01 X-0.7074 Y2.5708  
G01 X-0.7065 Y2.5712  
G01 X-0.7047 Y2.5715  
G01 X-0.7029 Y2.5720  
G01 X-0.7018 Y2.5720  
G01 X-0.7008 Y2.5722  
G01 X-0.6989 Y2.5720  
G01 X-0.2022 Y2.5720  
G01 X-0.2016 Y2.5721  
G01 X-0.1993 Y2.5720  
G01 X-0.1971 Y2.5720  
G01 X-0.1965 Y2.5718  
G01 X-0.1958 Y2.5718  
G01 X-0.1937 Y2.5711  
G01 X-0.1915 Y2.5705  
G01 X-0.1909 Y2.5702  
G01 X-0.1903 Y2.5700  
G01 X-0.1884 Y2.5687  
G01 X-0.1865 Y2.5676  
G01 X-0.1860 Y2.5671  
G01 X-0.1855 Y2.5668  
G01 X-0.1840 Y2.5651  
G01 X-0.1824 Y2.5635  
G01 X-0.1821 Y2.5629  
G01 X-0.1816 Y2.5624  
G01 X-0.1806 Y2.5604  
G01 X-0.1795 Y2.5585  
G01 X-0.1793 Y2.5578  
G01 X-0.1417 Y2.4826  
G01 X-0.1411 Y2.4833  
G01 X-0.1349 Y2.4896  
G01 X-0.1278 Y2.4947  
G01 X-0.1199 Y2.4987  
G01 X-0.1115 Y2.5015  
G01 X-0.1028 Y2.5029  
G01 X-0.0940 Y2.5029  
G01 X-0.0853 Y2.5015  
G01 X-0.0769 Y2.4987  
G01 X-0.0691 Y2.4947  
G01 X-0.0619 Y2.4896  
G01 X-0.0557 Y2.4833  
G01 X-0.0505 Y2.4762  
G01 X-0.0465 Y2.4683  
G01 X-0.0438 Y2.4600  
G01 X-0.0424 Y2.4513  
G01 X-0.0424 Y2.3424  
G01 X-0.0438 Y2.3337  
G01 X-0.0465 Y2.3254  
G01 X-0.0505 Y2.3175  
G01 X-0.0557 Y2.3104  
G01 X-0.0619 Y2.3041  
G01 X-0.0691 Y2.2990  
G01 X-0.0769 Y2.2950  
G01 X-0.0853 Y2.2922  
G01 X-0.0940 Y2.2909  
G01 X-0.1028 Y2.2909  
G01 X-0.1115 Y2.2922  
G01 X-0.1199 Y2.2950  
G01 X-0.1278 Y2.2990  
G01 X-0.1280 Y2.2991  
G01 X-0.1280 Y2.0233  
G01 X-0.1180 Y2.0133  
G01 X-0.1180 Y1.9991  
G01 X-0.0808 Y1.9619  
G01 X-0.0779 Y1.9569  
G01 X-0.0764 Y1.9513  
G01 X-0.0764 Y1.7485  
G01 X-0.0691 Y1.7447  
G01 X-0.0619 Y1.7396  
G01 X-0.0557 Y1.7333  
G01 X-0.0505 Y1.7262  
G01 X-0.0465 Y1.7183  
G01 X-0.0438 Y1.7100  
G01 X-0.0424 Y1.7013  
G01 X-0.0424 Y1.5924  
G01 X-0.0438 Y1.5837  
G01 X-0.0465 Y1.5754  
G01 X-0.0505 Y1.5675  
G01 X-0.0557 Y1.5604  
G01 X-0.0619 Y1.5541  
G01 X-0.0691 Y1.5490  
G01 X-0.0764 Y1.5452  
G01 X-0.0764 Y1.1985  
G01 X-0.0691 Y1.1947  
G01 X-0.0619 Y1.1896  
G01 X-0.0557 Y1.1833  
G01 X-0.0505 Y1.1762  
G01 X-0.0465 Y1.1683  
G01 X-0.0438 Y1.1600  
G01 X-0.0424 Y1.1513  
G01 X-0.0424 Y1.0424  
G01 X-0.0438 Y1.0337  
G01 X-0.0465 Y1.0254  
G01 X-0.0505 Y1.0175  
G01 X-0.0557 Y1.0104  
G01 X-0.0619 Y1.0041  
G01 X-0.0691 Y0.9990  
G01 X-0.0764 Y0.9952  
G01 X-0.0764 Y0.6485  
G01 X-0.0691 Y0.6447  
G01 X-0.0619 Y0.6396  
G01 X-0.0557 Y0.6333  
G01 X-0.0505 Y0.6262  
G01 X-0.0465 Y0.6183  
G01 X-0.0438 Y0.6100  
G01 X-0.0424 Y0.6013  
G01 X-0.0424 Y0.4924  
G01 X-0.0438 Y0.4837  
G01 X-0.0465 Y0.4754  
G01 X-0.0505 Y0.4675  
G01 X-0.0557 Y0.4604  
G01 X-0.0619 Y0.4541  
G01 X-0.0691 Y0.4490  
G01 X-0.0769 Y0.4450  
G01 X-0.0853 Y0.4422  
G01 X-0.0940 Y0.4409  
G01 X-0.1028 Y0.4409  
G01 X-0.1115 Y0.4422  
G01 X-0.1199 Y0.4450  
G01 X-0.1278 Y0.4490  
G01 X-0.1349 Y0.4541  
G01 X-0.1411 Y0.4604  
G01 X-0.1463 Y0.4675  
G01 X-0.1503 Y0.4754  
G01 X-0.1530 Y0.4837  
G01 X-0.1544 Y0.4924  
G01 X-0.1544 Y0.5717  
G01 X-0.2607 Y0.6780  
G01 X-0.5529 Y0.6780  
G01 X-0.5585 Y0.6795  
G01 X-0.5635 Y0.6824  
G01 X-0.5676 Y0.6865  
G01 X-0.6390 Y0.7579  
G01 X-0.7067 Y0.8030  
G01 X-0.7948 Y0.8030  
G01 X-0.8244 Y0.7882  
G01 X-0.7867 Y0.6375  
G01 X-0.7845 Y0.6375  
G01 X-0.7625 Y0.6155  
G01 X-0.7625 Y0.5845  
G01 X-0.7845 Y0.5625  
G01 X-0.8030 Y0.5625  
G01 X-0.8030 Y0.2971  
G01 X-0.8045 Y0.2915  
G01 X-0.8074 Y0.2865  
G01 X-0.8280 Y0.2659  
G01 X-0.8280 Y0.1888  
G01 X-0.8112 Y0.1720  
G01 X-0.7888 Y0.1720  
G01 X-0.7678 Y0.1930  
G01 X-0.7322 Y0.1930  
G01 X-0.7112 Y0.1720  
G01 X-0.6888 Y0.1720  
G01 X-0.6678 Y0.1930  
G01 X-0.6322 Y0.1930  
G01 X-0.6070 Y0.1678  
G01 X-0.6070 Y0.1322  
G00 Z0.0500  
G00 X-0.6030 Y0.2902  
G01 Z-0.0040 F10    
G01 X-0.6108 Y0.2942  F20    
G01 X-0.6180 Y0.2994  
G01 X-0.6242 Y0.3056  
G01 X-0.6294 Y0.3128  
G01 X-0.6334 Y0.3206  
G01 X-0.6361 Y0.3290  
G01 X-0.6375 Y0.3377  
G01 X-0.6375 Y0.3465  
G01 X-0.6361 Y0.3552  
G01 X-0.6334 Y0.3636  
G01 X-0.6294 Y0.3715  
G01 X-0.6242 Y0.3786  
G01 X-0.6180 Y0.3848  
G01 X-0.6108 Y0.3900  
G01 X-0.6030 Y0.3940  
G01 X-0.5946 Y0.3967  
G01 X-0.5859 Y0.3981  
G01 X-0.4771 Y0.3981  
G01 X-0.4684 Y0.3967  
G01 X-0.4600 Y0.3940  
G01 X-0.4521 Y0.3900  
G01 X-0.4450 Y0.3848  
G01 X-0.4388 Y0.3786  
G01 X-0.4336 Y0.3715  
G01 X-0.4296 Y0.3636  
G01 X-0.4269 Y0.3552  
G01 X-0.4255 Y0.3465  
G01 X-0.4255 Y0.3377  
G01 X-0.4269 Y0.3290  
G01 X-0.4296 Y0.3206  
G01 X-0.4336 Y0.3128  
G01 X-0.4388 Y0.3056  
G01 X-0.4450 Y0.2994  
G01 X-0.4521 Y0.2942  
G01 X-0.4600 Y0.2902  
G01 X-0.4684 Y0.2875  
G01 X-0.4771 Y0.2861  
G01 X-0.5859 Y0.2861  
G01 X-0.5946 Y0.2875  
G01 X-0.6030 Y0.2902  
G00 Z0.0500  
G00 X-0.6050 Y0.4422  
G01 Z-0.0040 F10    
G01 X-0.6137 Y0.4409  F20    
G01 X-0.6225 Y0.4409  
G01 X-0.6312 Y0.4422  
G01 X-0.6396 Y0.4450  
G01 X-0.6475 Y0.4490  
G01 X-0.6546 Y0.4541  
G01 X-0.6608 Y0.4604  
G01 X-0.6660 Y0.4675  
G01 X-0.6700 Y0.4754  
G01 X-0.6727 Y0.4837  
G01 X-0.6741 Y0.4924  
G01 X-0.6741 Y0.6013  
G01 X-0.6727 Y0.6100  
G01 X-0.6700 Y0.6183  
G01 X-0.6660 Y0.6262  
G01 X-0.6623 Y0.6312  
G01 X-0.7491 Y0.7180  
G01 X-0.7633 Y0.7180  
G01 X-0.7820 Y0.7367  
G01 X-0.7820 Y0.7633  
G01 X-0.7633 Y0.7820  
G01 X-0.7367 Y0.7820  
G01 X-0.7180 Y0.7633  
G01 X-0.7180 Y0.7491  
G01 X-0.6217 Y0.6529  
G01 X-0.6137 Y0.6529  
G01 X-0.6050 Y0.6515  
G01 X-0.5966 Y0.6487  
G01 X-0.5888 Y0.6447  
G01 X-0.5816 Y0.6396  
G01 X-0.5754 Y0.6333  
G01 X-0.5702 Y0.6262  
G01 X-0.5662 Y0.6183  
G01 X-0.5635 Y0.6100  
G01 X-0.5621 Y0.6013  
G01 X-0.5621 Y0.4924  
G01 X-0.5635 Y0.4837  
G01 X-0.5662 Y0.4754  
G01 X-0.5702 Y0.4675  
G01 X-0.5754 Y0.4604  
G01 X-0.5816 Y0.4541  
G01 X-0.5888 Y0.4490  
G01 X-0.5966 Y0.4450  
G01 X-0.6050 Y0.4422  
G00 Z0.0500  
G00 X-0.8948 Y0.4086  
G01 Z-0.0040 F10    
G01 X-0.8899 Y0.4037  F20    
G01 X-0.8858 Y0.3981  
G01 X-0.8826 Y0.3919  
G01 X-0.8805 Y0.3853  
G01 X-0.8794 Y0.3785  
G01 X-0.8794 Y0.3715  
G01 X-0.8805 Y0.3647  
G01 X-0.8826 Y0.3581  
G01 X-0.8858 Y0.3519  
G01 X-0.8899 Y0.3463  
G01 X-0.8948 Y0.3414  
G01 X-0.9004 Y0.3374  
G01 X-0.9065 Y0.3342  
G01 X-0.9112 Y0.3327  
G01 X-0.9115 Y0.3324  
G01 X-0.9121 Y0.3320  
G01 X-0.9126 Y0.3316  
G01 X-0.9146 Y0.3306  
G01 X-0.9165 Y0.3295  
G01 X-0.9172 Y0.3293  
G01 X-0.9178 Y0.3290  
G01 X-0.9200 Y0.3286  
G01 X-0.9221 Y0.3280  
G01 X-0.9228 Y0.3280  
G01 X-0.9235 Y0.3279  
G01 X-0.9257 Y0.3280  
G01 X-0.9279 Y0.3280  
G01 X-0.9286 Y0.3282  
G01 X-0.9293 Y0.3282  
G01 X-0.9314 Y0.3289  
G01 X-0.9335 Y0.3295  
G01 X-0.9341 Y0.3299  
G01 X-0.9348 Y0.3301  
G01 X-0.9366 Y0.3313  
G01 X-0.9385 Y0.3324  
G01 X-0.9390 Y0.3329  
G01 X-0.9396 Y0.3333  
G01 X-0.9405 Y0.3343  
G01 X-0.9465 Y0.3374  
G01 X-0.9521 Y0.3414  
G01 X-0.9570 Y0.3463  
G01 X-0.9611 Y0.3519  
G01 X-0.9642 Y0.3581  
G01 X-0.9663 Y0.3647  
G01 X-0.9674 Y0.3715  
G01 X-0.9674 Y0.3785  
G01 X-0.9663 Y0.3853  
G01 X-0.9642 Y0.3919  
G01 X-0.9611 Y0.3981  
G01 X-0.9570 Y0.4037  
G01 X-0.9521 Y0.4086  
G01 X-0.9470 Y0.4123  
G01 X-0.9470 Y0.5493  
G01 X-0.9471 Y0.5516  
G01 X-0.9470 Y0.5522  
G01 X-0.9470 Y0.8930  
G01 X-0.9633 Y0.8930  
G01 X-0.9820 Y0.9117  
G01 X-0.9820 Y0.9199  
G01 X-1.0366 Y0.9563  
G01 X-1.0385 Y0.9574  
G01 X-1.0390 Y0.9579  
G01 X-1.0396 Y0.9583  
G01 X-1.0411 Y0.9599  
G01 X-1.0426 Y0.9615  
G01 X-1.0430 Y0.9621  
G01 X-1.0434 Y0.9627  
G01 X-1.0444 Y0.9646  
G01 X-1.0455 Y0.9665  
G01 X-1.0457 Y0.9672  
G01 X-1.0460 Y0.9678  
G01 X-1.0464 Y0.9700  
G01 X-1.0470 Y0.9721  
G01 X-1.0470 Y0.9728  
G01 X-1.0471 Y0.9735  
G01 X-1.0470 Y0.9757  
G01 X-1.0470 Y1.2987  
G01 X-1.0472 Y1.3003  
G01 X-1.0470 Y1.3016  
G01 X-1.0470 Y1.3029  
G01 X-1.0466 Y1.3044  
G01 X-1.0464 Y1.3060  
G01 X-1.0458 Y1.3072  
G01 X-1.0455 Y1.3085  
G01 X-1.0447 Y1.3099  
G01 X-1.0441 Y1.3113  
G01 X-1.0433 Y1.3124  
G01 X-1.0426 Y1.3135  
G01 X-1.0415 Y1.3146  
G01 X-1.0405 Y1.3159  
G01 X-1.0394 Y1.3167  
G01 X-1.0385 Y1.3176  
G01 X-1.0371 Y1.3184  
G01 X-1.0359 Y1.3194  
G01 X-1.0346 Y1.3198  
G01 X-1.0335 Y1.3205  
G01 X-1.0320 Y1.3209  
G01 X-0.9580 Y1.3505  
G01 X-0.9580 Y1.3532  
G01 X-0.9568 Y1.3593  
G01 X-0.9544 Y1.3652  
G01 X-0.9509 Y1.3704  
G01 X-0.9464 Y1.3749  
G01 X-0.9412 Y1.3784  
G01 X-0.9353 Y1.3808  
G01 X-0.9292 Y1.3820  
G01 X-0.8708 Y1.3820  
G01 X-0.8647 Y1.3808  
G01 X-0.8588 Y1.3784  
G01 X-0.8536 Y1.3749  
G01 X-0.8491 Y1.3704  
G01 X-0.8456 Y1.3652  
G01 X-0.8432 Y1.3593  
G01 X-0.8420 Y1.3532  
G01 X-0.8420 Y1.3468  
G01 X-0.8432 Y1.3407  
G01 X-0.8456 Y1.3348  
G01 X-0.8491 Y1.3296  
G01 X-0.8536 Y1.3251  
G01 X-0.8588 Y1.3216  
G01 X-0.8647 Y1.3192  
G01 X-0.8708 Y1.3180  
G01 X-0.9208 Y1.3180  
G01 X-1.0030 Y1.2851  
G01 X-1.0030 Y0.9868  
G01 X-0.9583 Y0.9570  
G01 X-0.9367 Y0.9570  
G01 X-0.9267 Y0.9470  
G01 X-0.9221 Y0.9470  
G01 X-0.9165 Y0.9455  
G01 X-0.9115 Y0.9426  
G01 X-0.9074 Y0.9385  
G01 X-0.9045 Y0.9335  
G01 X-0.9030 Y0.9279  
G01 X-0.9030 Y0.6375  
G01 X-0.8963 Y0.6375  
G01 X-0.8891 Y0.6361  
G01 X-0.8822 Y0.6332  
G01 X-0.8761 Y0.6291  
G01 X-0.8709 Y0.6239  
G01 X-0.8668 Y0.6178  
G01 X-0.8639 Y0.6109  
G01 X-0.8625 Y0.6037  
G01 X-0.8625 Y0.5963  
G01 X-0.8639 Y0.5891  
G01 X-0.8668 Y0.5822  
G01 X-0.8709 Y0.5761  
G01 X-0.8761 Y0.5709  
G01 X-0.8822 Y0.5668  
G01 X-0.8891 Y0.5639  
G01 X-0.8939 Y0.5630  
G01 X-0.9030 Y0.5448  
G01 X-0.9030 Y0.4140  
G01 X-0.9004 Y0.4126  
G01 X-0.8948 Y0.4086  
G00 Z0.0500  
G00 X-1.1071 Y0.4087  
G01 Z-0.0040 F10    
G01 X-1.1060 Y0.4019  F20    
G01 X-1.1060 Y0.3950  
G01 X-1.1071 Y0.3881  
G01 X-1.1092 Y0.3815  
G01 X-1.1124 Y0.3754  
G01 X-1.1164 Y0.3698  
G01 X-1.1213 Y0.3649  
G01 X-1.1269 Y0.3608  
G01 X-1.1331 Y0.3576  
G01 X-1.1397 Y0.3555  
G01 X-1.1465 Y0.3544  
G01 X-1.1535 Y0.3544  
G01 X-1.1603 Y0.3555  
G01 X-1.1669 Y0.3576  
G01 X-1.1731 Y0.3608  
G01 X-1.1787 Y0.3649  
G01 X-1.1836 Y0.3698  
G01 X-1.1876 Y0.3754  
G01 X-1.1908 Y0.3815  
G01 X-1.1929 Y0.3881  
G01 X-1.1940 Y0.3950  
G01 X-1.1940 Y0.4019  
G01 X-1.1929 Y0.4087  
G01 X-1.1908 Y0.4153  
G01 X-1.1876 Y0.4215  
G01 X-1.1836 Y0.4271  
G01 X-1.1787 Y0.4320  
G01 X-1.1731 Y0.4361  
G01 X-1.1720 Y0.4366  
G01 X-1.1720 Y0.5690  
G01 X-1.1875 Y0.5845  
G01 X-1.1875 Y0.6064  
G01 X-1.3135 Y0.7324  
G01 X-1.3176 Y0.7365  
G01 X-1.3205 Y0.7415  
G01 X-1.3220 Y0.7471  
G01 X-1.3220 Y1.7029  
G01 X-1.3205 Y1.7085  
G01 X-1.3176 Y1.7135  
G01 X-1.2820 Y1.7491  
G01 X-1.2820 Y1.7633  
G01 X-1.2633 Y1.7820  
G01 X-1.2367 Y1.7820  
G01 X-1.2180 Y1.7633  
G01 X-1.2180 Y1.7367  
G01 X-1.2367 Y1.7180  
G01 X-1.2509 Y1.7180  
G01 X-1.2780 Y1.6909  
G01 X-1.2780 Y1.3720  
G01 X-1.2493 Y1.3720  
G01 X-1.2464 Y1.3749  
G01 X-1.2412 Y1.3784  
G01 X-1.2353 Y1.3808  
G01 X-1.2292 Y1.3820  
G01 X-1.1708 Y1.3820  
G01 X-1.1647 Y1.3808  
G01 X-1.1588 Y1.3784  
G01 X-1.1536 Y1.3749  
G01 X-1.1491 Y1.3704  
G01 X-1.1456 Y1.3652  
G01 X-1.1432 Y1.3593  
G01 X-1.1420 Y1.3532  
G01 X-1.1420 Y1.3468  
G01 X-1.1432 Y1.3407  
G01 X-1.1456 Y1.3348  
G01 X-1.1491 Y1.3296  
G01 X-1.1536 Y1.3251  
G01 X-1.1588 Y1.3216  
G01 X-1.1647 Y1.3192  
G01 X-1.1708 Y1.3180  
G01 X-1.2292 Y1.3180  
G01 X-1.2353 Y1.3192  
G01 X-1.2412 Y1.3216  
G01 X-1.2464 Y1.3251  
G01 X-1.2493 Y1.3280  
G01 X-1.2780 Y1.3280  
G01 X-1.2780 Y0.7591  
G01 X-1.1564 Y0.6375  
G01 X-1.1345 Y0.6375  
G01 X-1.1125 Y0.6155  
G01 X-1.1125 Y0.5845  
G01 X-1.1280 Y0.5690  
G01 X-1.1280 Y0.4366  
G01 X-1.1269 Y0.4361  
G01 X-1.1213 Y0.4320  
G01 X-1.1164 Y0.4271  
G01 X-1.1124 Y0.4215  
G01 X-1.1092 Y0.4153  
G01 X-1.1071 Y0.4087  
G00 Z0.0500  
G00 X-1.1213 Y0.2351  
G01 Z-0.0040 F10    
G01 X-1.1164 Y0.2302  F20    
G01 X-1.1124 Y0.2246  
G01 X-1.1092 Y0.2185  
G01 X-1.1071 Y0.2120  
G01 X-0.9805 Y0.1803  
G01 X-0.9678 Y0.1930  
G01 X-0.9322 Y0.1930  
G01 X-0.9070 Y0.1678  
G01 X-0.9070 Y0.1322  
G01 X-0.9280 Y0.1112  
G01 X-0.9280 Y0.0888  
G01 X-0.9070 Y0.0678  
G01 X-0.9070 Y0.0322  
G01 X-0.9322 Y0.0070  
G01 X-0.9678 Y0.0070  
G01 X-0.9930 Y0.0322  
G01 X-0.9930 Y0.0678  
G01 X-0.9720 Y0.0888  
G01 X-0.9720 Y0.1112  
G01 X-0.9930 Y0.1322  
G01 X-0.9930 Y0.1381  
G01 X-1.1196 Y0.1697  
G01 X-1.1213 Y0.1680  
G01 X-1.1269 Y0.1639  
G01 X-1.1331 Y0.1608  
G01 X-1.1397 Y0.1587  
G01 X-1.1465 Y0.1576  
G01 X-1.1535 Y0.1576  
G01 X-1.1603 Y0.1587  
G01 X-1.1669 Y0.1608  
G01 X-1.1731 Y0.1639  
G01 X-1.1787 Y0.1680  
G01 X-1.1836 Y0.1729  
G01 X-1.1876 Y0.1785  
G01 X-1.1908 Y0.1847  
G01 X-1.1929 Y0.1913  
G01 X-1.1940 Y0.1981  
G01 X-1.1940 Y0.2050  
G01 X-1.1929 Y0.2119  
G01 X-1.1908 Y0.2185  
G01 X-1.1876 Y0.2246  
G01 X-1.1836 Y0.2302  
G01 X-1.1787 Y0.2351  
G01 X-1.1731 Y0.2392  
G01 X-1.1669 Y0.2424  
G01 X-1.1603 Y0.2445  
G01 X-1.1535 Y0.2456  
G01 X-1.1465 Y0.2456  
G01 X-1.1397 Y0.2445  
G01 X-1.1331 Y0.2424  
G01 X-1.1269 Y0.2392  
G01 X-1.1213 Y0.2351  
G00 Z0.0500  
G00 X-1.1367 Y0.7180  
G01 Z-0.0040 F10    
G01 X-1.1633 Y0.7180  F20    
G01 X-1.1820 Y0.7367  
G01 X-1.1820 Y0.7509  
G01 X-1.2385 Y0.8074  
G01 X-1.2426 Y0.8115  
G01 X-1.2455 Y0.8165  
G01 X-1.2470 Y0.8221  
G01 X-1.2470 Y1.0257  
G01 X-1.2509 Y1.0296  
G01 X-1.2544 Y1.0348  
G01 X-1.2568 Y1.0407  
G01 X-1.2580 Y1.0468  
G01 X-1.2580 Y1.0532  
G01 X-1.2568 Y1.0593  
G01 X-1.2544 Y1.0652  
G01 X-1.2509 Y1.0704  
G01 X-1.2464 Y1.0749  
G01 X-1.2412 Y1.0784  
G01 X-1.2353 Y1.0808  
G01 X-1.2292 Y1.0820  
G01 X-1.2220 Y1.0820  
G01 X-1.2220 Y1.1180  
G01 X-1.2292 Y1.1180  
G01 X-1.2353 Y1.1192  
G01 X-1.2412 Y1.1216  
G01 X-1.2464 Y1.1251  
G01 X-1.2509 Y1.1296  
G01 X-1.2544 Y1.1348  
G01 X-1.2568 Y1.1407  
G01 X-1.2580 Y1.1468  
G01 X-1.2580 Y1.1532  
G01 X-1.2568 Y1.1593  
G01 X-1.2544 Y1.1652  
G01 X-1.2509 Y1.1704  
G01 X-1.2464 Y1.1749  
G01 X-1.2412 Y1.1784  
G01 X-1.2353 Y1.1808  
G01 X-1.2292 Y1.1820  
G01 X-1.1708 Y1.1820  
G01 X-1.1647 Y1.1808  
G01 X-1.1588 Y1.1784  
G01 X-1.1536 Y1.1749  
G01 X-1.1491 Y1.1704  
G01 X-1.1456 Y1.1652  
G01 X-1.1432 Y1.1593  
G01 X-1.1420 Y1.1532  
G01 X-1.1420 Y1.1468  
G01 X-1.1432 Y1.1407  
G01 X-1.1456 Y1.1348  
G01 X-1.1491 Y1.1296  
G01 X-1.1536 Y1.1251  
G01 X-1.1588 Y1.1216  
G01 X-1.1647 Y1.1192  
G01 X-1.1708 Y1.1180  
G01 X-1.1780 Y1.1180  
G01 X-1.1780 Y1.0820  
G01 X-1.1708 Y1.0820  
G01 X-1.1647 Y1.0808  
G01 X-1.1588 Y1.0784  
G01 X-1.1536 Y1.0749  
G01 X-1.1491 Y1.0704  
G01 X-1.1456 Y1.0652  
G01 X-1.1432 Y1.0593  
G01 X-1.1420 Y1.0532  
G01 X-1.1420 Y1.0468  
G01 X-1.1432 Y1.0407  
G01 X-1.1456 Y1.0348  
G01 X-1.1491 Y1.0296  
G01 X-1.1536 Y1.0251  
G01 X-1.1588 Y1.0216  
G01 X-1.1647 Y1.0192  
G01 X-1.1708 Y1.0180  
G01 X-1.2009 Y1.0180  
G01 X-1.2030 Y1.0159  
G01 X-1.2030 Y0.8341  
G01 X-1.1509 Y0.7820  
G01 X-1.1367 Y0.7820  
G01 X-1.1180 Y0.7633  
G01 X-1.1180 Y0.7367  
G01 X-1.1367 Y0.7180  
G00 Z0.0500  
G00 X-0.9464 Y1.0251  
G01 Z-0.0040 F10    
G01 X-0.9509 Y1.0296  F20    
G01 X-0.9544 Y1.0348  
G01 X-0.9568 Y1.0407  
G01 X-0.9580 Y1.0468  
G01 X-0.9580 Y1.0532  
G01 X-0.9568 Y1.0593  
G01 X-0.9544 Y1.0652  
G01 X-0.9509 Y1.0704  
G01 X-0.9464 Y1.0749  
G01 X-0.9412 Y1.0784  
G01 X-0.9353 Y1.0808  
G01 X-0.9292 Y1.0820  
G01 X-0.9220 Y1.0820  
G01 X-0.9220 Y1.1180  
G01 X-0.9292 Y1.1180  
G01 X-0.9353 Y1.1192  
G01 X-0.9412 Y1.1216  
G01 X-0.9464 Y1.1251  
G01 X-0.9509 Y1.1296  
G01 X-0.9544 Y1.1348  
G01 X-0.9568 Y1.1407  
G01 X-0.9580 Y1.1468  
G01 X-0.9580 Y1.1532  
G01 X-0.9568 Y1.1593  
G01 X-0.9544 Y1.1652  
G01 X-0.9509 Y1.1704  
G01 X-0.9464 Y1.1749  
G01 X-0.9412 Y1.1784  
G01 X-0.9353 Y1.1808  
G01 X-0.9292 Y1.1820  
G01 X-0.8708 Y1.1820  
G01 X-0.8647 Y1.1808  
G01 X-0.8588 Y1.1784  
G01 X-0.8536 Y1.1749  
G01 X-0.8491 Y1.1704  
G01 X-0.8456 Y1.1652  
G01 X-0.8432 Y1.1593  
G01 X-0.8420 Y1.1532  
G01 X-0.8420 Y1.1468  
G01 X-0.8432 Y1.1407  
G01 X-0.8456 Y1.1348  
G01 X-0.8491 Y1.1296  
G01 X-0.8536 Y1.1251  
G01 X-0.8588 Y1.1216  
G01 X-0.8647 Y1.1192  
G01 X-0.8708 Y1.1180  
G01 X-0.8780 Y1.1180  
G01 X-0.8780 Y1.0820  
G01 X-0.8708 Y1.0820  
G01 X-0.8647 Y1.0808  
G01 X-0.8588 Y1.0784  
G01 X-0.8536 Y1.0749  
G01 X-0.8491 Y1.0704  
G01 X-0.8456 Y1.0652  
G01 X-0.8432 Y1.0593  
G01 X-0.8420 Y1.0532  
G01 X-0.8420 Y1.0468  
G01 X-0.8432 Y1.0407  
G01 X-0.8456 Y1.0348  
G01 X-0.8467 Y1.0333  
G01 X-0.7285 Y0.9320  
G01 X-0.7117 Y0.9320  
G01 X-0.6930 Y0.9133  
G01 X-0.6930 Y0.8867  
G01 X-0.7117 Y0.8680  
G01 X-0.7383 Y0.8680  
G01 X-0.7570 Y0.8867  
G01 X-0.7570 Y0.8985  
G01 X-0.8965 Y1.0180  
G01 X-0.9292 Y1.0180  
G01 X-0.9353 Y1.0192  
G01 X-0.9412 Y1.0216  
G01 X-0.9464 Y1.0251  
G00 Z0.0500  
G00 X-0.9464 Y1.2251  
G01 Z-0.0040 F10    
G01 X-0.9509 Y1.2296  F20    
G01 X-0.9544 Y1.2348  
G01 X-0.9568 Y1.2407  
G01 X-0.9580 Y1.2468  
G01 X-0.9580 Y1.2532  
G01 X-0.9568 Y1.2593  
G01 X-0.9544 Y1.2652  
G01 X-0.9509 Y1.2704  
G01 X-0.9464 Y1.2749  
G01 X-0.9412 Y1.2784  
G01 X-0.9353 Y1.2808  
G01 X-0.9292 Y1.2820  
G01 X-0.8708 Y1.2820  
G01 X-0.8647 Y1.2808  
G01 X-0.8588 Y1.2784  
G01 X-0.8536 Y1.2749  
G01 X-0.8522 Y1.2735  
G01 X-0.8220 Y1.2886  
G01 X-0.8220 Y1.4114  
G01 X-0.8522 Y1.4265  
G01 X-0.8536 Y1.4251  
G01 X-0.8588 Y1.4216  
G01 X-0.8647 Y1.4192  
G01 X-0.8708 Y1.4180  
G01 X-0.9292 Y1.4180  
G01 X-0.9353 Y1.4192  
G01 X-0.9412 Y1.4216  
G01 X-0.9464 Y1.4251  
G01 X-0.9493 Y1.4280  
G01 X-1.0780 Y1.4280  
G01 X-1.0780 Y1.2772  
G01 X-1.0779 Y1.2766  
G01 X-1.0780 Y1.2743  
G01 X-1.0780 Y1.2721  
G01 X-1.0782 Y1.2715  
G01 X-1.0782 Y1.2708  
G01 X-1.0789 Y1.2687  
G01 X-1.0795 Y1.2665  
G01 X-1.0798 Y1.2659  
G01 X-1.0800 Y1.2653  
G01 X-1.0813 Y1.2634  
G01 X-1.0824 Y1.2615  
G01 X-1.0829 Y1.2610  
G01 X-1.0832 Y1.2605  
G01 X-1.0849 Y1.2590  
G01 X-1.0865 Y1.2574  
G01 X-1.0871 Y1.2571  
G01 X-1.0876 Y1.2566  
G01 X-1.0896 Y1.2556  
G01 X-1.0915 Y1.2545  
G01 X-1.0922 Y1.2543  
G01 X-1.1396 Y1.2306  
G01 X-1.1415 Y1.2295  
G01 X-1.1422 Y1.2293  
G01 X-1.1428 Y1.2290  
G01 X-1.1449 Y1.2286  
G01 X-1.1471 Y1.2280  
G01 X-1.1478 Y1.2280  
G01 X-1.1484 Y1.2279  
G01 X-1.1507 Y1.2280  
G01 X-1.1536 Y1.2251  
G01 X-1.1588 Y1.2216  
G01 X-1.1647 Y1.2192  
G01 X-1.1708 Y1.2180  
G01 X-1.2292 Y1.2180  
G01 X-1.2353 Y1.2192  
G01 X-1.2412 Y1.2216  
G01 X-1.2464 Y1.2251  
G01 X-1.2509 Y1.2296  
G01 X-1.2544 Y1.2348  
G01 X-1.2568 Y1.2407  
G01 X-1.2580 Y1.2468  
G01 X-1.2580 Y1.2532  
G01 X-1.2568 Y1.2593  
G01 X-1.2544 Y1.2652  
G01 X-1.2509 Y1.2704  
G01 X-1.2464 Y1.2749  
G01 X-1.2412 Y1.2784  
G01 X-1.2353 Y1.2808  
G01 X-1.2292 Y1.2820  
G01 X-1.1708 Y1.2820  
G01 X-1.1647 Y1.2808  
G01 X-1.1588 Y1.2784  
G01 X-1.1536 Y1.2749  
G01 X-1.1522 Y1.2735  
G01 X-1.1220 Y1.2886  
G01 X-1.1220 Y1.4280  
G01 X-1.1507 Y1.4280  
G01 X-1.1536 Y1.4251  
G01 X-1.1588 Y1.4216  
G01 X-1.1647 Y1.4192  
G01 X-1.1708 Y1.4180  
G01 X-1.2292 Y1.4180  
G01 X-1.2353 Y1.4192  
G01 X-1.2412 Y1.4216  
G01 X-1.2464 Y1.4251  
G01 X-1.2509 Y1.4296  
G01 X-1.2544 Y1.4348  
G01 X-1.2568 Y1.4407  
G01 X-1.2580 Y1.4468  
G01 X-1.2580 Y1.4532  
G01 X-1.2568 Y1.4593  
G01 X-1.2544 Y1.4652  
G01 X-1.2509 Y1.4704  
G01 X-1.2464 Y1.4749  
G01 X-1.2412 Y1.4784  
G01 X-1.2353 Y1.4808  
G01 X-1.2292 Y1.4820  
G01 X-1.1708 Y1.4820  
G01 X-1.1647 Y1.4808  
G01 X-1.1588 Y1.4784  
G01 X-1.1536 Y1.4749  
G01 X-1.1507 Y1.4720  
G01 X-1.0220 Y1.4720  
G01 X-1.0220 Y1.6992  
G01 X-1.0222 Y1.7012  
G01 X-1.0220 Y1.7020  
G01 X-1.0220 Y1.7029  
G01 X-1.0215 Y1.7049  
G01 X-1.0211 Y1.7069  
G01 X-1.0207 Y1.7077  
G01 X-1.0205 Y1.7085  
G01 X-1.0195 Y1.7103  
G01 X-1.0186 Y1.7121  
G01 X-1.0180 Y1.7128  
G01 X-1.0176 Y1.7135  
G01 X-1.0162 Y1.7150  
G01 X-0.8680 Y1.8878  
G01 X-0.8676 Y1.8885  
G01 X-0.8662 Y1.8900  
G01 X-0.8648 Y1.8915  
G01 X-0.8641 Y1.8920  
G01 X-0.8070 Y1.9491  
G01 X-0.8070 Y1.9633  
G01 X-0.7883 Y1.9820  
G01 X-0.7741 Y1.9820  
G01 X-0.7720 Y1.9841  
G01 X-0.7720 Y2.2029  
G01 X-0.7705 Y2.2085  
G01 X-0.7676 Y2.2135  
G01 X-0.7635 Y2.2176  
G01 X-0.6650 Y2.3161  
G01 X-0.6660 Y2.3175  
G01 X-0.6700 Y2.3254  
G01 X-0.6727 Y2.3337  
G01 X-0.6741 Y2.3424  
G01 X-0.6741 Y2.4513  
G01 X-0.6727 Y2.4600  
G01 X-0.6700 Y2.4683  
G01 X-0.6660 Y2.4762  
G01 X-0.6608 Y2.4833  
G01 X-0.6546 Y2.4896  
G01 X-0.6475 Y2.4947  
G01 X-0.6396 Y2.4987  
G01 X-0.6312 Y2.5015  
G01 X-0.6225 Y2.5029  
G01 X-0.6137 Y2.5029  
G01 X-0.6050 Y2.5015  
G01 X-0.5966 Y2.4987  
G01 X-0.5888 Y2.4947  
G01 X-0.5816 Y2.4896  
G01 X-0.5754 Y2.4833  
G01 X-0.5702 Y2.4762  
G01 X-0.5662 Y2.4683  
G01 X-0.5635 Y2.4600  
G01 X-0.5621 Y2.4513  
G01 X-0.5621 Y2.3424  
G01 X-0.5635 Y2.3337  
G01 X-0.5662 Y2.3254  
G01 X-0.5702 Y2.3175  
G01 X-0.5754 Y2.3104  
G01 X-0.5816 Y2.3041  
G01 X-0.5888 Y2.2990  
G01 X-0.5966 Y2.2950  
G01 X-0.6050 Y2.2922  
G01 X-0.6137 Y2.2909  
G01 X-0.6225 Y2.2909  
G01 X-0.6273 Y2.2916  
G01 X-0.7280 Y2.1909  
G01 X-0.7280 Y1.9721  
G01 X-0.7295 Y1.9665  
G01 X-0.7324 Y1.9615  
G01 X-0.7430 Y1.9509  
G01 X-0.7430 Y1.9367  
G01 X-0.7617 Y1.9180  
G01 X-0.7759 Y1.9180  
G01 X-0.8338 Y1.8600  
G01 X-0.9780 Y1.6919  
G01 X-0.9780 Y1.4720  
G01 X-0.9493 Y1.4720  
G01 X-0.9464 Y1.4749  
G01 X-0.9412 Y1.4784  
G01 X-0.9353 Y1.4808  
G01 X-0.9292 Y1.4820  
G01 X-0.8708 Y1.4820  
G01 X-0.8647 Y1.4808  
G01 X-0.8588 Y1.4784  
G01 X-0.8536 Y1.4749  
G01 X-0.8507 Y1.4720  
G01 X-0.8484 Y1.4721  
G01 X-0.8478 Y1.4720  
G01 X-0.8471 Y1.4720  
G01 X-0.8449 Y1.4714  
G01 X-0.8428 Y1.4710  
G01 X-0.8422 Y1.4707  
G01 X-0.8415 Y1.4705  
G01 X-0.8396 Y1.4694  
G01 X-0.7922 Y1.4457  
G01 X-0.7915 Y1.4455  
G01 X-0.7896 Y1.4444  
G01 X-0.7876 Y1.4434  
G01 X-0.7871 Y1.4429  
G01 X-0.7865 Y1.4426  
G01 X-0.7849 Y1.4410  
G01 X-0.7832 Y1.4395  
G01 X-0.7829 Y1.4390  
G01 X-0.7824 Y1.4385  
G01 X-0.7813 Y1.4366  
G01 X-0.7800 Y1.4347  
G01 X-0.7798 Y1.4341  
G01 X-0.7795 Y1.4335  
G01 X-0.7789 Y1.4313  
G01 X-0.7782 Y1.4292  
G01 X-0.7782 Y1.4285  
G01 X-0.7780 Y1.4279  
G01 X-0.7780 Y1.4257  
G01 X-0.7779 Y1.4234  
G01 X-0.7780 Y1.4228  
G01 X-0.7780 Y1.2772  
G01 X-0.7779 Y1.2766  
G01 X-0.7780 Y1.2743  
G01 X-0.7780 Y1.2721  
G01 X-0.7782 Y1.2715  
G01 X-0.7782 Y1.2708  
G01 X-0.7789 Y1.2687  
G01 X-0.7795 Y1.2665  
G01 X-0.7798 Y1.2659  
G01 X-0.7800 Y1.2653  
G01 X-0.7813 Y1.2634  
G01 X-0.7824 Y1.2615  
G01 X-0.7829 Y1.2610  
G01 X-0.7832 Y1.2605  
G01 X-0.7849 Y1.2590  
G01 X-0.7865 Y1.2574  
G01 X-0.7871 Y1.2571  
G01 X-0.7876 Y1.2566  
G01 X-0.7896 Y1.2556  
G01 X-0.7915 Y1.2545  
G01 X-0.7922 Y1.2543  
G01 X-0.8396 Y1.2306  
G01 X-0.8415 Y1.2295  
G01 X-0.8422 Y1.2293  
G01 X-0.8428 Y1.2290  
G01 X-0.8449 Y1.2286  
G01 X-0.8471 Y1.2280  
G01 X-0.8478 Y1.2280  
G01 X-0.8484 Y1.2279  
G01 X-0.8507 Y1.2280  
G01 X-0.8536 Y1.2251  
G01 X-0.8588 Y1.2216  
G01 X-0.8647 Y1.2192  
G01 X-0.8708 Y1.2180  
G01 X-0.9292 Y1.2180  
G01 X-0.9353 Y1.2192  
G01 X-0.9412 Y1.2216  
G01 X-0.9464 Y1.2251  
G00 Z0.0500  
G00 X-0.7570 Y1.2867  
G01 Z-0.0040 F10    
G01 X-0.7570 Y1.3133  F20    
G01 X-0.7383 Y1.3320  
G01 X-0.7117 Y1.3320  
G01 X-0.6930 Y1.3133  
G01 X-0.6930 Y1.2991  
G01 X-0.6005 Y1.2066  
G01 X-0.5976 Y1.2016  
G01 X-0.5969 Y1.1988  
G01 X-0.5966 Y1.1987  
G01 X-0.5888 Y1.1947  
G01 X-0.5816 Y1.1896  
G01 X-0.5754 Y1.1833  
G01 X-0.5702 Y1.1762  
G01 X-0.5662 Y1.1683  
G01 X-0.5635 Y1.1600  
G01 X-0.5621 Y1.1513  
G01 X-0.5621 Y1.0424  
G01 X-0.5635 Y1.0337  
G01 X-0.5662 Y1.0254  
G01 X-0.5702 Y1.0175  
G01 X-0.5754 Y1.0104  
G01 X-0.5816 Y1.0041  
G01 X-0.5888 Y0.9990  
G01 X-0.5966 Y0.9950  
G01 X-0.6050 Y0.9922  
G01 X-0.6137 Y0.9909  
G01 X-0.6225 Y0.9909  
G01 X-0.6312 Y0.9922  
G01 X-0.6396 Y0.9950  
G01 X-0.6475 Y0.9990  
G01 X-0.6546 Y1.0041  
G01 X-0.6608 Y1.0104  
G01 X-0.6660 Y1.0175  
G01 X-0.6700 Y1.0254  
G01 X-0.6727 Y1.0337  
G01 X-0.6741 Y1.0424  
G01 X-0.6741 Y1.1513  
G01 X-0.6727 Y1.1600  
G01 X-0.6700 Y1.1683  
G01 X-0.6660 Y1.1762  
G01 X-0.6608 Y1.1833  
G01 X-0.6546 Y1.1896  
G01 X-0.6494 Y1.1933  
G01 X-0.7241 Y1.2680  
G01 X-0.7383 Y1.2680  
G01 X-0.7570 Y1.2867  
G00 Z0.0500  
G00 X-0.7570 Y1.4367  
G01 Z-0.0040 F10    
G01 X-0.7570 Y1.4633  F20    
G01 X-0.7522 Y1.4681  
G01 X-0.7672 Y1.5280  
G01 X-0.8507 Y1.5280  
G01 X-0.8536 Y1.5251  
G01 X-0.8588 Y1.5216  
G01 X-0.8647 Y1.5192  
G01 X-0.8708 Y1.5180  
G01 X-0.9292 Y1.5180  
G01 X-0.9353 Y1.5192  
G01 X-0.9412 Y1.5216  
G01 X-0.9464 Y1.5251  
G01 X-0.9509 Y1.5296  
G01 X-0.9544 Y1.5348  
G01 X-0.9568 Y1.5407  
G01 X-0.9580 Y1.5468  
G01 X-0.9580 Y1.5532  
G01 X-0.9568 Y1.5593  
G01 X-0.9544 Y1.5652  
G01 X-0.9509 Y1.5704  
G01 X-0.9464 Y1.5749  
G01 X-0.9412 Y1.5784  
G01 X-0.9353 Y1.5808  
G01 X-0.9292 Y1.5820  
G01 X-0.9220 Y1.5820  
G01 X-0.9220 Y1.6180  
G01 X-0.9292 Y1.6180  
G01 X-0.9353 Y1.6192  
G01 X-0.9412 Y1.6216  
G01 X-0.9464 Y1.6251  
G01 X-0.9509 Y1.6296  
G01 X-0.9544 Y1.6348  
G01 X-0.9568 Y1.6407  
G01 X-0.9580 Y1.6468  
G01 X-0.9580 Y1.6532  
G01 X-0.9568 Y1.6593  
G01 X-0.9544 Y1.6652  
G01 X-0.9509 Y1.6704  
G01 X-0.9464 Y1.6749  
G01 X-0.9412 Y1.6784  
G01 X-0.9353 Y1.6808  
G01 X-0.9292 Y1.6820  
G01 X-0.8708 Y1.6820  
G01 X-0.8647 Y1.6808  
G01 X-0.8588 Y1.6784  
G01 X-0.8536 Y1.6749  
G01 X-0.8491 Y1.6704  
G01 X-0.8456 Y1.6652  
G01 X-0.8432 Y1.6593  
G01 X-0.8420 Y1.6532  
G01 X-0.8420 Y1.6468  
G01 X-0.8432 Y1.6407  
G01 X-0.8456 Y1.6348  
G01 X-0.8491 Y1.6296  
G01 X-0.8536 Y1.6251  
G01 X-0.8588 Y1.6216  
G01 X-0.8647 Y1.6192  
G01 X-0.8708 Y1.6180  
G01 X-0.8780 Y1.6180  
G01 X-0.8780 Y1.5820  
G01 X-0.8708 Y1.5820  
G01 X-0.8647 Y1.5808  
G01 X-0.8588 Y1.5784  
G01 X-0.8536 Y1.5749  
G01 X-0.8507 Y1.5720  
G01 X-0.7527 Y1.5720  
G01 X-0.7525 Y1.5720  
G01 X-0.7498 Y1.5720  
G01 X-0.7471 Y1.5720  
G01 X-0.7469 Y1.5720  
G01 X-0.7467 Y1.5719  
G01 X-0.7441 Y1.5712  
G01 X-0.7415 Y1.5705  
G01 X-0.7413 Y1.5704  
G01 X-0.7412 Y1.5704  
G01 X-0.7388 Y1.5690  
G01 X-0.7365 Y1.5676  
G01 X-0.7364 Y1.5675  
G01 X-0.7362 Y1.5674  
G01 X-0.7343 Y1.5654  
G01 X-0.7324 Y1.5635  
G01 X-0.7323 Y1.5633  
G01 X-0.7322 Y1.5632  
G01 X-0.7309 Y1.5608  
G01 X-0.7295 Y1.5585  
G01 X-0.7295 Y1.5583  
G01 X-0.7294 Y1.5581  
G01 X-0.7287 Y1.5555  
G01 X-0.7280 Y1.5529  
G01 X-0.7280 Y1.5527  
G01 X-0.7098 Y1.4801  
G01 X-0.6930 Y1.4633  
G01 X-0.6930 Y1.4367  
G01 X-0.7117 Y1.4180  
G01 X-0.7383 Y1.4180  
G01 X-0.7570 Y1.4367  
G00 Z0.0500  
G00 X-0.6375 Y1.4377  
G01 Z-0.0040 F10    
G01 X-0.6375 Y1.4465  F20    
G01 X-0.6361 Y1.4552  
G01 X-0.6334 Y1.4636  
G01 X-0.6294 Y1.4715  
G01 X-0.6242 Y1.4786  
G01 X-0.6180 Y1.4848  
G01 X-0.6108 Y1.4900  
G01 X-0.6030 Y1.4940  
G01 X-0.5946 Y1.4967  
G01 X-0.5859 Y1.4981  
G01 X-0.4771 Y1.4981  
G01 X-0.4684 Y1.4967  
G01 X-0.4600 Y1.4940  
G01 X-0.4521 Y1.4900  
G01 X-0.4450 Y1.4848  
G01 X-0.4388 Y1.4786  
G01 X-0.4336 Y1.4715  
G01 X-0.4296 Y1.4636  
G01 X-0.4269 Y1.4552  
G01 X-0.4255 Y1.4465  
G01 X-0.4255 Y1.4377  
G01 X-0.4269 Y1.4290  
G01 X-0.4296 Y1.4206  
G01 X-0.4336 Y1.4128  
G01 X-0.4388 Y1.4056  
G01 X-0.4450 Y1.3994  
G01 X-0.4521 Y1.3942  
G01 X-0.4600 Y1.3902  
G01 X-0.4684 Y1.3875  
G01 X-0.4771 Y1.3861  
G01 X-0.5859 Y1.3861  
G01 X-0.5946 Y1.3875  
G01 X-0.6030 Y1.3902  
G01 X-0.6108 Y1.3942  
G01 X-0.6180 Y1.3994  
G01 X-0.6242 Y1.4056  
G01 X-0.6294 Y1.4128  
G01 X-0.6334 Y1.4206  
G01 X-0.6361 Y1.4290  
G01 X-0.6375 Y1.4377  
G00 Z0.0500  
G00 X-0.6396 Y1.5450  
G01 Z-0.0040 F10    
G01 X-0.6475 Y1.5490  F20    
G01 X-0.6546 Y1.5541  
G01 X-0.6608 Y1.5604  
G01 X-0.6660 Y1.5675  
G01 X-0.6700 Y1.5754  
G01 X-0.6727 Y1.5837  
G01 X-0.6741 Y1.5924  
G01 X-0.6741 Y1.7013  
G01 X-0.6727 Y1.7100  
G01 X-0.6700 Y1.7183  
G01 X-0.6660 Y1.7262  
G01 X-0.6608 Y1.7333  
G01 X-0.6546 Y1.7396  
G01 X-0.6475 Y1.7447  
G01 X-0.6401 Y1.7485  
G01 X-0.6401 Y1.7590  
G01 X-0.7054 Y1.8243  
G01 X-0.7117 Y1.8180  
G01 X-0.7383 Y1.8180  
G01 X-0.7570 Y1.8367  
G01 X-0.7570 Y1.8633  
G01 X-0.7383 Y1.8820  
G01 X-0.7117 Y1.8820  
G01 X-0.7017 Y1.8720  
G01 X-0.6971 Y1.8720  
G01 X-0.6915 Y1.8705  
G01 X-0.6865 Y1.8676  
G01 X-0.6824 Y1.8635  
G01 X-0.6005 Y1.7816  
G01 X-0.5976 Y1.7766  
G01 X-0.5961 Y1.7710  
G01 X-0.5961 Y1.7485  
G01 X-0.5888 Y1.7447  
G01 X-0.5816 Y1.7396  
G01 X-0.5754 Y1.7333  
G01 X-0.5702 Y1.7262  
G01 X-0.5662 Y1.7183  
G01 X-0.5635 Y1.7100  
G01 X-0.5621 Y1.7013  
G01 X-0.5621 Y1.5924  
G01 X-0.5635 Y1.5837  
G01 X-0.5662 Y1.5754  
G01 X-0.5702 Y1.5675  
G01 X-0.5754 Y1.5604  
G01 X-0.5816 Y1.5541  
G01 X-0.5888 Y1.5490  
G01 X-0.5966 Y1.5450  
G01 X-0.6050 Y1.5422  
G01 X-0.6137 Y1.5409  
G01 X-0.6225 Y1.5409  
G01 X-0.6312 Y1.5422  
G01 X-0.6396 Y1.5450  
G00 Z0.0500  
G00 X-1.0532 Y1.5460  
G01 Z-0.0040 F10    
G01 X-1.0539 Y1.5438  F20    
G01 X-1.0545 Y1.5415  
G01 X-1.0548 Y1.5410  
G01 X-1.0549 Y1.5405  
G01 X-1.0562 Y1.5385  
G01 X-1.0574 Y1.5365  
G01 X-1.0578 Y1.5361  
G01 X-1.0581 Y1.5356  
G01 X-1.0598 Y1.5341  
G01 X-1.0615 Y1.5324  
G01 X-1.0620 Y1.5321  
G01 X-1.0624 Y1.5317  
G01 X-1.0645 Y1.5307  
G01 X-1.0665 Y1.5295  
G01 X-1.0670 Y1.5294  
G01 X-1.0675 Y1.5291  
G01 X-1.0698 Y1.5286  
G01 X-1.0721 Y1.5280  
G01 X-1.0727 Y1.5280  
G01 X-1.0732 Y1.5279  
G01 X-1.0756 Y1.5280  
G01 X-1.1507 Y1.5280  
G01 X-1.1536 Y1.5251  
G01 X-1.1588 Y1.5216  
G01 X-1.1647 Y1.5192  
G01 X-1.1708 Y1.5180  
G01 X-1.2292 Y1.5180  
G01 X-1.2353 Y1.5192  
G01 X-1.2412 Y1.5216  
G01 X-1.2464 Y1.5251  
G01 X-1.2509 Y1.5296  
G01 X-1.2544 Y1.5348  
G01 X-1.2568 Y1.5407  
G01 X-1.2580 Y1.5468  
G01 X-1.2580 Y1.5532  
G01 X-1.2568 Y1.5593  
G01 X-1.2544 Y1.5652  
G01 X-1.2509 Y1.5704  
G01 X-1.2464 Y1.5749  
G01 X-1.2412 Y1.5784  
G01 X-1.2353 Y1.5808  
G01 X-1.2292 Y1.5820  
G01 X-1.1708 Y1.5820  
G01 X-1.1647 Y1.5808  
G01 X-1.1588 Y1.5784  
G01 X-1.1536 Y1.5749  
G01 X-1.1507 Y1.5720  
G01 X-1.0959 Y1.5720  
G01 X-1.0731 Y2.0279  
G01 X-1.0820 Y2.0367  
G01 X-1.0820 Y2.0633  
G01 X-1.0633 Y2.0820  
G01 X-1.0367 Y2.0820  
G01 X-1.0180 Y2.0633  
G01 X-1.0180 Y2.0491  
G01 X-1.0114 Y2.0425  
G01 X-0.9106 Y1.9820  
G01 X-0.8867 Y1.9820  
G01 X-0.8680 Y1.9633  
G01 X-0.8680 Y1.9367  
G01 X-0.8867 Y1.9180  
G01 X-0.9133 Y1.9180  
G01 X-0.9320 Y1.9367  
G01 X-0.9320 Y1.9435  
G01 X-1.0303 Y2.0026  
G01 X-1.0530 Y1.5495  
G01 X-1.0530 Y1.5471  
G01 X-1.0531 Y1.5466  
G01 X-1.0532 Y1.5460  
G00 Z0.0500  
G00 X-1.1491 Y1.6296  
G01 Z-0.0040 F10    
G01 X-1.1536 Y1.6251  F20    
G01 X-1.1588 Y1.6216  
G01 X-1.1647 Y1.6192  
G01 X-1.1708 Y1.6180  
G01 X-1.2292 Y1.6180  
G01 X-1.2353 Y1.6192  
G01 X-1.2412 Y1.6216  
G01 X-1.2464 Y1.6251  
G01 X-1.2509 Y1.6296  
G01 X-1.2544 Y1.6348  
G01 X-1.2568 Y1.6407  
G01 X-1.2580 Y1.6468  
G01 X-1.2580 Y1.6532  
G01 X-1.2568 Y1.6593  
G01 X-1.2544 Y1.6652  
G01 X-1.2509 Y1.6704  
G01 X-1.2464 Y1.6749  
G01 X-1.2412 Y1.6784  
G01 X-1.2353 Y1.6808  
G01 X-1.2292 Y1.6820  
G01 X-1.2051 Y1.6820  
G01 X-1.1720 Y1.7317  
G01 X-1.1720 Y2.0267  
G01 X-1.1820 Y2.0367  
G01 X-1.1820 Y2.0633  
G01 X-1.1633 Y2.0820  
G01 X-1.1367 Y2.0820  
G01 X-1.1180 Y2.0633  
G01 X-1.1180 Y2.0367  
G01 X-1.1280 Y2.0267  
G01 X-1.1280 Y1.7272  
G01 X-1.1279 Y1.7265  
G01 X-1.1280 Y1.7243  
G01 X-1.1280 Y1.7221  
G01 X-1.1282 Y1.7214  
G01 X-1.1282 Y1.7207  
G01 X-1.1289 Y1.7186  
G01 X-1.1295 Y1.7165  
G01 X-1.1299 Y1.7159  
G01 X-1.1301 Y1.7152  
G01 X-1.1313 Y1.7134  
G01 X-1.1324 Y1.7115  
G01 X-1.1329 Y1.7110  
G01 X-1.1559 Y1.6764  
G01 X-1.1536 Y1.6749  
G01 X-1.1491 Y1.6704  
G01 X-1.1456 Y1.6652  
G01 X-1.1432 Y1.6593  
G01 X-1.1420 Y1.6532  
G01 X-1.1420 Y1.6468  
G01 X-1.1432 Y1.6407  
G01 X-1.1456 Y1.6348  
G01 X-1.1491 Y1.6296  
G00 Z0.0500  
G00 X-0.5820 Y1.9867  
G01 Z-0.0040 F10    
G01 X-0.5820 Y2.0133  F20    
G01 X-0.5720 Y2.0233  
G01 X-0.5720 Y2.1361  
G01 X-0.5859 Y2.1361  
G01 X-0.5946 Y2.1375  
G01 X-0.6030 Y2.1402  
G01 X-0.6108 Y2.1442  
G01 X-0.6180 Y2.1494  
G01 X-0.6242 Y2.1556  
G01 X-0.6294 Y2.1628  
G01 X-0.6334 Y2.1706  
G01 X-0.6361 Y2.1790  
G01 X-0.6375 Y2.1877  
G01 X-0.6375 Y2.1965  
G01 X-0.6361 Y2.2052  
G01 X-0.6334 Y2.2136  
G01 X-0.6294 Y2.2215  
G01 X-0.6242 Y2.2286  
G01 X-0.6180 Y2.2348  
G01 X-0.6108 Y2.2400  
G01 X-0.6030 Y2.2440  
G01 X-0.5946 Y2.2467  
G01 X-0.5859 Y2.2481  
G01 X-0.4771 Y2.2481  
G01 X-0.4684 Y2.2467  
G01 X-0.4600 Y2.2440  
G01 X-0.4521 Y2.2400  
G01 X-0.4450 Y2.2348  
G01 X-0.4388 Y2.2286  
G01 X-0.4336 Y2.2215  
G01 X-0.4296 Y2.2136  
G01 X-0.4269 Y2.2052  
G01 X-0.4255 Y2.1965  
G01 X-0.4255 Y2.1877  
G01 X-0.4269 Y2.1790  
G01 X-0.4296 Y2.1706  
G01 X-0.4336 Y2.1628  
G01 X-0.4388 Y2.1556  
G01 X-0.4450 Y2.1494  
G01 X-0.4521 Y2.1442  
G01 X-0.4600 Y2.1402  
G01 X-0.4684 Y2.1375  
G01 X-0.4771 Y2.1361  
G01 X-0.5280 Y2.1361  
G01 X-0.5280 Y2.0233  
G01 X-0.5180 Y2.0133  
G01 X-0.5180 Y1.9867  
G01 X-0.5367 Y1.9680  
G01 X-0.5633 Y1.9680  
G01 X-0.5820 Y1.9867  
G00 Z0.0500  
G00 X-0.5859 Y0.9481  
G01 Z-0.0040 F10    
G01 X-0.4771 Y0.9481  F20    
G01 X-0.4684 Y0.9467  
G01 X-0.4600 Y0.9440  
G01 X-0.4521 Y0.9400  
G01 X-0.4450 Y0.9348  
G01 X-0.4388 Y0.9286  
G01 X-0.4336 Y0.9215  
G01 X-0.4296 Y0.9136  
G01 X-0.4269 Y0.9052  
G01 X-0.4255 Y0.8965  
G01 X-0.4255 Y0.8877  
G01 X-0.4269 Y0.8790  
G01 X-0.4296 Y0.8706  
G01 X-0.4336 Y0.8628  
G01 X-0.4388 Y0.8556  
G01 X-0.4450 Y0.8494  
G01 X-0.4521 Y0.8442  
G01 X-0.4600 Y0.8402  
G01 X-0.4684 Y0.8375  
G01 X-0.4771 Y0.8361  
G01 X-0.5859 Y0.8361  
G01 X-0.5946 Y0.8375  
G01 X-0.6030 Y0.8402  
G01 X-0.6108 Y0.8442  
G01 X-0.6180 Y0.8494  
G01 X-0.6242 Y0.8556  
G01 X-0.6294 Y0.8628  
G01 X-0.6334 Y0.8706  
G01 X-0.6361 Y0.8790  
G01 X-0.6375 Y0.8877  
G01 X-0.6375 Y0.8965  
G01 X-0.6361 Y0.9052  
G01 X-0.6334 Y0.9136  
G01 X-0.6294 Y0.9215  
G01 X-0.6242 Y0.9286  
G01 X-0.6180 Y0.9348  
G01 X-0.6108 Y0.9400  
G01 X-0.6030 Y0.9440  
G01 X-0.5946 Y0.9467  
G01 X-0.5859 Y0.9481  
G00 Z0.0500  
G00 X-0.2053 Y0.0315  
G01 Z-0.0040 F10    
G01 X-0.2315 Y0.0053  F20    
G01 X-0.2685 Y0.0053  
G01 X-0.2947 Y0.0315  
G01 X-0.2947 Y0.0685  
G01 X-0.2685 Y0.0947  
G01 X-0.2315 Y0.0947  
G01 X-0.2053 Y0.0685  
G01 X-0.2053 Y0.0315  
G00 Z0.0500  
G00 X-0.2053 Y0.1315  
G01 Z-0.0040 F10    
G01 X-0.2315 Y0.1053  F20    
G01 X-0.2685 Y0.1053  
G01 X-0.2947 Y0.1315  
G01 X-0.2947 Y0.1685  
G01 X-0.2685 Y0.1947  
G01 X-0.2315 Y0.1947  
G01 X-0.2053 Y0.1685  
G01 X-0.2053 Y0.1315  
G00 Z0.0500  
G00 X-0.3053 Y0.1315  
G01 Z-0.0040 F10    
G01 X-0.3315 Y0.1053  F20    
G01 X-0.3685 Y0.1053  
G01 X-0.3947 Y0.1315  
G01 X-0.3947 Y0.1685  
G01 X-0.3685 Y0.1947  
G01 X-0.3315 Y0.1947  
G01 X-0.3053 Y0.1685  
G01 X-0.3053 Y0.1315  
G00 Z0.0500  
G00 X-0.3315 Y0.0947  
G01 Z-0.0040 F10    
G01 X-0.3053 Y0.0685  F20    
G01 X-0.3053 Y0.0315  
G01 X-0.3315 Y0.0053  
G01 X-0.3685 Y0.0053  
G01 X-0.3947 Y0.0315  
G01 X-0.3947 Y0.0685  
G01 X-0.3685 Y0.0947  
G01 X-0.3315 Y0.0947  
G00 Z0.0500  
G00 X-0.4315 Y0.0947  
G01 Z-0.0040 F10    
G01 X-0.4053 Y0.0685  F20    
G01 X-0.4053 Y0.0315  
G01 X-0.4315 Y0.0053  
G01 X-0.4685 Y0.0053  
G01 X-0.4947 Y0.0315  
G01 X-0.4947 Y0.0685  
G01 X-0.4685 Y0.0947  
G01 X-0.4315 Y0.0947  
G00 Z0.0500  
G00 X-0.4315 Y0.1053  
G01 Z-0.0040 F10    
G01 X-0.4685 Y0.1053  F20    
G01 X-0.4947 Y0.1315  
G01 X-0.4947 Y0.1685  
G01 X-0.4685 Y0.1947  
G01 X-0.4315 Y0.1947  
G01 X-0.4053 Y0.1685  
G01 X-0.4053 Y0.1315  
G01 X-0.4315 Y0.1053  
G00 Z0.0500  
G00 X-0.5053 Y0.1315  
G01 Z-0.0040 F10    
G01 X-0.5263 Y0.1105  F20    
G01 X-0.5263 Y0.0895  
G01 X-0.5053 Y0.0685  
G01 X-0.5053 Y0.0315  
G01 X-0.5315 Y0.0053  
G01 X-0.5685 Y0.0053  
G01 X-0.5947 Y0.0315  
G01 X-0.5947 Y0.0685  
G01 X-0.5737 Y0.0895  
G01 X-0.5737 Y0.1105  
G01 X-0.5947 Y0.1315  
G01 X-0.5947 Y0.1685  
G01 X-0.5924 Y0.1708  
G01 X-0.6177 Y0.2088  
G01 X-0.7387 Y0.3056  
G01 X-0.7395 Y0.3061  
G01 X-0.7405 Y0.3071  
G01 X-0.7416 Y0.3080  
G01 X-0.7422 Y0.3087  
G01 X-0.7429 Y0.3093  
G01 X-0.7437 Y0.3105  
G01 X-0.7446 Y0.3115  
G01 X-0.7451 Y0.3124  
G01 X-0.7456 Y0.3131  
G01 X-0.7462 Y0.3144  
G01 X-0.7469 Y0.3156  
G01 X-0.7472 Y0.3165  
G01 X-0.7476 Y0.3174  
G01 X-0.7479 Y0.3187  
G01 X-0.7483 Y0.3201  
G01 X-0.7484 Y0.3210  
G01 X-0.7486 Y0.3219  
G01 X-0.7487 Y0.3233  
G01 X-0.7488 Y0.3247  
G01 X-0.7487 Y0.3256  
G01 X-0.7490 Y0.3352  
G01 X-0.7505 Y0.3359  
G01 X-0.7563 Y0.3401  
G01 X-0.7614 Y0.3452  
G01 X-0.7657 Y0.3510  
G01 X-0.7689 Y0.3575  
G01 X-0.7711 Y0.3643  
G01 X-0.7723 Y0.3714  
G01 X-0.7723 Y0.3786  
G01 X-0.7711 Y0.3857  
G01 X-0.7689 Y0.3925  
G01 X-0.7657 Y0.3990  
G01 X-0.7614 Y0.4048  
G01 X-0.7563 Y0.4099  
G01 X-0.7505 Y0.4141  
G01 X-0.7441 Y0.4174  
G01 X-0.7373 Y0.4196  
G01 X-0.7302 Y0.4207  
G01 X-0.7230 Y0.4207  
G01 X-0.7159 Y0.4196  
G01 X-0.7090 Y0.4174  
G01 X-0.7026 Y0.4141  
G01 X-0.6968 Y0.4099  
G01 X-0.6917 Y0.4048  
G01 X-0.6875 Y0.3990  
G01 X-0.6842 Y0.3925  
G01 X-0.6820 Y0.3857  
G01 X-0.6809 Y0.3786  
G01 X-0.6809 Y0.3714  
G01 X-0.6820 Y0.3643  
G01 X-0.6842 Y0.3575  
G01 X-0.6875 Y0.3510  
G01 X-0.6917 Y0.3452  
G01 X-0.6968 Y0.3401  
G01 X-0.7016 Y0.3366  
G01 X-0.5860 Y0.2441  
G01 X-0.5849 Y0.2434  
G01 X-0.5842 Y0.2427  
G01 X-0.5834 Y0.2420  
G01 X-0.5825 Y0.2410  
G01 X-0.5816 Y0.2401  
G01 X-0.5810 Y0.2392  
G01 X-0.5804 Y0.2385  
G01 X-0.5797 Y0.2373  
G01 X-0.5513 Y0.1947  
G01 X-0.5315 Y0.1947  
G01 X-0.5053 Y0.1685  
G01 X-0.5053 Y0.1315  
G00 Z0.0500  
G00 X-0.6053 Y0.1315  
G01 Z-0.0040 F10    
G01 X-0.6263 Y0.1105  F20    
G01 X-0.6263 Y0.0895  
G01 X-0.6053 Y0.0685  
G01 X-0.6053 Y0.0315  
G01 X-0.6315 Y0.0053  
G01 X-0.6685 Y0.0053  
G01 X-0.6895 Y0.0263  
G01 X-0.7105 Y0.0263  
G01 X-0.7315 Y0.0053  
G01 X-0.7685 Y0.0053  
G01 X-0.7895 Y0.0263  
G01 X-0.8105 Y0.0263  
G01 X-0.8315 Y0.0053  
G01 X-0.8685 Y0.0053  
G01 X-0.8947 Y0.0315  
G01 X-0.8947 Y0.0685  
G01 X-0.8685 Y0.0947  
G01 X-0.8577 Y0.0947  
G01 X-0.8577 Y0.1053  
G01 X-0.8685 Y0.1053  
G01 X-0.8947 Y0.1315  
G01 X-0.8947 Y0.1685  
G01 X-0.8737 Y0.1895  
G01 X-0.8737 Y0.2513  
G01 X-0.9773 Y0.2513  
G01 X-0.9819 Y0.2522  
G01 X-0.9862 Y0.2540  
G01 X-0.9901 Y0.2566  
G01 X-0.9934 Y0.2599  
G01 X-1.0434 Y0.3099  
G01 X-1.0460 Y0.3138  
G01 X-1.0478 Y0.3181  
G01 X-1.0487 Y0.3227  
G01 X-1.0487 Y0.3737  
G01 X-1.0701 Y0.5663  
G01 X-1.0750 Y0.5696  
G01 X-1.0804 Y0.5750  
G01 X-1.0847 Y0.5814  
G01 X-1.0877 Y0.5886  
G01 X-1.0892 Y0.5961  
G01 X-1.0892 Y0.6039  
G01 X-1.0877 Y0.6114  
G01 X-1.0847 Y0.6186  
G01 X-1.0804 Y0.6250  
G01 X-1.0750 Y0.6304  
G01 X-1.0737 Y0.6313  
G01 X-1.0737 Y0.7678  
G01 X-1.1560 Y0.8913  
G01 X-1.1640 Y0.8913  
G01 X-1.1837 Y0.9110  
G01 X-1.1837 Y0.9390  
G01 X-1.1640 Y0.9587  
G01 X-1.1360 Y0.9587  
G01 X-1.1163 Y0.9390  
G01 X-1.1163 Y0.9172  
G01 X-1.0303 Y0.7881  
G01 X-1.0290 Y0.7862  
G01 X-1.0281 Y0.7840  
G01 X-1.0272 Y0.7819  
G01 X-1.0267 Y0.7796  
G01 X-1.0263 Y0.7773  
G01 X-1.0263 Y0.7750  
G01 X-1.0263 Y0.6313  
G01 X-1.0250 Y0.6304  
G01 X-1.0196 Y0.6250  
G01 X-1.0153 Y0.6186  
G01 X-1.0123 Y0.6114  
G01 X-1.0108 Y0.6039  
G01 X-1.0108 Y0.5961  
G01 X-1.0123 Y0.5886  
G01 X-1.0153 Y0.5814  
G01 X-1.0196 Y0.5750  
G01 X-1.0230 Y0.5716  
G01 X-1.0016 Y0.3786  
G01 X-1.0013 Y0.3773  
G01 X-1.0013 Y0.3763  
G01 X-1.0012 Y0.3753  
G01 X-1.0013 Y0.3740  
G01 X-1.0013 Y0.3348  
G01 X-0.9652 Y0.2987  
G01 X-0.8598 Y0.2987  
G01 X-0.8487 Y0.3098  
G01 X-0.8487 Y0.5773  
G01 X-0.8478 Y0.5819  
G01 X-0.8460 Y0.5862  
G01 X-0.8434 Y0.5901  
G01 X-0.8401 Y0.5934  
G01 X-0.8392 Y0.5943  
G01 X-0.8392 Y0.6162  
G01 X-0.8306 Y0.6248  
G01 X-0.8729 Y0.7940  
G01 X-0.8735 Y0.7960  
G01 X-0.8735 Y0.7963  
G01 X-0.8736 Y0.7965  
G01 X-0.8737 Y0.7986  
G01 X-0.8738 Y0.8006  
G01 X-0.8738 Y0.8009  
G01 X-0.8738 Y0.8012  
G01 X-0.8735 Y0.8032  
G01 X-0.8732 Y0.8053  
G01 X-0.8731 Y0.8055  
G01 X-0.8731 Y0.8058  
G01 X-0.8724 Y0.8077  
G01 X-0.8717 Y0.8097  
G01 X-0.8716 Y0.8099  
G01 X-0.8715 Y0.8102  
G01 X-0.8705 Y0.8120  
G01 X-0.8694 Y0.8138  
G01 X-0.8693 Y0.8140  
G01 X-0.8691 Y0.8142  
G01 X-0.8677 Y0.8157  
G01 X-0.8664 Y0.8173  
G01 X-0.8662 Y0.8175  
G01 X-0.8660 Y0.8177  
G01 X-0.8643 Y0.8189  
G01 X-0.8627 Y0.8202  
G01 X-0.8624 Y0.8203  
G01 X-0.8622 Y0.8204  
G01 X-0.8604 Y0.8213  
G01 X-0.8119 Y0.8455  
G01 X-0.8112 Y0.8460  
G01 X-0.8098 Y0.8466  
G01 X-0.8085 Y0.8472  
G01 X-0.8077 Y0.8475  
G01 X-0.8069 Y0.8478  
G01 X-0.8054 Y0.8481  
G01 X-0.8040 Y0.8485  
G01 X-0.8032 Y0.8485  
G01 X-0.8023 Y0.8487  
G01 X-0.8008 Y0.8487  
G01 X-0.7994 Y0.8488  
G01 X-0.7985 Y0.8487  
G01 X-0.7000 Y0.8487  
G01 X-0.6977 Y0.8487  
G01 X-0.6954 Y0.8483  
G01 X-0.6931 Y0.8478  
G01 X-0.6910 Y0.8469  
G01 X-0.6888 Y0.8460  
G01 X-0.6869 Y0.8447  
G01 X-0.6138 Y0.7960  
G01 X-0.6118 Y0.7947  
G01 X-0.6099 Y0.7934  
G01 X-0.6082 Y0.7918  
G01 X-0.6066 Y0.7901  
G01 X-0.5402 Y0.7237  
G01 X-0.2492 Y0.7237  
G01 X-0.2447 Y0.7228  
G01 X-0.2403 Y0.7210  
G01 X-0.2365 Y0.7184  
G01 X-0.1467 Y0.6286  
G01 X-0.1424 Y0.6344  
G01 X-0.1360 Y0.6409  
G01 X-0.1287 Y0.6462  
G01 X-0.1221 Y0.6495  
G01 X-0.1221 Y0.9942  
G01 X-0.1287 Y0.9975  
G01 X-0.1360 Y1.0028  
G01 X-0.1424 Y1.0093  
G01 X-0.1478 Y1.0166  
G01 X-0.1519 Y1.0247  
G01 X-0.1547 Y1.0333  
G01 X-0.1561 Y1.0423  
G01 X-0.1561 Y1.1514  
G01 X-0.1547 Y1.1604  
G01 X-0.1519 Y1.1690  
G01 X-0.1478 Y1.1771  
G01 X-0.1424 Y1.1844  
G01 X-0.1360 Y1.1909  
G01 X-0.1287 Y1.1962  
G01 X-0.1221 Y1.1995  
G01 X-0.1221 Y1.5442  
G01 X-0.1287 Y1.5475  
G01 X-0.1360 Y1.5528  
G01 X-0.1424 Y1.5593  
G01 X-0.1478 Y1.5666  
G01 X-0.1519 Y1.5747  
G01 X-0.1547 Y1.5833  
G01 X-0.1561 Y1.5923  
G01 X-0.1561 Y1.7014  
G01 X-0.1547 Y1.7104  
G01 X-0.1519 Y1.7190  
G01 X-0.1478 Y1.7271  
G01 X-0.1424 Y1.7344  
G01 X-0.1360 Y1.7409  
G01 X-0.1287 Y1.7462  
G01 X-0.1221 Y1.7495  
G01 X-0.1221 Y1.9386  
G01 X-0.1498 Y1.9663  
G01 X-0.1640 Y1.9663  
G01 X-0.1837 Y1.9860  
G01 X-0.1837 Y2.0140  
G01 X-0.1737 Y2.0240  
G01 X-0.1737 Y2.3476  
G01 X-0.1728 Y2.3522  
G01 X-0.1710 Y2.3565  
G01 X-0.1684 Y2.3604  
G01 X-0.1561 Y2.3727  
G01 X-0.1561 Y2.4093  
G01 X-0.2146 Y2.5263  
G01 X-0.6836 Y2.5263  
G01 X-0.7436 Y2.3663  
G01 X-0.7413 Y2.3640  
G01 X-0.7413 Y2.3360  
G01 X-0.7610 Y2.3163  
G01 X-0.7890 Y2.3163  
G01 X-0.7990 Y2.3263  
G01 X-0.8760 Y2.3263  
G01 X-0.8860 Y2.3163  
G01 X-0.9140 Y2.3163  
G01 X-0.9240 Y2.3263  
G01 X-1.0854 Y2.3263  
G01 X-1.2263 Y2.0444  
G01 X-1.2263 Y1.9740  
G01 X-1.2163 Y1.9640  
G01 X-1.2163 Y1.9360  
G01 X-1.2360 Y1.9163  
G01 X-1.2640 Y1.9163  
G01 X-1.2837 Y1.9360  
G01 X-1.2837 Y1.9640  
G01 X-1.2737 Y1.9740  
G01 X-1.2737 Y2.0485  
G01 X-1.2738 Y2.0494  
G01 X-1.2737 Y2.0508  
G01 X-1.2737 Y2.0523  
G01 X-1.2735 Y2.0532  
G01 X-1.2735 Y2.0540  
G01 X-1.2731 Y2.0554  
G01 X-1.2728 Y2.0569  
G01 X-1.2725 Y2.0577  
G01 X-1.2722 Y2.0585  
G01 X-1.2716 Y2.0598  
G01 X-1.2710 Y2.0612  
G01 X-1.2705 Y2.0619  
G01 X-1.1216 Y2.3598  
G01 X-1.1210 Y2.3612  
G01 X-1.1205 Y2.3619  
G01 X-1.1202 Y2.3627  
G01 X-1.1192 Y2.3639  
G01 X-1.1184 Y2.3651  
G01 X-1.1178 Y2.3657  
G01 X-1.1173 Y2.3664  
G01 X-1.1162 Y2.3674  
G01 X-1.1151 Y2.3684  
G01 X-1.1144 Y2.3689  
G01 X-1.1138 Y2.3694  
G01 X-1.1125 Y2.3702  
G01 X-1.1112 Y2.3710  
G01 X-1.1104 Y2.3713  
G01 X-1.1097 Y2.3717  
G01 X-1.1083 Y2.3722  
G01 X-1.1069 Y2.3728  
G01 X-1.1061 Y2.3730  
G01 X-1.1053 Y2.3732  
G01 X-1.1038 Y2.3734  
G01 X-1.1023 Y2.3737  
G01 X-1.1015 Y2.3737  
G01 X-1.1006 Y2.3738  
G01 X-1.0992 Y2.3737  
G01 X-0.9240 Y2.3737  
G01 X-0.9140 Y2.3837  
G01 X-0.8860 Y2.3837  
G01 X-0.8760 Y2.3737  
G01 X-0.7990 Y2.3737  
G01 X-0.7890 Y2.3837  
G01 X-0.7877 Y2.3837  
G01 X-0.7229 Y2.5565  
G01 X-0.7228 Y2.5569  
G01 X-0.7220 Y2.5587  
G01 X-0.7214 Y2.5605  
G01 X-0.7212 Y2.5609  
G01 X-0.7210 Y2.5612  
G01 X-0.7199 Y2.5628  
G01 X-0.7189 Y2.5645  
G01 X-0.7186 Y2.5648  
G01 X-0.7184 Y2.5651  
G01 X-0.7170 Y2.5665  
G01 X-0.7157 Y2.5679  
G01 X-0.7154 Y2.5681  
G01 X-0.7151 Y2.5684  
G01 X-0.7135 Y2.5695  
G01 X-0.7119 Y2.5706  
G01 X-0.7116 Y2.5708  
G01 X-0.7112 Y2.5710  
G01 X-0.7094 Y2.5717  
G01 X-0.7077 Y2.5725  
G01 X-0.7073 Y2.5726  
G01 X-0.7069 Y2.5728  
G01 X-0.7050 Y2.5732  
G01 X-0.7031 Y2.5736  
G01 X-0.7027 Y2.5736  
G01 X-0.7023 Y2.5737  
G01 X-0.7004 Y2.5737  
G01 X-0.6985 Y2.5738  
G01 X-0.6981 Y2.5737  
G01 X-0.2008 Y2.5737  
G01 X-0.1994 Y2.5738  
G01 X-0.1985 Y2.5737  
G01 X-0.1977 Y2.5737  
G01 X-0.1962 Y2.5734  
G01 X-0.1947 Y2.5732  
G01 X-0.1939 Y2.5730  
G01 X-0.1931 Y2.5728  
G01 X-0.1917 Y2.5722  
G01 X-0.1903 Y2.5717  
G01 X-0.1896 Y2.5713  
G01 X-0.1888 Y2.5710  
G01 X-0.1875 Y2.5702  
G01 X-0.1862 Y2.5694  
G01 X-0.1856 Y2.5689  
G01 X-0.1849 Y2.5684  
G01 X-0.1838 Y2.5674  
G01 X-0.1827 Y2.5664  
G01 X-0.1822 Y2.5657  
G01 X-0.1816 Y2.5651  
G01 X-0.1808 Y2.5639  
G01 X-0.1798 Y2.5627  
G01 X-0.1795 Y2.5619  
G01 X-0.1790 Y2.5612  
G01 X-0.1784 Y2.5598  
G01 X-0.1413 Y2.4856  
G01 X-0.1360 Y2.4909  
G01 X-0.1287 Y2.4962  
G01 X-0.1206 Y2.5003  
G01 X-0.1119 Y2.5031  
G01 X-0.1030 Y2.5046  
G01 X-0.0939 Y2.5046  
G01 X-0.0849 Y2.5031  
G01 X-0.0763 Y2.5003  
G01 X-0.0682 Y2.4962  
G01 X-0.0608 Y2.4909  
G01 X-0.0544 Y2.4844  
G01 X-0.0491 Y2.4771  
G01 X-0.0450 Y2.4690  
G01 X-0.0421 Y2.4604  
G01 X-0.0407 Y2.4514  
G01 X-0.0407 Y2.3423  
G01 X-0.0421 Y2.3333  
G01 X-0.0450 Y2.3247  
G01 X-0.0491 Y2.3166  
G01 X-0.0544 Y2.3093  
G01 X-0.0608 Y2.3028  
G01 X-0.0682 Y2.2975  
G01 X-0.0763 Y2.2934  
G01 X-0.0849 Y2.2906  
G01 X-0.0939 Y2.2892  
G01 X-0.1030 Y2.2892  
G01 X-0.1119 Y2.2906  
G01 X-0.1206 Y2.2934  
G01 X-0.1263 Y2.2963  
G01 X-0.1263 Y2.0240  
G01 X-0.1163 Y2.0140  
G01 X-0.1163 Y1.9998  
G01 X-0.0800 Y1.9635  
G01 X-0.0774 Y1.9597  
G01 X-0.0756 Y1.9553  
G01 X-0.0747 Y1.9508  
G01 X-0.0747 Y1.7495  
G01 X-0.0682 Y1.7462  
G01 X-0.0608 Y1.7409  
G01 X-0.0544 Y1.7344  
G01 X-0.0491 Y1.7271  
G01 X-0.0450 Y1.7190  
G01 X-0.0421 Y1.7104  
G01 X-0.0407 Y1.7014  
G01 X-0.0407 Y1.5923  
G01 X-0.0421 Y1.5833  
G01 X-0.0450 Y1.5747  
G01 X-0.0491 Y1.5666  
G01 X-0.0544 Y1.5593  
G01 X-0.0608 Y1.5528  
G01 X-0.0682 Y1.5475  
G01 X-0.0747 Y1.5442  
G01 X-0.0747 Y1.1995  
G01 X-0.0682 Y1.1962  
G01 X-0.0608 Y1.1909  
G01 X-0.0544 Y1.1844  
G01 X-0.0491 Y1.1771  
G01 X-0.0450 Y1.1690  
G01 X-0.0421 Y1.1604  
G01 X-0.0407 Y1.1514  
G01 X-0.0407 Y1.0423  
G01 X-0.0421 Y1.0333  
G01 X-0.0450 Y1.0247  
G01 X-0.0491 Y1.0166  
G01 X-0.0544 Y1.0093  
G01 X-0.0608 Y1.0028  
G01 X-0.0682 Y0.9975  
G01 X-0.0747 Y0.9942  
G01 X-0.0747 Y0.6495  
G01 X-0.0682 Y0.6462  
G01 X-0.0608 Y0.6409  
G01 X-0.0544 Y0.6344  
G01 X-0.0491 Y0.6271  
G01 X-0.0450 Y0.6190  
G01 X-0.0421 Y0.6104  
G01 X-0.0407 Y0.6014  
G01 X-0.0407 Y0.4923  
G01 X-0.0421 Y0.4833  
G01 X-0.0450 Y0.4747  
G01 X-0.0491 Y0.4666  
G01 X-0.0544 Y0.4593  
G01 X-0.0608 Y0.4528  
G01 X-0.0682 Y0.4475  
G01 X-0.0763 Y0.4434  
G01 X-0.0849 Y0.4406  
G01 X-0.0939 Y0.4392  
G01 X-0.1030 Y0.4392  
G01 X-0.1119 Y0.4406  
G01 X-0.1206 Y0.4434  
G01 X-0.1287 Y0.4475  
G01 X-0.1360 Y0.4528  
G01 X-0.1424 Y0.4593  
G01 X-0.1478 Y0.4666  
G01 X-0.1519 Y0.4747  
G01 X-0.1547 Y0.4833  
G01 X-0.1561 Y0.4923  
G01 X-0.1561 Y0.5710  
G01 X-0.2614 Y0.6763  
G01 X-0.5523 Y0.6763  
G01 X-0.5569 Y0.6772  
G01 X-0.5612 Y0.6790  
G01 X-0.5651 Y0.6816  
G01 X-0.5684 Y0.6849  
G01 X-0.6401 Y0.7566  
G01 X-0.7072 Y0.8013  
G01 X-0.7944 Y0.8013  
G01 X-0.8224 Y0.7873  
G01 X-0.7854 Y0.6392  
G01 X-0.7838 Y0.6392  
G01 X-0.7608 Y0.6162  
G01 X-0.7608 Y0.5838  
G01 X-0.7838 Y0.5608  
G01 X-0.8013 Y0.5608  
G01 X-0.8013 Y0.2977  
G01 X-0.8022 Y0.2931  
G01 X-0.8040 Y0.2888  
G01 X-0.8066 Y0.2849  
G01 X-0.8263 Y0.2652  
G01 X-0.8263 Y0.1895  
G01 X-0.8105 Y0.1737  
G01 X-0.7895 Y0.1737  
G01 X-0.7685 Y0.1947  
G01 X-0.7315 Y0.1947  
G01 X-0.7105 Y0.1737  
G01 X-0.6895 Y0.1737  
G01 X-0.6685 Y0.1947  
G01 X-0.6315 Y0.1947  
G01 X-0.6053 Y0.1685  
G01 X-0.6053 Y0.1315  
G00 Z0.0500  
G00 X-0.6036 Y0.2887  
G01 Z-0.0040 F10    
G01 X-0.6117 Y0.2928  F20    
G01 X-0.6191 Y0.2981  
G01 X-0.6255 Y0.3045  
G01 X-0.6308 Y0.3119  
G01 X-0.6350 Y0.3200  
G01 X-0.6378 Y0.3286  
G01 X-0.6392 Y0.3376  
G01 X-0.6392 Y0.3467  
G01 X-0.6378 Y0.3556  
G01 X-0.6350 Y0.3643  
G01 X-0.6308 Y0.3724  
G01 X-0.6255 Y0.3797  
G01 X-0.6191 Y0.3861  
G01 X-0.6117 Y0.3915  
G01 X-0.6036 Y0.3956  
G01 X-0.5950 Y0.3984  
G01 X-0.5860 Y0.3998  
G01 X-0.4770 Y0.3998  
G01 X-0.4680 Y0.3984  
G01 X-0.4593 Y0.3956  
G01 X-0.4513 Y0.3915  
G01 X-0.4439 Y0.3861  
G01 X-0.4375 Y0.3797  
G01 X-0.4321 Y0.3724  
G01 X-0.4280 Y0.3643  
G01 X-0.4252 Y0.3556  
G01 X-0.4238 Y0.3467  
G01 X-0.4238 Y0.3376  
G01 X-0.4252 Y0.3286  
G01 X-0.4280 Y0.3200  
G01 X-0.4321 Y0.3119  
G01 X-0.4375 Y0.3045  
G01 X-0.4439 Y0.2981  
G01 X-0.4513 Y0.2928  
G01 X-0.4593 Y0.2887  
G01 X-0.4680 Y0.2858  
G01 X-0.4770 Y0.2844  
G01 X-0.5860 Y0.2844  
G01 X-0.5950 Y0.2858  
G01 X-0.6036 Y0.2887  
G00 Z0.0500  
G00 X-0.6046 Y0.4406  
G01 Z-0.0040 F10    
G01 X-0.6136 Y0.4392  F20    
G01 X-0.6227 Y0.4392  
G01 X-0.6316 Y0.4406  
G01 X-0.6403 Y0.4434  
G01 X-0.6484 Y0.4475  
G01 X-0.6557 Y0.4528  
G01 X-0.6621 Y0.4593  
G01 X-0.6675 Y0.4666  
G01 X-0.6716 Y0.4747  
G01 X-0.6744 Y0.4833  
G01 X-0.6758 Y0.4923  
G01 X-0.6758 Y0.6014  
G01 X-0.6744 Y0.6104  
G01 X-0.6716 Y0.6190  
G01 X-0.6675 Y0.6271  
G01 X-0.6646 Y0.6311  
G01 X-0.7498 Y0.7163  
G01 X-0.7640 Y0.7163  
G01 X-0.7837 Y0.7360  
G01 X-0.7837 Y0.7640  
G01 X-0.7640 Y0.7837  
G01 X-0.7360 Y0.7837  
G01 X-0.7163 Y0.7640  
G01 X-0.7163 Y0.7498  
G01 X-0.6210 Y0.6546  
G01 X-0.6136 Y0.6546  
G01 X-0.6046 Y0.6531  
G01 X-0.5960 Y0.6503  
G01 X-0.5879 Y0.6462  
G01 X-0.5805 Y0.6409  
G01 X-0.5741 Y0.6344  
G01 X-0.5688 Y0.6271  
G01 X-0.5646 Y0.6190  
G01 X-0.5618 Y0.6104  
G01 X-0.5604 Y0.6014  
G01 X-0.5604 Y0.4923  
G01 X-0.5618 Y0.4833  
G01 X-0.5646 Y0.4747  
G01 X-0.5688 Y0.4666  
G01 X-0.5741 Y0.4593  
G01 X-0.5805 Y0.4528  
G01 X-0.5879 Y0.4475  
G01 X-0.5960 Y0.4434  
G01 X-0.6046 Y0.4406  
G00 Z0.0500  
G00 X-0.8937 Y0.4099  
G01 Z-0.0040 F10    
G01 X-0.8886 Y0.4048  F20    
G01 X-0.8843 Y0.3990  
G01 X-0.8811 Y0.3925  
G01 X-0.8789 Y0.3857  
G01 X-0.8777 Y0.3786  
G01 X-0.8777 Y0.3714  
G01 X-0.8789 Y0.3643  
G01 X-0.8811 Y0.3575  
G01 X-0.8843 Y0.3510  
G01 X-0.8886 Y0.3452  
G01 X-0.8937 Y0.3401  
G01 X-0.8995 Y0.3359  
G01 X-0.9059 Y0.3326  
G01 X-0.9106 Y0.3311  
G01 X-0.9111 Y0.3307  
G01 X-0.9125 Y0.3299  
G01 X-0.9138 Y0.3290  
G01 X-0.9145 Y0.3287  
G01 X-0.9151 Y0.3283  
G01 X-0.9166 Y0.3278  
G01 X-0.9181 Y0.3272  
G01 X-0.9188 Y0.3271  
G01 X-0.9195 Y0.3268  
G01 X-0.9211 Y0.3266  
G01 X-0.9227 Y0.3263  
G01 X-0.9234 Y0.3263  
G01 X-0.9242 Y0.3262  
G01 X-0.9257 Y0.3263  
G01 X-0.9273 Y0.3263  
G01 X-0.9281 Y0.3264  
G01 X-0.9288 Y0.3265  
G01 X-0.9304 Y0.3269  
G01 X-0.9319 Y0.3272  
G01 X-0.9326 Y0.3275  
G01 X-0.9333 Y0.3277  
G01 X-0.9348 Y0.3284  
G01 X-0.9362 Y0.3290  
G01 X-0.9369 Y0.3294  
G01 X-0.9375 Y0.3297  
G01 X-0.9388 Y0.3307  
G01 X-0.9401 Y0.3316  
G01 X-0.9406 Y0.3321  
G01 X-0.9412 Y0.3326  
G01 X-0.9416 Y0.3330  
G01 X-0.9474 Y0.3359  
G01 X-0.9532 Y0.3401  
G01 X-0.9583 Y0.3452  
G01 X-0.9625 Y0.3510  
G01 X-0.9658 Y0.3575  
G01 X-0.9680 Y0.3643  
G01 X-0.9691 Y0.3714  
G01 X-0.9691 Y0.3786  
G01 X-0.9680 Y0.3857  
G01 X-0.9658 Y0.3925  
G01 X-0.9625 Y0.3990  
G01 X-0.9583 Y0.4048  
G01 X-0.9532 Y0.4099  
G01 X-0.9487 Y0.4131  
G01 X-0.9487 Y0.5485  
G01 X-0.9488 Y0.5494  
G01 X-0.9487 Y0.5508  
G01 X-0.9487 Y0.8913  
G01 X-0.9640 Y0.8913  
G01 X-0.9837 Y0.9110  
G01 X-0.9837 Y0.9190  
G01 X-1.0362 Y0.9540  
G01 X-1.0382 Y0.9553  
G01 X-1.0401 Y0.9566  
G01 X-1.0417 Y0.9582  
G01 X-1.0434 Y0.9599  
G01 X-1.0447 Y0.9618  
G01 X-1.0460 Y0.9638  
G01 X-1.0469 Y0.9659  
G01 X-1.0478 Y0.9681  
G01 X-1.0482 Y0.9704  
G01 X-1.0487 Y0.9726  
G01 X-1.0487 Y0.9750  
G01 X-1.0487 Y0.9773  
G01 X-1.0487 Y1.2978  
G01 X-1.0487 Y1.2980  
G01 X-1.0487 Y1.3001  
G01 X-1.0487 Y1.3023  
G01 X-1.0487 Y1.3025  
G01 X-1.0487 Y1.3026  
G01 X-1.0482 Y1.3048  
G01 X-1.0478 Y1.3069  
G01 X-1.0477 Y1.3070  
G01 X-1.0477 Y1.3072  
G01 X-1.0468 Y1.3092  
G01 X-1.0460 Y1.3112  
G01 X-1.0459 Y1.3113  
G01 X-1.0459 Y1.3115  
G01 X-1.0446 Y1.3133  
G01 X-1.0434 Y1.3151  
G01 X-1.0433 Y1.3152  
G01 X-1.0432 Y1.3153  
G01 X-1.0417 Y1.3169  
G01 X-1.0401 Y1.3184  
G01 X-1.0400 Y1.3185  
G01 X-1.0399 Y1.3186  
G01 X-1.0380 Y1.3198  
G01 X-1.0362 Y1.3210  
G01 X-1.0361 Y1.3211  
G01 X-1.0360 Y1.3211  
G01 X-1.0339 Y1.3220  
G01 X-1.0319 Y1.3228  
G01 X-1.0318 Y1.3228  
G01 X-0.9597 Y1.3516  
G01 X-0.9597 Y1.3533  
G01 X-0.9584 Y1.3598  
G01 X-0.9559 Y1.3660  
G01 X-0.9522 Y1.3715  
G01 X-0.9475 Y1.3762  
G01 X-0.9420 Y1.3799  
G01 X-0.9358 Y1.3824  
G01 X-0.9293 Y1.3837  
G01 X-0.8707 Y1.3837  
G01 X-0.8642 Y1.3824  
G01 X-0.8580 Y1.3799  
G01 X-0.8525 Y1.3762  
G01 X-0.8478 Y1.3715  
G01 X-0.8441 Y1.3660  
G01 X-0.8416 Y1.3598  
G01 X-0.8403 Y1.3533  
G01 X-0.8403 Y1.3467  
G01 X-0.8416 Y1.3402  
G01 X-0.8441 Y1.3340  
G01 X-0.8478 Y1.3285  
G01 X-0.8525 Y1.3238  
G01 X-0.8580 Y1.3201  
G01 X-0.8642 Y1.3176  
G01 X-0.8707 Y1.3163  
G01 X-0.9204 Y1.3163  
G01 X-1.0013 Y1.2840  
G01 X-1.0013 Y0.9877  
G01 X-0.9578 Y0.9587  
G01 X-0.9360 Y0.9587  
G01 X-0.9260 Y0.9487  
G01 X-0.9227 Y0.9487  
G01 X-0.9181 Y0.9478  
G01 X-0.9138 Y0.9460  
G01 X-0.9099 Y0.9434  
G01 X-0.9066 Y0.9401  
G01 X-0.9040 Y0.9362  
G01 X-0.9022 Y0.9319  
G01 X-0.9013 Y0.9273  
G01 X-0.9013 Y0.6392  
G01 X-0.8961 Y0.6392  
G01 X-0.8886 Y0.6377  
G01 X-0.8814 Y0.6347  
G01 X-0.8750 Y0.6304  
G01 X-0.8696 Y0.6250  
G01 X-0.8653 Y0.6186  
G01 X-0.8623 Y0.6114  
G01 X-0.8608 Y0.6039  
G01 X-0.8608 Y0.5961  
G01 X-0.8623 Y0.5886  
G01 X-0.8653 Y0.5814  
G01 X-0.8696 Y0.5750  
G01 X-0.8750 Y0.5696  
G01 X-0.8814 Y0.5653  
G01 X-0.8886 Y0.5623  
G01 X-0.8928 Y0.5615  
G01 X-0.9013 Y0.5444  
G01 X-0.9013 Y0.4150  
G01 X-0.8995 Y0.4141  
G01 X-0.8937 Y0.4099  
G00 Z0.0500  
G00 X-1.1054 Y0.4091  
G01 Z-0.0040 F10    
G01 X-1.1043 Y0.4020  F20    
G01 X-1.1043 Y0.3948  
G01 X-1.1054 Y0.3877  
G01 X-1.1076 Y0.3809  
G01 X-1.1109 Y0.3745  
G01 X-1.1151 Y0.3687  
G01 X-1.1202 Y0.3636  
G01 X-1.1260 Y0.3593  
G01 X-1.1325 Y0.3561  
G01 X-1.1393 Y0.3539  
G01 X-1.1464 Y0.3527  
G01 X-1.1536 Y0.3527  
G01 X-1.1607 Y0.3539  
G01 X-1.1675 Y0.3561  
G01 X-1.1740 Y0.3593  
G01 X-1.1798 Y0.3636  
G01 X-1.1849 Y0.3687  
G01 X-1.1891 Y0.3745  
G01 X-1.1924 Y0.3809  
G01 X-1.1946 Y0.3877  
G01 X-1.1957 Y0.3948  
G01 X-1.1957 Y0.4020  
G01 X-1.1946 Y0.4091  
G01 X-1.1924 Y0.4160  
G01 X-1.1891 Y0.4224  
G01 X-1.1849 Y0.4282  
G01 X-1.1798 Y0.4333  
G01 X-1.1740 Y0.4375  
G01 X-1.1737 Y0.4376  
G01 X-1.1737 Y0.5683  
G01 X-1.1892 Y0.5838  
G01 X-1.1892 Y0.6057  
G01 X-1.3151 Y0.7316  
G01 X-1.3184 Y0.7349  
G01 X-1.3210 Y0.7388  
G01 X-1.3228 Y0.7431  
G01 X-1.3237 Y0.7477  
G01 X-1.3237 Y1.7023  
G01 X-1.3228 Y1.7069  
G01 X-1.3210 Y1.7112  
G01 X-1.3184 Y1.7151  
G01 X-1.2837 Y1.7498  
G01 X-1.2837 Y1.7640  
G01 X-1.2640 Y1.7837  
G01 X-1.2360 Y1.7837  
G01 X-1.2163 Y1.7640  
G01 X-1.2163 Y1.7360  
G01 X-1.2360 Y1.7163  
G01 X-1.2502 Y1.7163  
G01 X-1.2763 Y1.6902  
G01 X-1.2763 Y1.3737  
G01 X-1.2500 Y1.3737  
G01 X-1.2475 Y1.3762  
G01 X-1.2420 Y1.3799  
G01 X-1.2358 Y1.3824  
G01 X-1.2293 Y1.3837  
G01 X-1.1707 Y1.3837  
G01 X-1.1642 Y1.3824  
G01 X-1.1580 Y1.3799  
G01 X-1.1525 Y1.3762  
G01 X-1.1478 Y1.3715  
G01 X-1.1441 Y1.3660  
G01 X-1.1416 Y1.3598  
G01 X-1.1403 Y1.3533  
G01 X-1.1403 Y1.3467  
G01 X-1.1416 Y1.3402  
G01 X-1.1441 Y1.3340  
G01 X-1.1478 Y1.3285  
G01 X-1.1525 Y1.3238  
G01 X-1.1580 Y1.3201  
G01 X-1.1642 Y1.3176  
G01 X-1.1707 Y1.3163  
G01 X-1.2293 Y1.3163  
G01 X-1.2358 Y1.3176  
G01 X-1.2420 Y1.3201  
G01 X-1.2475 Y1.3238  
G01 X-1.2500 Y1.3263  
G01 X-1.2763 Y1.3263  
G01 X-1.2763 Y0.7598  
G01 X-1.1557 Y0.6392  
G01 X-1.1338 Y0.6392  
G01 X-1.1108 Y0.6162  
G01 X-1.1108 Y0.5838  
G01 X-1.1263 Y0.5683  
G01 X-1.1263 Y0.4376  
G01 X-1.1260 Y0.4375  
G01 X-1.1202 Y0.4333  
G01 X-1.1151 Y0.4282  
G01 X-1.1109 Y0.4224  
G01 X-1.1076 Y0.4160  
G01 X-1.1054 Y0.4091  
G00 Z0.0500  
G00 X-1.1202 Y0.2364  
G01 Z-0.0040 F10    
G01 X-1.1151 Y0.2313  F20    
G01 X-1.1109 Y0.2255  
G01 X-1.1076 Y0.2191  
G01 X-1.1058 Y0.2134  
G01 X-0.9810 Y0.1822  
G01 X-0.9685 Y0.1947  
G01 X-0.9315 Y0.1947  
G01 X-0.9053 Y0.1685  
G01 X-0.9053 Y0.1315  
G01 X-0.9263 Y0.1105  
G01 X-0.9263 Y0.0895  
G01 X-0.9053 Y0.0685  
G01 X-0.9053 Y0.0315  
G01 X-0.9315 Y0.0053  
G01 X-0.9685 Y0.0053  
G01 X-0.9947 Y0.0315  
G01 X-0.9947 Y0.0685  
G01 X-0.9737 Y0.0895  
G01 X-0.9737 Y0.1105  
G01 X-0.9947 Y0.1315  
G01 X-0.9947 Y0.1367  
G01 X-1.1191 Y0.1678  
G01 X-1.1202 Y0.1667  
G01 X-1.1260 Y0.1625  
G01 X-1.1325 Y0.1592  
G01 X-1.1393 Y0.1570  
G01 X-1.1464 Y0.1559  
G01 X-1.1536 Y0.1559  
G01 X-1.1607 Y0.1570  
G01 X-1.1675 Y0.1592  
G01 X-1.1740 Y0.1625  
G01 X-1.1798 Y0.1667  
G01 X-1.1849 Y0.1718  
G01 X-1.1891 Y0.1776  
G01 X-1.1924 Y0.1840  
G01 X-1.1946 Y0.1909  
G01 X-1.1957 Y0.1980  
G01 X-1.1957 Y0.2052  
G01 X-1.1946 Y0.2123  
G01 X-1.1924 Y0.2191  
G01 X-1.1891 Y0.2255  
G01 X-1.1849 Y0.2313  
G01 X-1.1798 Y0.2364  
G01 X-1.1740 Y0.2407  
G01 X-1.1675 Y0.2439  
G01 X-1.1607 Y0.2461  
G01 X-1.1536 Y0.2473  
G01 X-1.1464 Y0.2473  
G01 X-1.1393 Y0.2461  
G01 X-1.1325 Y0.2439  
G01 X-1.1260 Y0.2407  
G01 X-1.1202 Y0.2364  
G00 Z0.0500  
G00 X-1.1360 Y0.7163  
G01 Z-0.0040 F10    
G01 X-1.1640 Y0.7163  F20    
G01 X-1.1837 Y0.7360  
G01 X-1.1837 Y0.7502  
G01 X-1.2401 Y0.8066  
G01 X-1.2434 Y0.8099  
G01 X-1.2460 Y0.8138  
G01 X-1.2478 Y0.8181  
G01 X-1.2487 Y0.8227  
G01 X-1.2487 Y1.0250  
G01 X-1.2522 Y1.0285  
G01 X-1.2559 Y1.0340  
G01 X-1.2584 Y1.0402  
G01 X-1.2597 Y1.0467  
G01 X-1.2597 Y1.0533  
G01 X-1.2584 Y1.0598  
G01 X-1.2559 Y1.0660  
G01 X-1.2522 Y1.0715  
G01 X-1.2475 Y1.0762  
G01 X-1.2420 Y1.0799  
G01 X-1.2358 Y1.0824  
G01 X-1.2293 Y1.0837  
G01 X-1.2237 Y1.0837  
G01 X-1.2237 Y1.1163  
G01 X-1.2293 Y1.1163  
G01 X-1.2358 Y1.1176  
G01 X-1.2420 Y1.1201  
G01 X-1.2475 Y1.1238  
G01 X-1.2522 Y1.1285  
G01 X-1.2559 Y1.1340  
G01 X-1.2584 Y1.1402  
G01 X-1.2597 Y1.1467  
G01 X-1.2597 Y1.1533  
G01 X-1.2584 Y1.1598  
G01 X-1.2559 Y1.1660  
G01 X-1.2522 Y1.1715  
G01 X-1.2475 Y1.1762  
G01 X-1.2420 Y1.1799  
G01 X-1.2358 Y1.1824  
G01 X-1.2293 Y1.1837  
G01 X-1.1707 Y1.1837  
G01 X-1.1642 Y1.1824  
G01 X-1.1580 Y1.1799  
G01 X-1.1525 Y1.1762  
G01 X-1.1478 Y1.1715  
G01 X-1.1441 Y1.1660  
G01 X-1.1416 Y1.1598  
G01 X-1.1403 Y1.1533  
G01 X-1.1403 Y1.1467  
G01 X-1.1416 Y1.1402  
G01 X-1.1441 Y1.1340  
G01 X-1.1478 Y1.1285  
G01 X-1.1525 Y1.1238  
G01 X-1.1580 Y1.1201  
G01 X-1.1642 Y1.1176  
G01 X-1.1707 Y1.1163  
G01 X-1.1763 Y1.1163  
G01 X-1.1763 Y1.0837  
G01 X-1.1707 Y1.0837  
G01 X-1.1642 Y1.0824  
G01 X-1.1580 Y1.0799  
G01 X-1.1525 Y1.0762  
G01 X-1.1478 Y1.0715  
G01 X-1.1441 Y1.0660  
G01 X-1.1416 Y1.0598  
G01 X-1.1403 Y1.0533  
G01 X-1.1403 Y1.0467  
G01 X-1.1416 Y1.0402  
G01 X-1.1441 Y1.0340  
G01 X-1.1478 Y1.0285  
G01 X-1.1525 Y1.0238  
G01 X-1.1580 Y1.0201  
G01 X-1.1642 Y1.0176  
G01 X-1.1707 Y1.0163  
G01 X-1.2002 Y1.0163  
G01 X-1.2013 Y1.0152  
G01 X-1.2013 Y0.8348  
G01 X-1.1502 Y0.7837  
G01 X-1.1360 Y0.7837  
G01 X-1.1163 Y0.7640  
G01 X-1.1163 Y0.7360  
G01 X-1.1360 Y0.7163  
G00 Z0.0500  
G00 X-0.9475 Y1.0238  
G01 Z-0.0040 F10    
G01 X-0.9522 Y1.0285  F20    
G01 X-0.9559 Y1.0340  
G01 X-0.9584 Y1.0402  
G01 X-0.9597 Y1.0467  
G01 X-0.9597 Y1.0533  
G01 X-0.9584 Y1.0598  
G01 X-0.9559 Y1.0660  
G01 X-0.9522 Y1.0715  
G01 X-0.9475 Y1.0762  
G01 X-0.9420 Y1.0799  
G01 X-0.9358 Y1.0824  
G01 X-0.9293 Y1.0837  
G01 X-0.9237 Y1.0837  
G01 X-0.9237 Y1.1163  
G01 X-0.9293 Y1.1163  
G01 X-0.9358 Y1.1176  
G01 X-0.9420 Y1.1201  
G01 X-0.9475 Y1.1238  
G01 X-0.9522 Y1.1285  
G01 X-0.9559 Y1.1340  
G01 X-0.9584 Y1.1402  
G01 X-0.9597 Y1.1467  
G01 X-0.9597 Y1.1533  
G01 X-0.9584 Y1.1598  
G01 X-0.9559 Y1.1660  
G01 X-0.9522 Y1.1715  
G01 X-0.9475 Y1.1762  
G01 X-0.9420 Y1.1799  
G01 X-0.9358 Y1.1824  
G01 X-0.9293 Y1.1837  
G01 X-0.8707 Y1.1837  
G01 X-0.8642 Y1.1824  
G01 X-0.8580 Y1.1799  
G01 X-0.8525 Y1.1762  
G01 X-0.8478 Y1.1715  
G01 X-0.8441 Y1.1660  
G01 X-0.8416 Y1.1598  
G01 X-0.8403 Y1.1533  
G01 X-0.8403 Y1.1467  
G01 X-0.8416 Y1.1402  
G01 X-0.8441 Y1.1340  
G01 X-0.8478 Y1.1285  
G01 X-0.8525 Y1.1238  
G01 X-0.8580 Y1.1201  
G01 X-0.8642 Y1.1176  
G01 X-0.8707 Y1.1163  
G01 X-0.8763 Y1.1163  
G01 X-0.8763 Y1.0837  
G01 X-0.8707 Y1.0837  
G01 X-0.8642 Y1.0824  
G01 X-0.8580 Y1.0799  
G01 X-0.8525 Y1.0762  
G01 X-0.8478 Y1.0715  
G01 X-0.8441 Y1.0660  
G01 X-0.8416 Y1.0598  
G01 X-0.8403 Y1.0533  
G01 X-0.8403 Y1.0467  
G01 X-0.8416 Y1.0402  
G01 X-0.8441 Y1.0340  
G01 X-0.8444 Y1.0336  
G01 X-0.7279 Y0.9337  
G01 X-0.7110 Y0.9337  
G01 X-0.6913 Y0.9140  
G01 X-0.6913 Y0.8860  
G01 X-0.7110 Y0.8663  
G01 X-0.7390 Y0.8663  
G01 X-0.7587 Y0.8860  
G01 X-0.7587 Y0.8977  
G01 X-0.8971 Y1.0163  
G01 X-0.9293 Y1.0163  
G01 X-0.9358 Y1.0176  
G01 X-0.9420 Y1.0201  
G01 X-0.9475 Y1.0238  
G00 Z0.0500  
G00 X-0.9475 Y1.2238  
G01 Z-0.0040 F10    
G01 X-0.9522 Y1.2285  F20    
G01 X-0.9559 Y1.2340  
G01 X-0.9584 Y1.2402  
G01 X-0.9597 Y1.2467  
G01 X-0.9597 Y1.2533  
G01 X-0.9584 Y1.2598  
G01 X-0.9559 Y1.2660  
G01 X-0.9522 Y1.2715  
G01 X-0.9475 Y1.2762  
G01 X-0.9420 Y1.2799  
G01 X-0.9358 Y1.2824  
G01 X-0.9293 Y1.2837  
G01 X-0.8707 Y1.2837  
G01 X-0.8642 Y1.2824  
G01 X-0.8580 Y1.2799  
G01 X-0.8525 Y1.2762  
G01 X-0.8519 Y1.2756  
G01 X-0.8237 Y1.2896  
G01 X-0.8237 Y1.4104  
G01 X-0.8519 Y1.4244  
G01 X-0.8525 Y1.4238  
G01 X-0.8580 Y1.4201  
G01 X-0.8642 Y1.4176  
G01 X-0.8707 Y1.4163  
G01 X-0.9293 Y1.4163  
G01 X-0.9358 Y1.4176  
G01 X-0.9420 Y1.4201  
G01 X-0.9475 Y1.4238  
G01 X-0.9500 Y1.4263  
G01 X-1.0763 Y1.4263  
G01 X-1.0763 Y1.2758  
G01 X-1.0762 Y1.2744  
G01 X-1.0763 Y1.2735  
G01 X-1.0763 Y1.2727  
G01 X-1.0766 Y1.2712  
G01 X-1.0768 Y1.2697  
G01 X-1.0770 Y1.2689  
G01 X-1.0772 Y1.2681  
G01 X-1.0778 Y1.2667  
G01 X-1.0783 Y1.2653  
G01 X-1.0787 Y1.2646  
G01 X-1.0790 Y1.2638  
G01 X-1.0798 Y1.2625  
G01 X-1.0806 Y1.2612  
G01 X-1.0811 Y1.2606  
G01 X-1.0816 Y1.2599  
G01 X-1.0826 Y1.2588  
G01 X-1.0836 Y1.2577  
G01 X-1.0843 Y1.2572  
G01 X-1.0849 Y1.2566  
G01 X-1.0861 Y1.2558  
G01 X-1.0873 Y1.2548  
G01 X-1.0881 Y1.2545  
G01 X-1.0888 Y1.2540  
G01 X-1.0902 Y1.2534  
G01 X-1.1381 Y1.2295  
G01 X-1.1388 Y1.2290  
G01 X-1.1402 Y1.2284  
G01 X-1.1415 Y1.2278  
G01 X-1.1423 Y1.2275  
G01 X-1.1431 Y1.2272  
G01 X-1.1446 Y1.2269  
G01 X-1.1460 Y1.2265  
G01 X-1.1468 Y1.2265  
G01 X-1.1477 Y1.2263  
G01 X-1.1492 Y1.2263  
G01 X-1.1501 Y1.2262  
G01 X-1.1525 Y1.2238  
G01 X-1.1580 Y1.2201  
G01 X-1.1642 Y1.2176  
G01 X-1.1707 Y1.2163  
G01 X-1.2293 Y1.2163  
G01 X-1.2358 Y1.2176  
G01 X-1.2420 Y1.2201  
G01 X-1.2475 Y1.2238  
G01 X-1.2522 Y1.2285  
G01 X-1.2559 Y1.2340  
G01 X-1.2584 Y1.2402  
G01 X-1.2597 Y1.2467  
G01 X-1.2597 Y1.2533  
G01 X-1.2584 Y1.2598  
G01 X-1.2559 Y1.2660  
G01 X-1.2522 Y1.2715  
G01 X-1.2475 Y1.2762  
G01 X-1.2420 Y1.2799  
G01 X-1.2358 Y1.2824  
G01 X-1.2293 Y1.2837  
G01 X-1.1707 Y1.2837  
G01 X-1.1642 Y1.2824  
G01 X-1.1580 Y1.2799  
G01 X-1.1525 Y1.2762  
G01 X-1.1519 Y1.2756  
G01 X-1.1237 Y1.2896  
G01 X-1.1237 Y1.4263  
G01 X-1.1500 Y1.4263  
G01 X-1.1525 Y1.4238  
G01 X-1.1580 Y1.4201  
G01 X-1.1642 Y1.4176  
G01 X-1.1707 Y1.4163  
G01 X-1.2293 Y1.4163  
G01 X-1.2358 Y1.4176  
G01 X-1.2420 Y1.4201  
G01 X-1.2475 Y1.4238  
G01 X-1.2522 Y1.4285  
G01 X-1.2559 Y1.4340  
G01 X-1.2584 Y1.4402  
G01 X-1.2597 Y1.4467  
G01 X-1.2597 Y1.4533  
G01 X-1.2584 Y1.4598  
G01 X-1.2559 Y1.4660  
G01 X-1.2522 Y1.4715  
G01 X-1.2475 Y1.4762  
G01 X-1.2420 Y1.4799  
G01 X-1.2358 Y1.4824  
G01 X-1.2293 Y1.4837  
G01 X-1.1707 Y1.4837  
G01 X-1.1642 Y1.4824  
G01 X-1.1580 Y1.4799  
G01 X-1.1525 Y1.4762  
G01 X-1.1500 Y1.4737  
G01 X-1.0237 Y1.4737  
G01 X-1.0237 Y1.6991  
G01 X-1.0238 Y1.7005  
G01 X-1.0237 Y1.7014  
G01 X-1.0237 Y1.7023  
G01 X-1.0234 Y1.7037  
G01 X-1.0233 Y1.7051  
G01 X-1.0230 Y1.7060  
G01 X-1.0228 Y1.7069  
G01 X-1.0222 Y1.7082  
G01 X-1.0218 Y1.7096  
G01 X-1.0214 Y1.7104  
G01 X-1.0210 Y1.7112  
G01 X-1.0202 Y1.7124  
G01 X-1.0195 Y1.7137  
G01 X-1.0189 Y1.7143  
G01 X-1.0184 Y1.7151  
G01 X-1.0174 Y1.7161  
G01 X-0.8689 Y1.8893  
G01 X-0.8684 Y1.8901  
G01 X-0.8674 Y1.8911  
G01 X-0.8665 Y1.8922  
G01 X-0.8658 Y1.8928  
G01 X-0.8087 Y1.9498  
G01 X-0.8087 Y1.9640  
G01 X-0.7890 Y1.9837  
G01 X-0.7748 Y1.9837  
G01 X-0.7737 Y1.9848  
G01 X-0.7737 Y2.2023  
G01 X-0.7728 Y2.2069  
G01 X-0.7710 Y2.2112  
G01 X-0.7684 Y2.2151  
G01 X-0.7651 Y2.2184  
G01 X-0.6672 Y2.3163  
G01 X-0.6675 Y2.3166  
G01 X-0.6716 Y2.3247  
G01 X-0.6744 Y2.3333  
G01 X-0.6758 Y2.3423  
G01 X-0.6758 Y2.4514  
G01 X-0.6744 Y2.4604  
G01 X-0.6716 Y2.4690  
G01 X-0.6675 Y2.4771  
G01 X-0.6621 Y2.4844  
G01 X-0.6557 Y2.4909  
G01 X-0.6484 Y2.4962  
G01 X-0.6403 Y2.5003  
G01 X-0.6316 Y2.5031  
G01 X-0.6227 Y2.5046  
G01 X-0.6136 Y2.5046  
G01 X-0.6046 Y2.5031  
G01 X-0.5960 Y2.5003  
G01 X-0.5879 Y2.4962  
G01 X-0.5805 Y2.4909  
G01 X-0.5741 Y2.4844  
G01 X-0.5688 Y2.4771  
G01 X-0.5646 Y2.4690  
G01 X-0.5618 Y2.4604  
G01 X-0.5604 Y2.4514  
G01 X-0.5604 Y2.3423  
G01 X-0.5618 Y2.3333  
G01 X-0.5646 Y2.3247  
G01 X-0.5688 Y2.3166  
G01 X-0.5741 Y2.3093  
G01 X-0.5805 Y2.3028  
G01 X-0.5879 Y2.2975  
G01 X-0.5960 Y2.2934  
G01 X-0.6046 Y2.2906  
G01 X-0.6136 Y2.2892  
G01 X-0.6227 Y2.2892  
G01 X-0.6267 Y2.2898  
G01 X-0.7263 Y2.1902  
G01 X-0.7263 Y1.9727  
G01 X-0.7272 Y1.9681  
G01 X-0.7290 Y1.9638  
G01 X-0.7316 Y1.9599  
G01 X-0.7413 Y1.9502  
G01 X-0.7413 Y1.9360  
G01 X-0.7610 Y1.9163  
G01 X-0.7752 Y1.9163  
G01 X-0.8326 Y1.8589  
G01 X-0.9763 Y1.6912  
G01 X-0.9763 Y1.4737  
G01 X-0.9500 Y1.4737  
G01 X-0.9475 Y1.4762  
G01 X-0.9420 Y1.4799  
G01 X-0.9358 Y1.4824  
G01 X-0.9293 Y1.4837  
G01 X-0.8707 Y1.4837  
G01 X-0.8642 Y1.4824  
G01 X-0.8580 Y1.4799  
G01 X-0.8525 Y1.4762  
G01 X-0.8501 Y1.4738  
G01 X-0.8492 Y1.4737  
G01 X-0.8477 Y1.4737  
G01 X-0.8468 Y1.4735  
G01 X-0.8460 Y1.4735  
G01 X-0.8446 Y1.4731  
G01 X-0.8431 Y1.4728  
G01 X-0.8423 Y1.4725  
G01 X-0.8415 Y1.4722  
G01 X-0.8402 Y1.4716  
G01 X-0.8388 Y1.4710  
G01 X-0.8381 Y1.4705  
G01 X-0.7902 Y1.4466  
G01 X-0.7888 Y1.4460  
G01 X-0.7881 Y1.4455  
G01 X-0.7873 Y1.4452  
G01 X-0.7861 Y1.4442  
G01 X-0.7849 Y1.4434  
G01 X-0.7843 Y1.4428  
G01 X-0.7836 Y1.4423  
G01 X-0.7826 Y1.4412  
G01 X-0.7816 Y1.4401  
G01 X-0.7811 Y1.4394  
G01 X-0.7806 Y1.4388  
G01 X-0.7798 Y1.4375  
G01 X-0.7790 Y1.4362  
G01 X-0.7787 Y1.4354  
G01 X-0.7783 Y1.4347  
G01 X-0.7778 Y1.4333  
G01 X-0.7772 Y1.4319  
G01 X-0.7770 Y1.4311  
G01 X-0.7768 Y1.4303  
G01 X-0.7766 Y1.4288  
G01 X-0.7763 Y1.4273  
G01 X-0.7763 Y1.4265  
G01 X-0.7762 Y1.4256  
G01 X-0.7763 Y1.4242  
G01 X-0.7763 Y1.2758  
G01 X-0.7762 Y1.2744  
G01 X-0.7763 Y1.2735  
G01 X-0.7763 Y1.2727  
G01 X-0.7766 Y1.2712  
G01 X-0.7768 Y1.2697  
G01 X-0.7770 Y1.2689  
G01 X-0.7772 Y1.2681  
G01 X-0.7778 Y1.2667  
G01 X-0.7783 Y1.2653  
G01 X-0.7787 Y1.2646  
G01 X-0.7790 Y1.2638  
G01 X-0.7798 Y1.2625  
G01 X-0.7806 Y1.2612  
G01 X-0.7811 Y1.2606  
G01 X-0.7816 Y1.2599  
G01 X-0.7826 Y1.2588  
G01 X-0.7836 Y1.2577  
G01 X-0.7843 Y1.2572  
G01 X-0.7849 Y1.2566  
G01 X-0.7861 Y1.2558  
G01 X-0.7873 Y1.2548  
G01 X-0.7881 Y1.2545  
G01 X-0.7888 Y1.2540  
G01 X-0.7902 Y1.2534  
G01 X-0.8381 Y1.2295  
G01 X-0.8388 Y1.2290  
G01 X-0.8402 Y1.2284  
G01 X-0.8415 Y1.2278  
G01 X-0.8423 Y1.2275  
G01 X-0.8431 Y1.2272  
G01 X-0.8446 Y1.2269  
G01 X-0.8460 Y1.2265  
G01 X-0.8468 Y1.2265  
G01 X-0.8477 Y1.2263  
G01 X-0.8492 Y1.2263  
G01 X-0.8501 Y1.2262  
G01 X-0.8525 Y1.2238  
G01 X-0.8580 Y1.2201  
G01 X-0.8642 Y1.2176  
G01 X-0.8707 Y1.2163  
G01 X-0.9293 Y1.2163  
G01 X-0.9358 Y1.2176  
G01 X-0.9420 Y1.2201  
G01 X-0.9475 Y1.2238  
G00 Z0.0500  
G00 X-0.7587 Y1.2860  
G01 Z-0.0040 F10    
G01 X-0.7587 Y1.3140  F20    
G01 X-0.7390 Y1.3337  
G01 X-0.7110 Y1.3337  
G01 X-0.6913 Y1.3140  
G01 X-0.6913 Y1.2998  
G01 X-0.5997 Y1.2082  
G01 X-0.5971 Y1.2043  
G01 X-0.5953 Y1.2000  
G01 X-0.5879 Y1.1962  
G01 X-0.5805 Y1.1909  
G01 X-0.5741 Y1.1844  
G01 X-0.5688 Y1.1771  
G01 X-0.5646 Y1.1690  
G01 X-0.5618 Y1.1604  
G01 X-0.5604 Y1.1514  
G01 X-0.5604 Y1.0423  
G01 X-0.5618 Y1.0333  
G01 X-0.5646 Y1.0247  
G01 X-0.5688 Y1.0166  
G01 X-0.5741 Y1.0093  
G01 X-0.5805 Y1.0028  
G01 X-0.5879 Y0.9975  
G01 X-0.5960 Y0.9934  
G01 X-0.6046 Y0.9906  
G01 X-0.6136 Y0.9892  
G01 X-0.6227 Y0.9892  
G01 X-0.6316 Y0.9906  
G01 X-0.6403 Y0.9934  
G01 X-0.6484 Y0.9975  
G01 X-0.6557 Y1.0028  
G01 X-0.6621 Y1.0093  
G01 X-0.6675 Y1.0166  
G01 X-0.6716 Y1.0247  
G01 X-0.6744 Y1.0333  
G01 X-0.6758 Y1.0423  
G01 X-0.6758 Y1.1514  
G01 X-0.6744 Y1.1604  
G01 X-0.6716 Y1.1690  
G01 X-0.6675 Y1.1771  
G01 X-0.6621 Y1.1844  
G01 X-0.6557 Y1.1909  
G01 X-0.6520 Y1.1935  
G01 X-0.7248 Y1.2663  
G01 X-0.7390 Y1.2663  
G01 X-0.7587 Y1.2860  
G00 Z0.0500  
G00 X-0.7587 Y1.4360  
G01 Z-0.0040 F10    
G01 X-0.7587 Y1.4640  F20    
G01 X-0.7541 Y1.4686  
G01 X-0.7685 Y1.5263  
G01 X-0.8500 Y1.5263  
G01 X-0.8525 Y1.5238  
G01 X-0.8580 Y1.5201  
G01 X-0.8642 Y1.5176  
G01 X-0.8707 Y1.5163  
G01 X-0.9293 Y1.5163  
G01 X-0.9358 Y1.5176  
G01 X-0.9420 Y1.5201  
G01 X-0.9475 Y1.5238  
G01 X-0.9522 Y1.5285  
G01 X-0.9559 Y1.5340  
G01 X-0.9584 Y1.5402  
G01 X-0.9597 Y1.5467  
G01 X-0.9597 Y1.5533  
G01 X-0.9584 Y1.5598  
G01 X-0.9559 Y1.5660  
G01 X-0.9522 Y1.5715  
G01 X-0.9475 Y1.5762  
G01 X-0.9420 Y1.5799  
G01 X-0.9358 Y1.5824  
G01 X-0.9293 Y1.5837  
G01 X-0.9237 Y1.5837  
G01 X-0.9237 Y1.6163  
G01 X-0.9293 Y1.6163  
G01 X-0.9358 Y1.6176  
G01 X-0.9420 Y1.6201  
G01 X-0.9475 Y1.6238  
G01 X-0.9522 Y1.6285  
G01 X-0.9559 Y1.6340  
G01 X-0.9584 Y1.6402  
G01 X-0.9597 Y1.6467  
G01 X-0.9597 Y1.6533  
G01 X-0.9584 Y1.6598  
G01 X-0.9559 Y1.6660  
G01 X-0.9522 Y1.6715  
G01 X-0.9475 Y1.6762  
G01 X-0.9420 Y1.6799  
G01 X-0.9358 Y1.6824  
G01 X-0.9293 Y1.6837  
G01 X-0.8707 Y1.6837  
G01 X-0.8642 Y1.6824  
G01 X-0.8580 Y1.6799  
G01 X-0.8525 Y1.6762  
G01 X-0.8478 Y1.6715  
G01 X-0.8441 Y1.6660  
G01 X-0.8416 Y1.6598  
G01 X-0.8403 Y1.6533  
G01 X-0.8403 Y1.6467  
G01 X-0.8416 Y1.6402  
G01 X-0.8441 Y1.6340  
G01 X-0.8478 Y1.6285  
G01 X-0.8525 Y1.6238  
G01 X-0.8580 Y1.6201  
G01 X-0.8642 Y1.6176  
G01 X-0.8707 Y1.6163  
G01 X-0.8763 Y1.6163  
G01 X-0.8763 Y1.5837  
G01 X-0.8707 Y1.5837  
G01 X-0.8642 Y1.5824  
G01 X-0.8580 Y1.5799  
G01 X-0.8525 Y1.5762  
G01 X-0.8500 Y1.5737  
G01 X-0.7506 Y1.5737  
G01 X-0.7488 Y1.5738  
G01 X-0.7482 Y1.5737  
G01 X-0.7477 Y1.5737  
G01 X-0.7459 Y1.5734  
G01 X-0.7442 Y1.5731  
G01 X-0.7437 Y1.5729  
G01 X-0.7431 Y1.5728  
G01 X-0.7415 Y1.5721  
G01 X-0.7398 Y1.5715  
G01 X-0.7393 Y1.5712  
G01 X-0.7388 Y1.5710  
G01 X-0.7373 Y1.5700  
G01 X-0.7358 Y1.5691  
G01 X-0.7354 Y1.5687  
G01 X-0.7349 Y1.5684  
G01 X-0.7336 Y1.5672  
G01 X-0.7323 Y1.5660  
G01 X-0.7320 Y1.5655  
G01 X-0.7316 Y1.5651  
G01 X-0.7306 Y1.5636  
G01 X-0.7296 Y1.5622  
G01 X-0.7293 Y1.5617  
G01 X-0.7290 Y1.5612  
G01 X-0.7283 Y1.5596  
G01 X-0.7276 Y1.5580  
G01 X-0.7274 Y1.5574  
G01 X-0.7272 Y1.5569  
G01 X-0.7269 Y1.5552  
G01 X-0.7083 Y1.4810  
G01 X-0.6913 Y1.4640  
G01 X-0.6913 Y1.4360  
G01 X-0.7110 Y1.4163  
G01 X-0.7390 Y1.4163  
G01 X-0.7587 Y1.4360  
G00 Z0.0500  
G00 X-0.6392 Y1.4376  
G01 Z-0.0040 F10    
G01 X-0.6392 Y1.4467  F20    
G01 X-0.6378 Y1.4556  
G01 X-0.6350 Y1.4643  
G01 X-0.6308 Y1.4724  
G01 X-0.6255 Y1.4797  
G01 X-0.6191 Y1.4861  
G01 X-0.6117 Y1.4915  
G01 X-0.6036 Y1.4956  
G01 X-0.5950 Y1.4984  
G01 X-0.5860 Y1.4998  
G01 X-0.4770 Y1.4998  
G01 X-0.4680 Y1.4984  
G01 X-0.4593 Y1.4956  
G01 X-0.4513 Y1.4915  
G01 X-0.4439 Y1.4861  
G01 X-0.4375 Y1.4797  
G01 X-0.4321 Y1.4724  
G01 X-0.4280 Y1.4643  
G01 X-0.4252 Y1.4556  
G01 X-0.4238 Y1.4467  
G01 X-0.4238 Y1.4376  
G01 X-0.4252 Y1.4286  
G01 X-0.4280 Y1.4200  
G01 X-0.4321 Y1.4119  
G01 X-0.4375 Y1.4045  
G01 X-0.4439 Y1.3981  
G01 X-0.4513 Y1.3928  
G01 X-0.4593 Y1.3887  
G01 X-0.4680 Y1.3858  
G01 X-0.4770 Y1.3844  
G01 X-0.5860 Y1.3844  
G01 X-0.5950 Y1.3858  
G01 X-0.6036 Y1.3887  
G01 X-0.6117 Y1.3928  
G01 X-0.6191 Y1.3981  
G01 X-0.6255 Y1.4045  
G01 X-0.6308 Y1.4119  
G01 X-0.6350 Y1.4200  
G01 X-0.6378 Y1.4286  
G01 X-0.6392 Y1.4376  
G00 Z0.0500  
G00 X-0.6403 Y1.5434  
G01 Z-0.0040 F10    
G01 X-0.6484 Y1.5475  F20    
G01 X-0.6557 Y1.5528  
G01 X-0.6621 Y1.5593  
G01 X-0.6675 Y1.5666  
G01 X-0.6716 Y1.5747  
G01 X-0.6744 Y1.5833  
G01 X-0.6758 Y1.5923  
G01 X-0.6758 Y1.7014  
G01 X-0.6744 Y1.7104  
G01 X-0.6716 Y1.7190  
G01 X-0.6675 Y1.7271  
G01 X-0.6621 Y1.7344  
G01 X-0.6557 Y1.7409  
G01 X-0.6484 Y1.7462  
G01 X-0.6418 Y1.7495  
G01 X-0.6418 Y1.7583  
G01 X-0.7054 Y1.8219  
G01 X-0.7110 Y1.8163  
G01 X-0.7390 Y1.8163  
G01 X-0.7587 Y1.8360  
G01 X-0.7587 Y1.8640  
G01 X-0.7390 Y1.8837  
G01 X-0.7110 Y1.8837  
G01 X-0.7010 Y1.8737  
G01 X-0.6977 Y1.8737  
G01 X-0.6931 Y1.8728  
G01 X-0.6888 Y1.8710  
G01 X-0.6849 Y1.8684  
G01 X-0.6816 Y1.8651  
G01 X-0.5997 Y1.7832  
G01 X-0.5971 Y1.7793  
G01 X-0.5953 Y1.7750  
G01 X-0.5944 Y1.7704  
G01 X-0.5944 Y1.7495  
G01 X-0.5879 Y1.7462  
G01 X-0.5805 Y1.7409  
G01 X-0.5741 Y1.7344  
G01 X-0.5688 Y1.7271  
G01 X-0.5646 Y1.7190  
G01 X-0.5618 Y1.7104  
G01 X-0.5604 Y1.7014  
G01 X-0.5604 Y1.5923  
G01 X-0.5618 Y1.5833  
G01 X-0.5646 Y1.5747  
G01 X-0.5688 Y1.5666  
G01 X-0.5741 Y1.5593  
G01 X-0.5805 Y1.5528  
G01 X-0.5879 Y1.5475  
G01 X-0.5960 Y1.5434  
G01 X-0.6046 Y1.5406  
G01 X-0.6136 Y1.5392  
G01 X-0.6227 Y1.5392  
G01 X-0.6316 Y1.5406  
G01 X-0.6403 Y1.5434  
G00 Z0.0500  
G00 X-1.0522 Y1.5431  
G01 Z-0.0040 F10    
G01 X-1.0524 Y1.5425  F20    
G01 X-1.0526 Y1.5420  
G01 X-1.0533 Y1.5404  
G01 X-1.0540 Y1.5388  
G01 X-1.0543 Y1.5383  
G01 X-1.0546 Y1.5377  
G01 X-1.0556 Y1.5363  
G01 X-1.0566 Y1.5349  
G01 X-1.0570 Y1.5345  
G01 X-1.0574 Y1.5340  
G01 X-1.0587 Y1.5328  
G01 X-1.0599 Y1.5316  
G01 X-1.0604 Y1.5313  
G01 X-1.0608 Y1.5309  
G01 X-1.0623 Y1.5300  
G01 X-1.0638 Y1.5290  
G01 X-1.0643 Y1.5288  
G01 X-1.0648 Y1.5285  
G01 X-1.0665 Y1.5279  
G01 X-1.0681 Y1.5272  
G01 X-1.0687 Y1.5271  
G01 X-1.0692 Y1.5269  
G01 X-1.0710 Y1.5266  
G01 X-1.0727 Y1.5263  
G01 X-1.0733 Y1.5263  
G01 X-1.0739 Y1.5262  
G01 X-1.0756 Y1.5263  
G01 X-1.1500 Y1.5263  
G01 X-1.1525 Y1.5238  
G01 X-1.1580 Y1.5201  
G01 X-1.1642 Y1.5176  
G01 X-1.1707 Y1.5163  
G01 X-1.2293 Y1.5163  
G01 X-1.2358 Y1.5176  
G01 X-1.2420 Y1.5201  
G01 X-1.2475 Y1.5238  
G01 X-1.2522 Y1.5285  
G01 X-1.2559 Y1.5340  
G01 X-1.2584 Y1.5402  
G01 X-1.2597 Y1.5467  
G01 X-1.2597 Y1.5533  
G01 X-1.2584 Y1.5598  
G01 X-1.2559 Y1.5660  
G01 X-1.2522 Y1.5715  
G01 X-1.2475 Y1.5762  
G01 X-1.2420 Y1.5799  
G01 X-1.2358 Y1.5824  
G01 X-1.2293 Y1.5837  
G01 X-1.1707 Y1.5837  
G01 X-1.1642 Y1.5824  
G01 X-1.1580 Y1.5799  
G01 X-1.1525 Y1.5762  
G01 X-1.1500 Y1.5737  
G01 X-1.0975 Y1.5737  
G01 X-1.0749 Y2.0272  
G01 X-1.0837 Y2.0360  
G01 X-1.0837 Y2.0640  
G01 X-1.0640 Y2.0837  
G01 X-1.0360 Y2.0837  
G01 X-1.0163 Y2.0640  
G01 X-1.0163 Y2.0498  
G01 X-1.0103 Y2.0438  
G01 X-0.9101 Y1.9837  
G01 X-0.8860 Y1.9837  
G01 X-0.8663 Y1.9640  
G01 X-0.8663 Y1.9360  
G01 X-0.8860 Y1.9163  
G01 X-0.9140 Y1.9163  
G01 X-0.9337 Y1.9360  
G01 X-0.9337 Y1.9426  
G01 X-1.0288 Y1.9996  
G01 X-1.0513 Y1.5494  
G01 X-1.0513 Y1.5477  
G01 X-1.0514 Y1.5471  
G01 X-1.0514 Y1.5465  
G01 X-1.0519 Y1.5448  
G01 X-1.0522 Y1.5431  
G00 Z0.0500  
G00 X-1.1478 Y1.6285  
G01 Z-0.0040 F10    
G01 X-1.1525 Y1.6238  F20    
G01 X-1.1580 Y1.6201  
G01 X-1.1642 Y1.6176  
G01 X-1.1707 Y1.6163  
G01 X-1.2293 Y1.6163  
G01 X-1.2358 Y1.6176  
G01 X-1.2420 Y1.6201  
G01 X-1.2475 Y1.6238  
G01 X-1.2522 Y1.6285  
G01 X-1.2559 Y1.6340  
G01 X-1.2584 Y1.6402  
G01 X-1.2597 Y1.6467  
G01 X-1.2597 Y1.6533  
G01 X-1.2584 Y1.6598  
G01 X-1.2559 Y1.6660  
G01 X-1.2522 Y1.6715  
G01 X-1.2475 Y1.6762  
G01 X-1.2420 Y1.6799  
G01 X-1.2358 Y1.6824  
G01 X-1.2293 Y1.6837  
G01 X-1.2060 Y1.6837  
G01 X-1.1737 Y1.7322  
G01 X-1.1737 Y2.0260  
G01 X-1.1837 Y2.0360  
G01 X-1.1837 Y2.0640  
G01 X-1.1640 Y2.0837  
G01 X-1.1360 Y2.0837  
G01 X-1.1163 Y2.0640  
G01 X-1.1163 Y2.0360  
G01 X-1.1263 Y2.0260  
G01 X-1.1263 Y1.7250  
G01 X-1.1263 Y1.7227  
G01 X-1.1268 Y1.7204  
G01 X-1.1272 Y1.7181  
G01 X-1.1281 Y1.7159  
G01 X-1.1290 Y1.7138  
G01 X-1.1303 Y1.7118  
G01 X-1.1536 Y1.6769  
G01 X-1.1525 Y1.6762  
G01 X-1.1478 Y1.6715  
G01 X-1.1441 Y1.6660  
G01 X-1.1416 Y1.6598  
G01 X-1.1403 Y1.6533  
G01 X-1.1403 Y1.6467  
G01 X-1.1416 Y1.6402  
G01 X-1.1441 Y1.6340  
G01 X-1.1478 Y1.6285  
G00 Z0.0500  
G00 X-0.5837 Y1.9860  
G01 Z-0.0040 F10    
G01 X-0.5837 Y2.0140  F20    
G01 X-0.5737 Y2.0240  
G01 X-0.5737 Y2.1344  
G01 X-0.5860 Y2.1344  
G01 X-0.5950 Y2.1358  
G01 X-0.6036 Y2.1387  
G01 X-0.6117 Y2.1428  
G01 X-0.6191 Y2.1481  
G01 X-0.6255 Y2.1545  
G01 X-0.6308 Y2.1619  
G01 X-0.6350 Y2.1700  
G01 X-0.6378 Y2.1786  
G01 X-0.6392 Y2.1876  
G01 X-0.6392 Y2.1967  
G01 X-0.6378 Y2.2056  
G01 X-0.6350 Y2.2143  
G01 X-0.6308 Y2.2224  
G01 X-0.6255 Y2.2297  
G01 X-0.6191 Y2.2361  
G01 X-0.6117 Y2.2415  
G01 X-0.6036 Y2.2456  
G01 X-0.5950 Y2.2484  
G01 X-0.5860 Y2.2498  
G01 X-0.4770 Y2.2498  
G01 X-0.4680 Y2.2484  
G01 X-0.4593 Y2.2456  
G01 X-0.4513 Y2.2415  
G01 X-0.4439 Y2.2361  
G01 X-0.4375 Y2.2297  
G01 X-0.4321 Y2.2224  
G01 X-0.4280 Y2.2143  
G01 X-0.4252 Y2.2056  
G01 X-0.4238 Y2.1967  
G01 X-0.4238 Y2.1876  
G01 X-0.4252 Y2.1786  
G01 X-0.4280 Y2.1700  
G01 X-0.4321 Y2.1619  
G01 X-0.4375 Y2.1545  
G01 X-0.4439 Y2.1481  
G01 X-0.4513 Y2.1428  
G01 X-0.4593 Y2.1387  
G01 X-0.4680 Y2.1358  
G01 X-0.4770 Y2.1344  
G01 X-0.5263 Y2.1344  
G01 X-0.5263 Y2.0240  
G01 X-0.5163 Y2.0140  
G01 X-0.5163 Y1.9860  
G01 X-0.5360 Y1.9663  
G01 X-0.5640 Y1.9663  
G01 X-0.5837 Y1.9860  
G00 Z0.0500  
G00 X-0.5860 Y0.9498  
G01 Z-0.0040 F10    
G01 X-0.4770 Y0.9498  F20    
G01 X-0.4680 Y0.9484  
G01 X-0.4593 Y0.9456  
G01 X-0.4513 Y0.9415  
G01 X-0.4439 Y0.9361  
G01 X-0.4375 Y0.9297  
G01 X-0.4321 Y0.9224  
G01 X-0.4280 Y0.9143  
G01 X-0.4252 Y0.9056  
G01 X-0.4238 Y0.8967  
G01 X-0.4238 Y0.8876  
G01 X-0.4252 Y0.8786  
G01 X-0.4280 Y0.8700  
G01 X-0.4321 Y0.8619  
G01 X-0.4375 Y0.8545  
G01 X-0.4439 Y0.8481  
G01 X-0.4513 Y0.8428  
G01 X-0.4593 Y0.8387  
G01 X-0.4680 Y0.8358  
G01 X-0.4770 Y0.8344  
G01 X-0.5860 Y0.8344  
G01 X-0.5950 Y0.8358  
G01 X-0.6036 Y0.8387  
G01 X-0.6117 Y0.8428  
G01 X-0.6191 Y0.8481  
G01 X-0.6255 Y0.8545  
G01 X-0.6308 Y0.8619  
G01 X-0.6350 Y0.8700  
G01 X-0.6378 Y0.8786  
G01 X-0.6392 Y0.8876  
G01 X-0.6392 Y0.8967  
G01 X-0.6378 Y0.9056  
G01 X-0.6350 Y0.9143  
G01 X-0.6308 Y0.9224  
G01 X-0.6255 Y0.9297  
G01 X-0.6191 Y0.9361  
G01 X-0.6117 Y0.9415  
G01 X-0.6036 Y0.9456  
G01 X-0.5950 Y0.9484  
G01 X-0.5860 Y0.9498  
G00 Z0.0500  
G00 X-0.2036 Y0.0308  
G01 Z-0.0040 F10    
G01 X-0.2308 Y0.0036  F20    
G01 X-0.2692 Y0.0036  
G01 X-0.2964 Y0.0308  
G01 X-0.2964 Y0.0692  
G01 X-0.2692 Y0.0964  
G01 X-0.2308 Y0.0964  
G01 X-0.2036 Y0.0692  
G01 X-0.2036 Y0.0308  
G00 Z0.0500  
G00 X-0.2036 Y0.1308  
G01 Z-0.0040 F10    
G01 X-0.2308 Y0.1036  F20    
G01 X-0.2692 Y0.1036  
G01 X-0.2964 Y0.1308  
G01 X-0.2964 Y0.1692  
G01 X-0.2692 Y0.1964  
G01 X-0.2308 Y0.1964  
G01 X-0.2036 Y0.1692  
G01 X-0.2036 Y0.1308  
G00 Z0.0500  
G00 X-0.3036 Y0.1308  
G01 Z-0.0040 F10    
G01 X-0.3308 Y0.1036  F20    
G01 X-0.3692 Y0.1036  
G01 X-0.3964 Y0.1308  
G01 X-0.3964 Y0.1692  
G01 X-0.3692 Y0.1964  
G01 X-0.3308 Y0.1964  
G01 X-0.3036 Y0.1692  
G01 X-0.3036 Y0.1308  
G00 Z0.0500  
G00 X-0.3308 Y0.0964  
G01 Z-0.0040 F10    
G01 X-0.3036 Y0.0692  F20    
G01 X-0.3036 Y0.0308  
G01 X-0.3308 Y0.0036  
G01 X-0.3692 Y0.0036  
G01 X-0.3964 Y0.0308  
G01 X-0.3964 Y0.0692  
G01 X-0.3692 Y0.0964  
G01 X-0.3308 Y0.0964  
G00 Z0.0500  
G00 X-0.4308 Y0.0964  
G01 Z-0.0040 F10    
G01 X-0.4036 Y0.0692  F20    
G01 X-0.4036 Y0.0308  
G01 X-0.4308 Y0.0036  
G01 X-0.4692 Y0.0036  
G01 X-0.4964 Y0.0308  
G01 X-0.4964 Y0.0692  
G01 X-0.4692 Y0.0964  
G01 X-0.4308 Y0.0964  
G00 Z0.0500  
G00 X-0.4308 Y0.1036  
G01 Z-0.0040 F10    
G01 X-0.4692 Y0.1036  F20    
G01 X-0.4964 Y0.1308  
G01 X-0.4964 Y0.1692  
G01 X-0.4692 Y0.1964  
G01 X-0.4308 Y0.1964  
G01 X-0.4036 Y0.1692  
G01 X-0.4036 Y0.1308  
G01 X-0.4308 Y0.1036  
G00 Z0.0500  
G00 X-0.5036 Y0.1308  
G01 Z-0.0040 F10    
G01 X-0.5246 Y0.1098  F20    
G01 X-0.5246 Y0.0902  
G01 X-0.5036 Y0.0692  
G01 X-0.5036 Y0.0308  
G01 X-0.5308 Y0.0036  
G01 X-0.5692 Y0.0036  
G01 X-0.5964 Y0.0308  
G01 X-0.5964 Y0.0692  
G01 X-0.5754 Y0.0902  
G01 X-0.5754 Y0.1098  
G01 X-0.5964 Y0.1308  
G01 X-0.5964 Y0.1692  
G01 X-0.5946 Y0.1711  
G01 X-0.6189 Y0.2076  
G01 X-0.7397 Y0.3042  
G01 X-0.7406 Y0.3048  
G01 X-0.7417 Y0.3058  
G01 X-0.7428 Y0.3067  
G01 X-0.7435 Y0.3075  
G01 X-0.7442 Y0.3082  
G01 X-0.7451 Y0.3094  
G01 X-0.7460 Y0.3106  
G01 X-0.7465 Y0.3114  
G01 X-0.7471 Y0.3123  
G01 X-0.7477 Y0.3136  
G01 X-0.7485 Y0.3149  
G01 X-0.7488 Y0.3159  
G01 X-0.7492 Y0.3168  
G01 X-0.7495 Y0.3183  
G01 X-0.7500 Y0.3197  
G01 X-0.7501 Y0.3207  
G01 X-0.7503 Y0.3217  
G01 X-0.7504 Y0.3232  
G01 X-0.7505 Y0.3247  
G01 X-0.7504 Y0.3257  
G01 X-0.7507 Y0.3341  
G01 X-0.7514 Y0.3345  
G01 X-0.7575 Y0.3388  
G01 X-0.7627 Y0.3441  
G01 X-0.7671 Y0.3502  
G01 X-0.7705 Y0.3568  
G01 X-0.7728 Y0.3639  
G01 X-0.7740 Y0.3713  
G01 X-0.7740 Y0.3787  
G01 X-0.7728 Y0.3861  
G01 X-0.7705 Y0.3932  
G01 X-0.7671 Y0.3998  
G01 X-0.7627 Y0.4059  
G01 X-0.7575 Y0.4112  
G01 X-0.7514 Y0.4155  
G01 X-0.7448 Y0.4189  
G01 X-0.7377 Y0.4212  
G01 X-0.7303 Y0.4224  
G01 X-0.7228 Y0.4224  
G01 X-0.7155 Y0.4212  
G01 X-0.7084 Y0.4189  
G01 X-0.7017 Y0.4155  
G01 X-0.6957 Y0.4112  
G01 X-0.6904 Y0.4059  
G01 X-0.6860 Y0.3998  
G01 X-0.6826 Y0.3932  
G01 X-0.6803 Y0.3861  
G01 X-0.6792 Y0.3787  
G01 X-0.6792 Y0.3713  
G01 X-0.6803 Y0.3639  
G01 X-0.6826 Y0.3568  
G01 X-0.6860 Y0.3502  
G01 X-0.6904 Y0.3441  
G01 X-0.6957 Y0.3388  
G01 X-0.6988 Y0.3366  
G01 X-0.5850 Y0.2455  
G01 X-0.5838 Y0.2447  
G01 X-0.5830 Y0.2439  
G01 X-0.5822 Y0.2433  
G01 X-0.5813 Y0.2422  
G01 X-0.5803 Y0.2412  
G01 X-0.5797 Y0.2403  
G01 X-0.5790 Y0.2394  
G01 X-0.5783 Y0.2382  
G01 X-0.5504 Y0.1964  
G01 X-0.5308 Y0.1964  
G01 X-0.5036 Y0.1692  
G01 X-0.5036 Y0.1308  
G00 Z0.0500  
G00 X-0.6036 Y0.1308  
G01 Z-0.0040 F10    
G01 X-0.6246 Y0.1098  F20    
G01 X-0.6246 Y0.0902  
G01 X-0.6036 Y0.0692  
G01 X-0.6036 Y0.0308  
G01 X-0.6308 Y0.0036  
G01 X-0.6692 Y0.0036  
G01 X-0.6902 Y0.0246  
G01 X-0.7098 Y0.0246  
G01 X-0.7308 Y0.0036  
G01 X-0.7692 Y0.0036  
G01 X-0.7902 Y0.0246  
G01 X-0.8098 Y0.0246  
G01 X-0.8308 Y0.0036  
G01 X-0.8692 Y0.0036  
G01 X-0.8964 Y0.0308  
G01 X-0.8964 Y0.0692  
G01 X-0.8692 Y0.0964  
G01 X-0.8594 Y0.0964  
G01 X-0.8594 Y0.1036  
G01 X-0.8692 Y0.1036  
G01 X-0.8964 Y0.1308  
G01 X-0.8964 Y0.1692  
G01 X-0.8754 Y0.1902  
G01 X-0.8754 Y0.2496  
G01 X-0.9775 Y0.2496  
G01 X-0.9824 Y0.2506  
G01 X-0.9870 Y0.2525  
G01 X-0.9912 Y0.2553  
G01 X-0.9947 Y0.2588  
G01 X-1.0447 Y0.3088  
G01 X-1.0475 Y0.3130  
G01 X-1.0494 Y0.3176  
G01 X-1.0504 Y0.3225  
G01 X-1.0504 Y0.3736  
G01 X-1.0717 Y0.5652  
G01 X-1.0766 Y0.5688  
G01 X-1.0812 Y0.5734  
G01 X-1.0850 Y0.5786  
G01 X-1.0879 Y0.5843  
G01 X-1.0899 Y0.5904  
G01 X-1.0909 Y0.5968  
G01 X-1.0909 Y0.6032  
G01 X-1.0899 Y0.6096  
G01 X-1.0879 Y0.6157  
G01 X-1.0850 Y0.6214  
G01 X-1.0812 Y0.6266  
G01 X-1.0766 Y0.6312  
G01 X-1.0754 Y0.6321  
G01 X-1.0754 Y0.7673  
G01 X-1.1569 Y0.8896  
G01 X-1.1647 Y0.8896  
G01 X-1.1854 Y0.9103  
G01 X-1.1854 Y0.9397  
G01 X-1.1647 Y0.9604  
G01 X-1.1353 Y0.9604  
G01 X-1.1146 Y0.9397  
G01 X-1.1146 Y0.9177  
G01 X-1.0289 Y0.7891  
G01 X-1.0275 Y0.7870  
G01 X-1.0265 Y0.7847  
G01 X-1.0256 Y0.7824  
G01 X-1.0251 Y0.7799  
G01 X-1.0246 Y0.7775  
G01 X-1.0246 Y0.7750  
G01 X-1.0246 Y0.6321  
G01 X-1.0234 Y0.6312  
G01 X-1.0188 Y0.6266  
G01 X-1.0150 Y0.6214  
G01 X-1.0121 Y0.6157  
G01 X-1.0101 Y0.6096  
G01 X-1.0091 Y0.6032  
G01 X-1.0091 Y0.5968  
G01 X-1.0101 Y0.5904  
G01 X-1.0121 Y0.5843  
G01 X-1.0150 Y0.5786  
G01 X-1.0188 Y0.5734  
G01 X-1.0212 Y0.5709  
G01 X-0.9999 Y0.3789  
G01 X-0.9996 Y0.3775  
G01 X-0.9996 Y0.3764  
G01 X-0.9995 Y0.3753  
G01 X-0.9996 Y0.3739  
G01 X-0.9996 Y0.3355  
G01 X-0.9645 Y0.3004  
G01 X-0.8605 Y0.3004  
G01 X-0.8504 Y0.3105  
G01 X-0.8504 Y0.5775  
G01 X-0.8494 Y0.5824  
G01 X-0.8475 Y0.5870  
G01 X-0.8447 Y0.5912  
G01 X-0.8412 Y0.5947  
G01 X-0.8409 Y0.5950  
G01 X-0.8409 Y0.6169  
G01 X-0.8325 Y0.6253  
G01 X-0.8746 Y0.7936  
G01 X-0.8752 Y0.7957  
G01 X-0.8752 Y0.7960  
G01 X-0.8752 Y0.7963  
G01 X-0.8754 Y0.7985  
G01 X-0.8755 Y0.8007  
G01 X-0.8755 Y0.8010  
G01 X-0.8755 Y0.8013  
G01 X-0.8752 Y0.8035  
G01 X-0.8749 Y0.8057  
G01 X-0.8748 Y0.8059  
G01 X-0.8748 Y0.8062  
G01 X-0.8740 Y0.8083  
G01 X-0.8733 Y0.8104  
G01 X-0.8732 Y0.8107  
G01 X-0.8731 Y0.8109  
G01 X-0.8719 Y0.8128  
G01 X-0.8708 Y0.8148  
G01 X-0.8706 Y0.8150  
G01 X-0.8705 Y0.8152  
G01 X-0.8690 Y0.8169  
G01 X-0.8675 Y0.8185  
G01 X-0.8673 Y0.8187  
G01 X-0.8671 Y0.8189  
G01 X-0.8653 Y0.8202  
G01 X-0.8636 Y0.8216  
G01 X-0.8633 Y0.8217  
G01 X-0.8631 Y0.8219  
G01 X-0.8611 Y0.8228  
G01 X-0.8128 Y0.8470  
G01 X-0.8120 Y0.8475  
G01 X-0.8106 Y0.8481  
G01 X-0.8091 Y0.8488  
G01 X-0.8082 Y0.8491  
G01 X-0.8074 Y0.8494  
G01 X-0.8058 Y0.8497  
G01 X-0.8043 Y0.8502  
G01 X-0.8034 Y0.8502  
G01 X-0.8025 Y0.8504  
G01 X-0.8009 Y0.8504  
G01 X-0.7993 Y0.8505  
G01 X-0.7984 Y0.8504  
G01 X-0.7000 Y0.8504  
G01 X-0.6975 Y0.8504  
G01 X-0.6951 Y0.8499  
G01 X-0.6926 Y0.8494  
G01 X-0.6903 Y0.8485  
G01 X-0.6880 Y0.8475  
G01 X-0.6859 Y0.8461  
G01 X-0.6130 Y0.7975  
G01 X-0.6109 Y0.7961  
G01 X-0.6088 Y0.7947  
G01 X-0.6070 Y0.7930  
G01 X-0.6053 Y0.7912  
G01 X-0.5395 Y0.7254  
G01 X-0.2491 Y0.7254  
G01 X-0.2442 Y0.7244  
G01 X-0.2395 Y0.7225  
G01 X-0.2354 Y0.7197  
G01 X-0.1469 Y0.6312  
G01 X-0.1437 Y0.6355  
G01 X-0.1371 Y0.6422  
G01 X-0.1296 Y0.6477  
G01 X-0.1238 Y0.6506  
G01 X-0.1238 Y0.9931  
G01 X-0.1296 Y0.9960  
G01 X-0.1371 Y1.0015  
G01 X-0.1437 Y1.0082  
G01 X-0.1492 Y1.0157  
G01 X-0.1535 Y1.0240  
G01 X-0.1564 Y1.0329  
G01 X-0.1578 Y1.0422  
G01 X-0.1578 Y1.1515  
G01 X-0.1564 Y1.1608  
G01 X-0.1535 Y1.1697  
G01 X-0.1492 Y1.1780  
G01 X-0.1437 Y1.1855  
G01 X-0.1371 Y1.1922  
G01 X-0.1296 Y1.1977  
G01 X-0.1238 Y1.2006  
G01 X-0.1238 Y1.5431  
G01 X-0.1296 Y1.5460  
G01 X-0.1371 Y1.5515  
G01 X-0.1437 Y1.5582  
G01 X-0.1492 Y1.5657  
G01 X-0.1535 Y1.5740  
G01 X-0.1564 Y1.5829  
G01 X-0.1578 Y1.5922  
G01 X-0.1578 Y1.7015  
G01 X-0.1564 Y1.7108  
G01 X-0.1535 Y1.7197  
G01 X-0.1492 Y1.7280  
G01 X-0.1437 Y1.7355  
G01 X-0.1371 Y1.7422  
G01 X-0.1296 Y1.7477  
G01 X-0.1238 Y1.7506  
G01 X-0.1238 Y1.9379  
G01 X-0.1505 Y1.9646  
G01 X-0.1647 Y1.9646  
G01 X-0.1854 Y1.9853  
G01 X-0.1854 Y2.0147  
G01 X-0.1754 Y2.0247  
G01 X-0.1754 Y2.3478  
G01 X-0.1744 Y2.3527  
G01 X-0.1725 Y2.3573  
G01 X-0.1697 Y2.3615  
G01 X-0.1578 Y2.3734  
G01 X-0.1578 Y2.4089  
G01 X-0.2157 Y2.5246  
G01 X-0.6824 Y2.5246  
G01 X-0.7416 Y2.3667  
G01 X-0.7396 Y2.3647  
G01 X-0.7396 Y2.3353  
G01 X-0.7603 Y2.3146  
G01 X-0.7897 Y2.3146  
G01 X-0.7997 Y2.3246  
G01 X-0.8753 Y2.3246  
G01 X-0.8853 Y2.3146  
G01 X-0.9147 Y2.3146  
G01 X-0.9247 Y2.3246  
G01 X-1.0843 Y2.3246  
G01 X-1.2246 Y2.0440  
G01 X-1.2246 Y1.9747  
G01 X-1.2146 Y1.9647  
G01 X-1.2146 Y1.9353  
G01 X-1.2353 Y1.9146  
G01 X-1.2647 Y1.9146  
G01 X-1.2854 Y1.9353  
G01 X-1.2854 Y1.9647  
G01 X-1.2754 Y1.9747  
G01 X-1.2754 Y2.0484  
G01 X-1.2755 Y2.0493  
G01 X-1.2754 Y2.0509  
G01 X-1.2754 Y2.0525  
G01 X-1.2752 Y2.0534  
G01 X-1.2752 Y2.0543  
G01 X-1.2747 Y2.0558  
G01 X-1.2744 Y2.0574  
G01 X-1.2741 Y2.0582  
G01 X-1.2738 Y2.0591  
G01 X-1.2731 Y2.0606  
G01 X-1.2725 Y2.0620  
G01 X-1.2720 Y2.0628  
G01 X-1.1231 Y2.3606  
G01 X-1.1225 Y2.3620  
G01 X-1.1220 Y2.3628  
G01 X-1.1216 Y2.3636  
G01 X-1.1206 Y2.3649  
G01 X-1.1197 Y2.3662  
G01 X-1.1191 Y2.3668  
G01 X-1.1185 Y2.3675  
G01 X-1.1173 Y2.3686  
G01 X-1.1162 Y2.3697  
G01 X-1.1154 Y2.3702  
G01 X-1.1148 Y2.3708  
G01 X-1.1134 Y2.3716  
G01 X-1.1120 Y2.3725  
G01 X-1.1112 Y2.3729  
G01 X-1.1104 Y2.3733  
G01 X-1.1089 Y2.3738  
G01 X-1.1074 Y2.3744  
G01 X-1.1065 Y2.3746  
G01 X-1.1057 Y2.3749  
G01 X-1.1041 Y2.3751  
G01 X-1.1025 Y2.3754  
G01 X-1.1016 Y2.3754  
G01 X-1.1007 Y2.3755  
G01 X-1.0991 Y2.3754  
G01 X-0.9247 Y2.3754  
G01 X-0.9147 Y2.3854  
G01 X-0.8853 Y2.3854  
G01 X-0.8753 Y2.3754  
G01 X-0.7997 Y2.3754  
G01 X-0.7897 Y2.3854  
G01 X-0.7889 Y2.3854  
G01 X-0.7245 Y2.5570  
G01 X-0.7244 Y2.5574  
G01 X-0.7236 Y2.5593  
G01 X-0.7229 Y2.5613  
G01 X-0.7227 Y2.5616  
G01 X-0.7225 Y2.5620  
G01 X-0.7214 Y2.5638  
G01 X-0.7203 Y2.5655  
G01 X-0.7200 Y2.5658  
G01 X-0.7197 Y2.5662  
G01 X-0.7183 Y2.5677  
G01 X-0.7169 Y2.5692  
G01 X-0.7165 Y2.5694  
G01 X-0.7162 Y2.5697  
G01 X-0.7145 Y2.5709  
G01 X-0.7128 Y2.5721  
G01 X-0.7124 Y2.5723  
G01 X-0.7120 Y2.5725  
G01 X-0.7101 Y2.5733  
G01 X-0.7082 Y2.5742  
G01 X-0.7078 Y2.5743  
G01 X-0.7074 Y2.5744  
G01 X-0.7054 Y2.5748  
G01 X-0.7034 Y2.5753  
G01 X-0.7029 Y2.5753  
G01 X-0.7025 Y2.5754  
G01 X-0.7004 Y2.5754  
G01 X-0.6984 Y2.5755  
G01 X-0.6979 Y2.5754  
G01 X-0.2009 Y2.5754  
G01 X-0.1993 Y2.5755  
G01 X-0.1984 Y2.5754  
G01 X-0.1975 Y2.5754  
G01 X-0.1959 Y2.5751  
G01 X-0.1943 Y2.5749  
G01 X-0.1935 Y2.5746  
G01 X-0.1926 Y2.5744  
G01 X-0.1911 Y2.5738  
G01 X-0.1896 Y2.5733  
G01 X-0.1888 Y2.5729  
G01 X-0.1880 Y2.5725  
G01 X-0.1866 Y2.5716  
G01 X-0.1852 Y2.5708  
G01 X-0.1846 Y2.5702  
G01 X-0.1838 Y2.5697  
G01 X-0.1827 Y2.5686  
G01 X-0.1815 Y2.5675  
G01 X-0.1809 Y2.5668  
G01 X-0.1803 Y2.5662  
G01 X-0.1794 Y2.5649  
G01 X-0.1784 Y2.5636  
G01 X-0.1780 Y2.5628  
G01 X-0.1775 Y2.5620  
G01 X-0.1769 Y2.5606  
G01 X-0.1408 Y2.4885  
G01 X-0.1371 Y2.4922  
G01 X-0.1296 Y2.4977  
G01 X-0.1212 Y2.5019  
G01 X-0.1123 Y2.5048  
G01 X-0.1031 Y2.5063  
G01 X-0.0938 Y2.5063  
G01 X-0.0845 Y2.5048  
G01 X-0.0756 Y2.5019  
G01 X-0.0673 Y2.4977  
G01 X-0.0597 Y2.4922  
G01 X-0.0531 Y2.4855  
G01 X-0.0476 Y2.4780  
G01 X-0.0434 Y2.4697  
G01 X-0.0405 Y2.4608  
G01 X-0.0390 Y2.4515  
G01 X-0.0390 Y2.3422  
G01 X-0.0405 Y2.3329  
G01 X-0.0434 Y2.3240  
G01 X-0.0476 Y2.3157  
G01 X-0.0531 Y2.3082  
G01 X-0.0597 Y2.3015  
